luts/acros_ye.cube
# sRGB
# source: Fuji XTrans III - Acros+Ye (Stuart Sowerby Fuji XTrans III .3dl, N17->N32)
LUT_3D_SIZE 32
0.003907 0.003907 0.003907
0.006932 0.006932 0.006932
0.010296 0.010296 0.010296
0.018740 0.018740 0.018740
0.027500 0.027500 0.027484
0.038465 0.038465 0.038324
0.050920 0.050920 0.050723
0.069826 0.069826 0.069881
0.090244 0.090244 0.090425
0.115199 0.115199 0.115129
0.141455 0.141455 0.141250
0.170570 0.170570 0.170491
0.201150 0.201150 0.201150
0.234172 0.234172 0.234172
0.252747 0.252747 0.252747
0.252747 0.252747 0.252747
0.294151 0.294151 0.294151
0.376959 0.376959 0.376959
0.423680 0.423680 0.423680
0.442333 0.442333 0.442333
0.462247 0.462247 0.462247
0.482918 0.482918 0.482918
0.489377 0.489377 0.489377
0.489377 0.489377 0.489377
0.489377 0.489377 0.489377
0.489377 0.489377 0.489377
0.515184 0.515184 0.515184
0.546946 0.546946 0.546946
0.550916 0.550916 0.550916
0.550916 0.550916 0.550916
0.550916 0.550916 0.550916
0.550916 0.550916 0.550916
0.005294 0.005294 0.005294
0.008969 0.008969 0.008969
0.012930 0.012930 0.012930
0.021180 0.021180 0.021180
0.029801 0.029801 0.029794
0.041027 0.041027 0.040958
0.053680 0.053680 0.053585
0.072521 0.072521 0.072548
0.093086 0.093086 0.093173
0.118822 0.118822 0.118788
0.145533 0.145533 0.145434
0.174388 0.174388 0.174350
0.204098 0.204098 0.204098
0.235233 0.235233 0.235233
0.261228 0.261228 0.261228
0.280614 0.280614 0.280614
0.322018 0.322018 0.322018
0.385440 0.385440 0.385440
0.423680 0.423680 0.423680
0.442333 0.442333 0.442333
0.462247 0.462247 0.462247
0.482918 0.482918 0.482918
0.489377 0.489377 0.489377
0.489377 0.489377 0.489377
0.499574 0.499574 0.499574
0.513170 0.513170 0.513170
0.528206 0.528206 0.528206
0.543575 0.543575 0.543575
0.545496 0.545496 0.545496
0.545496 0.545496 0.545496
0.545496 0.545496 0.545496
0.545496 0.545496 0.545496
0.006688 0.006688 0.006688
0.010929 0.010929 0.010929
0.015418 0.015418 0.015418
0.023648 0.023648 0.023648
0.032299 0.032299 0.032299
0.043911 0.043911 0.043911
0.056857 0.056857 0.056857
0.075584 0.075584 0.075584
0.096248 0.096248 0.096249
0.122725 0.122725 0.122730
0.149871 0.149871 0.149877
0.178490 0.178490 0.178492
0.207404 0.207404 0.207404
0.236812 0.236812 0.236812
0.269649 0.269649 0.269649
0.306896 0.306896 0.306896
0.348143 0.348143 0.348143
0.393391 0.393391 0.393391
0.423680 0.423680 0.423680
0.442333 0.442333 0.442333
0.462247 0.462247 0.462247
0.482918 0.482918 0.482918
0.489961 0.489961 0.489961
0.490811 0.490811 0.490811
0.510143 0.510143 0.510143
0.535635 0.535635 0.535635
0.540415 0.540415 0.540415
0.540415 0.540415 0.540415
0.540415 0.540415 0.540415
0.540415 0.540415 0.540415
0.541623 0.541623 0.541623
0.542912 0.542912 0.542912
0.008200 0.008200 0.008200
0.011725 0.011725 0.011725
0.015707 0.015707 0.015707
0.026538 0.026538 0.026538
0.037752 0.037752 0.037752
0.051640 0.051640 0.051640
0.066278 0.066278 0.066278
0.084159 0.084159 0.084159
0.104221 0.104221 0.104239
0.130828 0.130828 0.130914
0.158104 0.158104 0.158216
0.186853 0.186853 0.186896
0.216093 0.216093 0.216093
0.246151 0.246151 0.246151
0.277163 0.277163 0.277163
0.309400 0.309400 0.309400
0.348143 0.348143 0.348143
0.393391 0.393391 0.393391
0.423680 0.423680 0.423680
0.442333 0.442333 0.442333
0.462247 0.462247 0.462247
0.482918 0.482918 0.482918
0.499309 0.499309 0.499309
0.513754 0.513754 0.513754
0.526288 0.526288 0.526288
0.538185 0.538185 0.538185
0.540415 0.540415 0.540415
0.540415 0.540415 0.540415
0.540415 0.540415 0.540415
0.540415 0.540415 0.540415
0.560956 0.560956 0.560956
0.582867 0.582867 0.582867
0.010107 0.010107 0.010107
0.013176 0.013176 0.013168
0.016873 0.016873 0.016858
0.029981 0.029981 0.029974
0.043492 0.043492 0.043492
0.059820 0.059820 0.059820
0.076267 0.076267 0.076267
0.093230 0.093230 0.093230
0.112707 0.112707 0.112736
0.139728 0.139728 0.139875
0.167269 0.167269 0.167463
0.195953 0.195953 0.196037
0.225378 0.225378 0.225390
0.256037 0.256037 0.256042
0.285467 0.285467 0.285467
0.313313 0.313313 0.313313
0.349295 0.349295 0.349295
0.393413 0.393413 0.393413
0.423742 0.423742 0.423742
0.443347 0.443347 0.443347
0.463567 0.463567 0.463567
0.484156 0.484156 0.484156
0.508270 0.508270 0.508270
0.533986 0.533986 0.533986
0.540415 0.540415 0.540415
0.540415 0.540415 0.540415
0.540415 0.540415 0.540415
0.540415 0.540415 0.540415
0.542792 0.542792 0.542792
0.545508 0.545508 0.545508
0.580718 0.580718 0.580718
0.618094 0.618094 0.618094
0.014770 0.014770 0.014770
0.019206 0.019206 0.019133
0.024184 0.024184 0.024046
0.037292 0.037292 0.037228
0.051250 0.051250 0.051250
0.071156 0.071156 0.071156
0.090241 0.090241 0.090241
0.105773 0.105773 0.105773
0.124778 0.124778 0.124791
0.154206 0.154206 0.154272
0.182954 0.182954 0.183063
0.210207 0.210207 0.210336
0.238835 0.238835 0.238950
0.269755 0.269755 0.269797
0.299302 0.299302 0.299302
0.327084 0.327084 0.327084
0.358512 0.358512 0.358512
0.393588 0.393588 0.393588
0.424242 0.424242 0.424242
0.451458 0.451458 0.451458
0.474126 0.474126 0.474126
0.494065 0.494065 0.494065
0.514531 0.514531 0.514531
0.535238 0.535238 0.535238
0.540415 0.540415 0.540415
0.540415 0.540415 0.540415
0.540415 0.540415 0.540415
0.540415 0.540415 0.540415
0.561803 0.561803 0.561803
0.586247 0.586247 0.586247
0.603482 0.603482 0.603482
0.620237 0.620237 0.620237
0.023309 0.023309 0.023333
0.028745 0.028745 0.028655
0.034636 0.034636 0.034446
0.047354 0.047354 0.047265
0.061062 0.061062 0.061062
0.081704 0.081704 0.081704
0.101401 0.101401 0.101401
0.117001 0.117001 0.117001
0.136642 0.136642 0.136642
0.168404 0.168404 0.168404
0.198446 0.198446 0.198482
0.224707 0.224707 0.224857
0.252703 0.252703 0.252881
0.283591 0.283591 0.283655
0.312915 0.312915 0.312915
0.340229 0.340229 0.340229
0.367829 0.367829 0.367829
0.395716 0.395716 0.395716
0.426519 0.426519 0.426519
0.459590 0.459590 0.459590
0.484100 0.484100 0.484100
0.503474 0.503474 0.503474
0.521637 0.521637 0.521637
0.539250 0.539250 0.539250
0.545455 0.545455 0.545455
0.547858 0.547858 0.547858
0.548308 0.548308 0.548308
0.548308 0.548308 0.548308
0.581579 0.581579 0.581579
0.619602 0.619602 0.619602
0.621978 0.621978 0.621978
0.621978 0.621978 0.621978
0.048643 0.048643 0.048793
0.053494 0.053494 0.053594
0.058706 0.058706 0.058759
0.069342 0.069342 0.069367
0.079781 0.079781 0.079781
0.088844 0.088844 0.088844
0.100364 0.100364 0.100364
0.122535 0.122535 0.122535
0.147607 0.147607 0.147607
0.181386 0.181386 0.181386
0.213099 0.213099 0.213115
0.240271 0.240271 0.240335
0.268348 0.268348 0.268424
0.297935 0.297935 0.297962
0.325559 0.325559 0.325559
0.350661 0.350661 0.350661
0.377579 0.377579 0.377579
0.406312 0.406312 0.406312
0.436497 0.436497 0.436497
0.467811 0.467811 0.467811
0.491541 0.491541 0.491541
0.510719 0.510719 0.510719
0.532399 0.532399 0.532399
0.555216 0.555216 0.555216
0.572334 0.572334 0.572334
0.587552 0.587552 0.587552
0.590405 0.590405 0.590405
0.590405 0.590405 0.590405
0.604664 0.604664 0.604664
0.620960 0.620960 0.620960
0.621978 0.621978 0.621978
0.621978 0.621978 0.621978
0.073756 0.073756 0.073969
0.078200 0.078200 0.078429
0.082946 0.082946 0.083182
0.092216 0.092216 0.092326
0.100527 0.100527 0.100527
0.102124 0.102124 0.102124
0.108379 0.108379 0.108379
0.134810 0.134810 0.134810
0.163314 0.163314 0.163314
0.198036 0.198036 0.198036
0.229946 0.229946 0.229946
0.255670 0.255670 0.255670
0.282849 0.282849 0.282849
0.312452 0.312452 0.312452
0.339246 0.339246 0.339246
0.362429 0.362429 0.362429
0.388492 0.388492 0.388492
0.417437 0.417437 0.417437
0.446808 0.446808 0.446808
0.476513 0.476513 0.476513
0.499588 0.499588 0.499588
0.518685 0.518685 0.518685
0.542117 0.542117 0.542117
0.567520 0.567520 0.567520
0.592493 0.592493 0.592493
0.617322 0.617322 0.617322
0.621978 0.621978 0.621978
0.621978 0.621978 0.621978
0.621978 0.621978 0.621978
0.621978 0.621978 0.621978
0.621978 0.621978 0.621978
0.621978 0.621978 0.621978
0.098208 0.098208 0.098295
0.102782 0.102782 0.102950
0.107698 0.107698 0.107934
0.117749 0.117749 0.117859
0.127353 0.127353 0.127353
0.133829 0.133829 0.133829
0.143548 0.143548 0.143548
0.167312 0.167312 0.167312
0.193247 0.193247 0.193247
0.225691 0.225691 0.225691
0.253373 0.253373 0.253373
0.270575 0.270575 0.270575
0.293916 0.293916 0.293916
0.327487 0.327487 0.327487
0.356058 0.356058 0.356058
0.378200 0.378200 0.378200
0.402897 0.402897 0.402897
0.430150 0.430150 0.430150
0.458123 0.458123 0.458123
0.486657 0.486657 0.486657
0.509455 0.509455 0.509455
0.528812 0.528812 0.528812
0.548703 0.548703 0.548703
0.568837 0.568837 0.568837
0.592493 0.592493 0.592493
0.617322 0.617322 0.617322
0.621978 0.621978 0.621978
0.621978 0.621978 0.621978
0.621978 0.621978 0.621978
0.621978 0.621978 0.621978
0.621978 0.621978 0.621978
0.621978 0.621978 0.621978
0.115018 0.115018 0.115018
0.125984 0.125984 0.126089
0.136819 0.136819 0.137017
0.145698 0.145698 0.145791
0.154669 0.154669 0.154669
0.164276 0.164276 0.164276
0.176050 0.176050 0.176050
0.197208 0.197208 0.197208
0.221071 0.221071 0.221071
0.253048 0.253048 0.253048
0.278615 0.278615 0.278615
0.290081 0.290081 0.290081
0.310341 0.310341 0.310341
0.345257 0.345257 0.345257
0.374006 0.374006 0.374006
0.394822 0.394822 0.394822
0.418083 0.418083 0.418072
0.443786 0.443786 0.443756
0.470286 0.470286 0.470258
0.497405 0.497405 0.497397
0.520076 0.520076 0.520076
0.540080 0.540080 0.540080
0.557794 0.557794 0.557794
0.574468 0.574468 0.574468
0.594255 0.594255 0.594255
0.615080 0.615080 0.615080
0.620240 0.620240 0.620240
0.621785 0.621785 0.621785
0.621978 0.621978 0.621978
0.621978 0.621978 0.621978
0.621978 0.621978 0.621978
0.621978 0.621978 0.621978
0.115018 0.115018 0.115018
0.146150 0.146150 0.146191
0.175549 0.175549 0.175625
0.178964 0.178964 0.179000
0.183064 0.183064 0.183064
0.191956 0.191956 0.191956
0.202684 0.202684 0.202684
0.221371 0.221371 0.221371
0.244258 0.244258 0.244258
0.279748 0.279748 0.279748
0.307852 0.307852 0.307852
0.319708 0.319708 0.319708
0.338553 0.338553 0.338553
0.369046 0.369046 0.369046
0.394452 0.394452 0.394452
0.413317 0.413317 0.413317
0.434984 0.434984 0.434941
0.459452 0.459452 0.459324
0.484313 0.484313 0.484195
0.509480 0.509480 0.509448
0.532355 0.532355 0.532355
0.553855 0.553855 0.553855
0.572394 0.572394 0.572394
0.589589 0.589589 0.589589
0.599894 0.599894 0.599894
0.607904 0.607904 0.607904
0.614678 0.614678 0.614678
0.621167 0.621167 0.621167
0.621978 0.621978 0.621978
0.621978 0.621978 0.621978
0.621978 0.621978 0.621978
0.621978 0.621978 0.621978
0.126078 0.126078 0.126078
0.169545 0.169545 0.169545
0.210296 0.210296 0.210296
0.210296 0.210296 0.210296
0.211418 0.211418 0.211418
0.220400 0.220400 0.220400
0.230472 0.230472 0.230467
0.245271 0.245271 0.245242
0.265811 0.265811 0.265769
0.303569 0.303569 0.303553
0.333615 0.333615 0.333615
0.346690 0.346690 0.346690
0.365251 0.365251 0.365251
0.392956 0.392956 0.392956
0.416014 0.416014 0.416014
0.433098 0.433098 0.433098
0.452963 0.452963 0.452912
0.475610 0.475610 0.475457
0.498562 0.498562 0.498423
0.521754 0.521754 0.521715
0.544350 0.544350 0.544350
0.566590 0.566590 0.566590
0.585232 0.585232 0.585232
0.602239 0.602239 0.602239
0.606491 0.606491 0.606491
0.606491 0.606491 0.606491
0.612768 0.612768 0.612768
0.620492 0.620492 0.620492
0.626218 0.626218 0.626218
0.631658 0.631658 0.631658
0.636206 0.636206 0.636206
0.640695 0.640695 0.640695
0.155571 0.155571 0.155571
0.198323 0.198323 0.198323
0.238402 0.238402 0.238402
0.238402 0.238402 0.238402
0.239704 0.239704 0.239704
0.250116 0.250116 0.250116
0.260180 0.260180 0.260164
0.268735 0.268735 0.268629
0.284639 0.284639 0.284488
0.322593 0.322593 0.322532
0.353586 0.353586 0.353586
0.369263 0.369263 0.369263
0.389426 0.389426 0.389426
0.417066 0.417066 0.417066
0.439432 0.439432 0.439432
0.455021 0.455021 0.455021
0.472739 0.472739 0.472721
0.492588 0.492588 0.492533
0.513183 0.513183 0.513133
0.534357 0.534357 0.534344
0.555872 0.555872 0.555872
0.577592 0.577592 0.577592
0.595132 0.595132 0.595132
0.610773 0.610773 0.610773
0.614684 0.614684 0.614684
0.614684 0.614684 0.614684
0.616943 0.616943 0.616943
0.619724 0.619724 0.619724
0.637525 0.637525 0.637525
0.657472 0.657472 0.657472
0.674148 0.674148 0.674148
0.690606 0.690606 0.690606
0.190689 0.190689 0.190689
0.223475 0.223475 0.223475
0.254212 0.254212 0.254212
0.254212 0.254212 0.254212
0.255615 0.255615 0.255615
0.266832 0.266832 0.266832
0.278151 0.278151 0.278133
0.289909 0.289909 0.289793
0.307603 0.307603 0.307439
0.343106 0.343106 0.343039
0.372924 0.372924 0.372924
0.390236 0.390236 0.390236
0.410734 0.410734 0.410734
0.436544 0.436544 0.436544
0.458410 0.458410 0.458410
0.475205 0.475205 0.475205
0.492727 0.492727 0.492727
0.510974 0.510974 0.510974
0.530086 0.530086 0.530086
0.549870 0.549870 0.549870
0.570022 0.570022 0.570022
0.590396 0.590396 0.590396
0.607672 0.607672 0.607672
0.623541 0.623541 0.623541
0.627508 0.627508 0.627508
0.627508 0.627508 0.627508
0.627508 0.627508 0.627508
0.627508 0.627508 0.627508
0.650781 0.650781 0.650781
0.677380 0.677380 0.677380
0.695874 0.695874 0.695874
0.713829 0.713829 0.713829
0.233038 0.233038 0.233038
0.243967 0.243967 0.243967
0.254212 0.254212 0.254212
0.254212 0.254212 0.254212
0.255615 0.255615 0.255615
0.266832 0.266832 0.266832
0.281030 0.281030 0.281023
0.308140 0.308140 0.308101
0.335885 0.335885 0.335830
0.365532 0.365532 0.365510
0.391447 0.391447 0.391447
0.409150 0.409150 0.409150
0.428355 0.428355 0.428355
0.450066 0.450066 0.450066
0.471676 0.471676 0.471676
0.493156 0.493156 0.493156
0.512986 0.512986 0.512986
0.531169 0.531169 0.531169
0.549922 0.549922 0.549922
0.569121 0.569121 0.569121
0.587550 0.587550 0.587550
0.605516 0.605516 0.605516
0.623606 0.623606 0.623606
0.641751 0.641751 0.641751
0.646288 0.646288 0.646288
0.646288 0.646288 0.646288
0.646288 0.646288 0.646288
0.646288 0.646288 0.646288
0.666544 0.666544 0.666544
0.689695 0.689695 0.689695
0.696753 0.696753 0.696753
0.702737 0.702737 0.702737
0.233038 0.233038 0.233038
0.243967 0.243967 0.243967
0.254212 0.254212 0.254212
0.254212 0.254212 0.254212
0.256416 0.256416 0.256416
0.274041 0.274041 0.274041
0.293682 0.293682 0.293682
0.322061 0.322061 0.322061
0.350026 0.350026 0.350026
0.376746 0.376746 0.376746
0.402173 0.402173 0.402173
0.424754 0.424754 0.424754
0.444484 0.444484 0.444484
0.459462 0.459462 0.459462
0.481255 0.481255 0.481255
0.511809 0.511809 0.511809
0.533819 0.533819 0.533819
0.547285 0.547285 0.547285
0.565366 0.565366 0.565366
0.587037 0.587037 0.587037
0.604888 0.604888 0.604888
0.620448 0.620448 0.620448
0.637740 0.637740 0.637740
0.655821 0.655821 0.655821
0.660341 0.660341 0.660341
0.660341 0.660341 0.660341
0.660341 0.660341 0.660341
0.660341 0.660341 0.660341
0.679545 0.679545 0.679545
0.701492 0.701492 0.701492
0.707742 0.707742 0.707742
0.712947 0.712947 0.712947
0.190689 0.190689 0.190689
0.223475 0.223475 0.223475
0.254212 0.254212 0.254212
0.254212 0.254212 0.254212
0.258018 0.258018 0.258018
0.288458 0.288458 0.288458
0.316109 0.316109 0.316109
0.331673 0.331673 0.331673
0.350026 0.350026 0.350026
0.376746 0.376746 0.376746
0.405100 0.405100 0.405100
0.437049 0.437049 0.437049
0.459121 0.459121 0.459121
0.464732 0.464732 0.464732
0.487146 0.487146 0.487146
0.531167 0.531167 0.531167
0.555226 0.555226 0.555226
0.559324 0.559324 0.559324
0.576417 0.576417 0.576417
0.603617 0.603617 0.603617
0.622037 0.622037 0.622037
0.635190 0.635190 0.635190
0.650076 0.650076 0.650076
0.665750 0.665750 0.665750
0.669668 0.669668 0.669668
0.669668 0.669668 0.669668
0.669668 0.669668 0.669668
0.669668 0.669668 0.669668
0.689782 0.689782 0.689782
0.712770 0.712770 0.712770
0.728844 0.728844 0.728844
0.744456 0.744456 0.744456
0.172161 0.172161 0.172161
0.214510 0.214510 0.214510
0.254212 0.254212 0.254212
0.254212 0.254212 0.254212
0.260850 0.260850 0.260850
0.313949 0.313949 0.313949
0.355761 0.355761 0.355761
0.348667 0.348667 0.348667
0.352642 0.352642 0.352642
0.389827 0.389827 0.389827
0.423387 0.423387 0.423387
0.448969 0.448969 0.448969
0.465360 0.465360 0.465360
0.466433 0.466433 0.466433
0.492363 0.492363 0.492363
0.550252 0.550252 0.550252
0.579196 0.579196 0.579196
0.579196 0.579196 0.579196
0.591616 0.591616 0.591616
0.613698 0.613698 0.613698
0.632811 0.632811 0.632811
0.650143 0.650143 0.650143
0.666165 0.666165 0.666165
0.681590 0.681590 0.681590
0.680918 0.680918 0.680918
0.674881 0.674881 0.674881
0.681895 0.681895 0.681895
0.691921 0.691921 0.691921
0.707732 0.707732 0.707732
0.724369 0.724369 0.724369
0.738826 0.738826 0.738826
0.753137 0.753137 0.753137
0.172161 0.172161 0.172161
0.214510 0.214510 0.214510
0.254212 0.254212 0.254212
0.254212 0.254212 0.254212
0.264639 0.264639 0.264639
0.348052 0.348052 0.348052
0.408812 0.408812 0.408812
0.371402 0.371402 0.371402
0.357293 0.357293 0.357293
0.413084 0.413084 0.413084
0.453620 0.453620 0.453620
0.460597 0.460597 0.460597
0.465067 0.465067 0.465067
0.465360 0.465360 0.465360
0.497055 0.497055 0.497055
0.569125 0.569125 0.569125
0.605160 0.605160 0.605160
0.605160 0.605160 0.605160
0.610042 0.610042 0.610042
0.618723 0.618723 0.618723
0.638625 0.638625 0.638625
0.665260 0.665260 0.665260
0.685172 0.685172 0.685172
0.702029 0.702029 0.702029
0.693664 0.693664 0.693664
0.676893 0.676893 0.676893
0.696377 0.696377 0.696377
0.724228 0.724228 0.724228
0.731679 0.731679 0.731679
0.736216 0.736216 0.736216
0.740159 0.740159 0.740159
0.744062 0.744062 0.744062
0.227776 0.227776 0.227776
0.241421 0.241421 0.241421
0.254212 0.254212 0.254212
0.254212 0.254212 0.254212
0.266060 0.266060 0.266060
0.360841 0.360841 0.360841
0.428705 0.428705 0.428705
0.379928 0.379928 0.379928
0.356130 0.356130 0.356130
0.407270 0.407270 0.407270
0.446062 0.446062 0.446062
0.457690 0.457690 0.457690
0.468982 0.468982 0.468982
0.479716 0.479716 0.479716
0.514915 0.514915 0.514915
0.581569 0.581569 0.581569
0.614896 0.614896 0.614896
0.614896 0.614896 0.614896
0.622418 0.622418 0.622418
0.635790 0.635790 0.635790
0.653559 0.653559 0.653559
0.673965 0.673965 0.673965
0.692300 0.692300 0.692300
0.709693 0.709693 0.709693
0.703476 0.703476 0.703476
0.689388 0.689388 0.689388
0.709355 0.709355 0.709355
0.737181 0.737181 0.737181
0.740659 0.740659 0.740659
0.740659 0.740659 0.740659
0.751027 0.751027 0.751027
0.762086 0.762086 0.762086
0.316759 0.316759 0.316759
0.284477 0.284477 0.284477
0.254212 0.254212 0.254212
0.254212 0.254212 0.254212
0.266060 0.266060 0.266060
0.360841 0.360841 0.360841
0.428705 0.428705 0.428705
0.379928 0.379928 0.379928
0.351479 0.351479 0.351479
0.384013 0.384013 0.384013
0.415829 0.415829 0.415829
0.446062 0.446062 0.446062
0.475423 0.475423 0.475423
0.503330 0.503330 0.503330
0.540676 0.540676 0.540676
0.590156 0.590156 0.590156
0.614896 0.614896 0.614896
0.614896 0.614896 0.614896
0.631164 0.631164 0.631164
0.660083 0.660083 0.660083
0.673965 0.673965 0.673965
0.678824 0.678824 0.678824
0.692300 0.692300 0.692300
0.709693 0.709693 0.709693
0.711526 0.711526 0.711526
0.708172 0.708172 0.708172
0.721430 0.721430 0.721430
0.738523 0.738523 0.738523
0.740659 0.740659 0.740659
0.740659 0.740659 0.740659
0.767615 0.767615 0.767615
0.796369 0.796369 0.796369
0.344567 0.344567 0.344567
0.297932 0.297932 0.297932
0.254212 0.254212 0.254212
0.254212 0.254212 0.254212
0.263455 0.263455 0.263455
0.337395 0.337395 0.337395
0.392233 0.392233 0.392233
0.364297 0.364297 0.364297
0.350026 0.350026 0.350026
0.376746 0.376746 0.376746
0.410070 0.410070 0.410070
0.457925 0.457925 0.457925
0.495884 0.495884 0.495884
0.517351 0.517351 0.517351
0.547180 0.547180 0.547180
0.587761 0.587761 0.587761
0.609817 0.609817 0.609817
0.613350 0.613350 0.613350
0.627155 0.627155 0.627155
0.648947 0.648947 0.648947
0.664610 0.664610 0.664610
0.676596 0.676596 0.676596
0.692300 0.692300 0.692300
0.709693 0.709693 0.709693
0.717698 0.717698 0.717698
0.722573 0.722573 0.722573
0.730688 0.730688 0.730688
0.739551 0.739551 0.739551
0.751304 0.751304 0.751304
0.763468 0.763468 0.763468
0.784964 0.784964 0.784964
0.807082 0.807082 0.807082
0.344567 0.344567 0.344567
0.297932 0.297932 0.297932
0.254212 0.254212 0.254212
0.254212 0.254212 0.254212
0.259666 0.259666 0.259666
0.303291 0.303291 0.303291
0.339183 0.339183 0.339183
0.341562 0.341562 0.341562
0.350026 0.350026 0.350026
0.376746 0.376746 0.376746
0.415437 0.415437 0.415437
0.480465 0.480465 0.480465
0.522718 0.522718 0.522718
0.527011 0.527011 0.527011
0.544932 0.544932 0.544932
0.580373 0.580373 0.580373
0.602430 0.602430 0.602430
0.611102 0.611102 0.611102
0.617348 0.617348 0.617348
0.621706 0.621706 0.621706
0.641728 0.641728 0.641728
0.671148 0.671148 0.671148
0.692300 0.692300 0.692300
0.709693 0.709693 0.709693
0.723016 0.723016 0.723016
0.734981 0.734981 0.734981
0.738665 0.738665 0.738665
0.740438 0.740438 0.740438
0.766786 0.766786 0.766786
0.796645 0.796645 0.796645
0.802658 0.802658 0.802658
0.807082 0.807082 0.807082
0.344567 0.344567 0.344567
0.297932 0.297932 0.297932
0.254212 0.254212 0.254212
0.254212 0.254212 0.254212
0.263402 0.263402 0.263402
0.336919 0.336919 0.336919
0.397796 0.397796 0.397796
0.403899 0.403899 0.403899
0.413217 0.413217 0.413217
0.432180 0.432180 0.432180
0.458799 0.458799 0.458799
0.502262 0.502262 0.502262
0.529426 0.529426 0.529426
0.529426 0.529426 0.529426
0.544370 0.544370 0.544370
0.578526 0.578526 0.578526
0.600583 0.600583 0.600583
0.610540 0.610540 0.610540
0.614896 0.614896 0.614896
0.614896 0.614896 0.614896
0.636008 0.636008 0.636008
0.669786 0.669786 0.669786
0.692300 0.692300 0.692300
0.709693 0.709693 0.709693
0.724345 0.724345 0.724345
0.738083 0.738083 0.738083
0.751442 0.751442 0.751442
0.764712 0.764712 0.764712
0.784757 0.784757 0.784757
0.805769 0.805769 0.805769
0.807082 0.807082 0.807082
0.807082 0.807082 0.807082
0.344567 0.344567 0.344567
0.297932 0.297932 0.297932
0.254212 0.254212 0.254212
0.254212 0.254212 0.254212
0.269647 0.269647 0.269647
0.393125 0.393125 0.393125
0.493631 0.493631 0.493631
0.494594 0.494594 0.494594
0.497472 0.497472 0.497472
0.506091 0.506091 0.506091
0.514825 0.514825 0.514825
0.523810 0.523810 0.523810
0.529426 0.529426 0.529426
0.529426 0.529426 0.529426
0.544370 0.544370 0.544370
0.578526 0.578526 0.578526
0.600583 0.600583 0.600583
0.610540 0.610540 0.610540
0.614896 0.614896 0.614896
0.614896 0.614896 0.614896
0.636008 0.636008 0.636008
0.669786 0.669786 0.669786
0.692300 0.692300 0.692300
0.709693 0.709693 0.709693
0.724345 0.724345 0.724345
0.738083 0.738083 0.738083
0.765818 0.765818 0.765818
0.796783 0.796783 0.796783
0.803557 0.803557 0.803557
0.806874 0.806874 0.806874
0.807082 0.807082 0.807082
0.807082 0.807082 0.807082
0.364229 0.364229 0.364229
0.337151 0.337151 0.337151
0.310952 0.310952 0.310952
0.297950 0.297950 0.297950
0.301091 0.301091 0.301091
0.417234 0.417234 0.417234
0.511600 0.511600 0.511600
0.511600 0.511600 0.511600
0.513270 0.513270 0.513270
0.519950 0.519950 0.519950
0.528980 0.528980 0.528980
0.543182 0.543182 0.543182
0.552058 0.552058 0.552058
0.552058 0.552058 0.552058
0.568528 0.568528 0.568528
0.606173 0.606173 0.606173
0.622389 0.622389 0.622389
0.617177 0.617177 0.617177
0.623161 0.623161 0.623161
0.637855 0.637855 0.637855
0.655293 0.655293 0.655293
0.674378 0.674378 0.674378
0.692300 0.692300 0.692300
0.709693 0.709693 0.709693
0.720024 0.720024 0.720024
0.728001 0.728001 0.728001
0.762033 0.762033 0.762033
0.802076 0.802076 0.802076
0.807082 0.807082 0.807082
0.807082 0.807082 0.807082
0.807082 0.807082 0.807082
0.807082 0.807082 0.807082
0.388428 0.388428 0.388428
0.385419 0.385419 0.385419
0.380786 0.380786 0.380786
0.351781 0.351781 0.351781
0.338349 0.338349 0.338349
0.433936 0.433936 0.433936
0.511600 0.511600 0.511600
0.511600 0.511600 0.511600
0.513270 0.513270 0.513270
0.519950 0.519950 0.519950
0.533473 0.533473 0.533473
0.562051 0.562051 0.562051
0.579913 0.579913 0.579913
0.579913 0.579913 0.579913
0.598261 0.598261 0.598261
0.640199 0.640199 0.640199
0.649227 0.649227 0.649227
0.625345 0.625345 0.625345
0.633334 0.633334 0.633334
0.666112 0.666112 0.666112
