luts/acros.cube
# sRGB
# source: Fuji XTrans III - Acros (Stuart Sowerby Fuji XTrans III .3dl, N17->N32)
LUT_3D_SIZE 5
DOMAIN_MIN 0.000000 0.000000 0.000000
DOMAIN_MAX 0.903226 0.903226 0.903226
0.003907 0.003907 0.003907
0.040742 0.040742 0.040648
0.173382 0.173382 0.173382
0.350451 0.350451 0.350451
0.416361 0.416361 0.416361
0.061696 0.061696 0.061696
0.106820 0.106820 0.106820
0.251744 0.251744 0.251744
0.394441 0.394441 0.394441
0.481163 0.481163 0.481163
0.211635 0.211635 0.211635
0.293827 0.293827 0.293827
0.427979 0.427979 0.427979
0.517972 0.517972 0.517972
0.569388 0.569388 0.569388
0.353192 0.353192 0.353192
0.397818 0.397818 0.397818
0.537057 0.537057 0.537057
0.640788 0.640788 0.640788
0.693284 0.693284 0.693284
0.413431 0.413431 0.413431
0.539683 0.539683 0.539683
0.604608 0.604608 0.604608
0.664170 0.664170 0.664170
0.752869 0.752869 0.752869
0.033377 0.033471 0.033471
0.123276 0.123276 0.123276
0.268726 0.268726 0.268726
0.403832 0.403832 0.403832
0.502301 0.502301 0.502301
0.115603 0.115603 0.115603
0.158440 0.158440 0.158440
0.285784 0.285784 0.285784
0.431273 0.431273 0.431273
0.544289 0.544289 0.544289
0.295016 0.295016 0.295016
0.342170 0.342170 0.342170
0.444618 0.444618 0.444618
0.555250 0.555250 0.555250
0.639942 0.639942 0.639942
0.433322 0.433322 0.433322
0.508454 0.508454 0.508454
0.593822 0.593822 0.593822
0.683284 0.683284 0.683284
0.764735 0.764735 0.764735
0.492308 0.492308 0.492308
0.595413 0.595413 0.595413
0.649439 0.649439 0.649439
0.726379 0.726379 0.726379
0.834921 0.834921 0.834921
0.191713 0.191713 0.191768
0.261378 0.261378 0.261378
0.357537 0.357537 0.357537
0.486412 0.486412 0.486412
0.585868 0.585868 0.585868
0.226887 0.226887 0.226887
0.286536 0.286536 0.286536
0.392306 0.392306 0.392306
0.512736 0.512736 0.512736
0.609949 0.609949 0.609949
0.394001 0.394001 0.394001
0.432787 0.432787 0.432787
0.515626 0.515626 0.515626
0.609286 0.609286 0.609286
0.696551 0.696551 0.696551
0.530380 0.530380 0.530380
0.578615 0.578615 0.578615
0.644398 0.644398 0.644398
0.722546 0.722546 0.722546
0.800939 0.800939 0.800939
0.609780 0.609780 0.609780
0.662761 0.662761 0.662761
0.714108 0.714108 0.714108
0.784409 0.784409 0.784409
0.894592 0.894592 0.894592
0.327157 0.327197 0.327197
0.377428 0.377428 0.377428
0.472208 0.472208 0.472208
0.581546 0.581546 0.581546
0.676024 0.676024 0.676024
0.366719 0.366798 0.366798
0.439753 0.439753 0.439753
0.514659 0.514659 0.514659
0.604973 0.604973 0.604973
0.692454 0.692454 0.692454
0.492939 0.492939 0.492939
0.541894 0.541894 0.541894
0.603761 0.603761 0.603761
0.682012 0.682012 0.682012
0.756240 0.756240 0.756240
0.633598 0.633598 0.633598
0.658979 0.658979 0.658979
0.709008 0.709008 0.709008
0.773725 0.773725 0.773725
0.844025 0.844025 0.844025
0.715089 0.715089 0.715089
0.752448 0.752448 0.752448
0.817198 0.817198 0.817198
0.849857 0.849857 0.849857
0.926701 0.926701 0.926701
0.478955 0.478955 0.478955
0.516087 0.516197 0.516087
0.590776 0.590776 0.590776
0.688005 0.688005 0.688005
0.760333 0.760333 0.760333
0.514476 0.514595 0.514595
0.582676 0.582676 0.582676
0.640991 0.640991 0.640991
0.714096 0.714096 0.714096
0.773302 0.773302 0.773302
0.597680 0.597680 0.597680
0.656998 0.656998 0.656998
0.701738 0.701738 0.701738
0.760530 0.760530 0.760530
0.822550 0.822550 0.822550
0.716549 0.716549 0.716549
0.742735 0.742735 0.742735
0.782684 0.782684 0.782684
0.836037 0.836037 0.836037
0.899316 0.899316 0.899316
0.827595 0.827595 0.827595
0.811559 0.811559 0.811559
0.847477 0.847477 0.847477
0.915009 0.915009 0.915009
0.963352 0.963352 0.963352
