luts/acros_g.cube
# sRGB
# source: Fuji XTrans III - Acros+G (Stuart Sowerby Fuji XTrans III .3dl, N17->N32)
LUT_3D_SIZE 5
DOMAIN_MIN 0.000000 0.000000 0.000000
DOMAIN_MAX 0.903226 0.903226 0.903226
0.003907 0.003907 0.003907
0.023861 0.023861 0.023766
0.135531 0.135531 0.135531
0.268297 0.268297 0.268297
0.316239 0.316239 0.316239
0.081909 0.081909 0.081909
0.102303 0.102303 0.102303
0.209845 0.209845 0.209729
0.315891 0.315891 0.315891
0.391970 0.391970 0.391970
0.243909 0.243909 0.243909
0.320950 0.320950 0.320950
0.417535 0.417535 0.417535
0.461198 0.461198 0.461198
0.504111 0.504111 0.504111
0.395754 0.395754 0.395754
0.438694 0.438694 0.438694
0.555963 0.555963 0.555963
0.609429 0.609429 0.609429
0.638095 0.638095 0.638095
0.459341 0.459341 0.459341
0.593162 0.593162 0.593162
0.633274 0.633274 0.633274
0.644066 0.644066 0.644066
0.691087 0.691087 0.691087
0.039608 0.039608 0.039608
0.105484 0.105484 0.105484
0.220896 0.220896 0.220896
0.300662 0.300662 0.300662
0.376051 0.376051 0.376051
0.134056 0.134056 0.134056
0.158355 0.158355 0.158355
0.243645 0.243645 0.243645
0.344408 0.344408 0.344408
0.429728 0.429728 0.429728
0.333539 0.333539 0.333539
0.373006 0.373006 0.373006
0.439408 0.439408 0.439408
0.500251 0.500251 0.500251
0.552950 0.552950 0.552950
0.481673 0.481673 0.481673
0.559980 0.559980 0.559980
0.621940 0.621940 0.621940
0.669339 0.669339 0.669339
0.705706 0.705706 0.705706
0.540171 0.540171 0.540171
0.652351 0.652351 0.652351
0.684218 0.684218 0.684218
0.724305 0.724305 0.724305
0.806105 0.806105 0.806105
0.184474 0.184474 0.184474
0.240153 0.240153 0.240153
0.318855 0.318855 0.318855
0.399003 0.399003 0.399003
0.452402 0.452402 0.452402
0.245934 0.245934 0.245934
0.289388 0.289388 0.289388
0.366861 0.366861 0.366861
0.438707 0.438707 0.438707
0.486263 0.486263 0.486263
0.429198 0.429198 0.429198
0.457042 0.457042 0.457042
0.515117 0.515117 0.515117
0.571552 0.571552 0.571552
0.603723 0.603723 0.603723
0.574901 0.574901 0.574901
0.623286 0.623286 0.623286
0.669372 0.669372 0.669372
0.717914 0.717914 0.717914
0.759977 0.759977 0.759977
0.659714 0.659714 0.659714
0.712874 0.712874 0.712874
0.752296 0.752296 0.752296
0.795704 0.795704 0.795704
0.882351 0.882351 0.882351
0.294025 0.294025 0.294230
0.338874 0.338749 0.338749
0.426572 0.426572 0.426572
0.523146 0.523146 0.523146
0.593612 0.593612 0.593612
0.379495 0.379495 0.379495
0.440081 0.440081 0.440081
0.500741 0.500741 0.500741
0.565420 0.565420 0.565420
0.616023 0.616023 0.616023
0.524640 0.524640 0.524640
0.558261 0.558261 0.558261
0.606109 0.606109 0.606109
0.662000 0.662000 0.662000
0.705685 0.705685 0.705685
0.672967 0.672967 0.672967
0.691692 0.691692 0.691692
0.727313 0.727313 0.727313
0.773388 0.773388 0.773388
0.819798 0.819798 0.819798
0.764953 0.764953 0.764953
0.796157 0.796157 0.796157
0.849161 0.849161 0.849161
0.863181 0.863181 0.863181
0.917892 0.917892 0.917892
0.419142 0.419142 0.419142
0.457693 0.457531 0.457693
0.531661 0.531576 0.531661
0.626475 0.626475 0.626475
0.695720 0.695720 0.695720
0.499850 0.500000 0.500000
0.568387 0.568387 0.568387
0.621226 0.621226 0.621226
0.684596 0.684596 0.684596
0.726730 0.726730 0.726730
0.628941 0.628941 0.628941
0.667792 0.667792 0.667792
0.704640 0.704640 0.704640
0.750785 0.750785 0.750785
0.792117 0.792117 0.792117
0.747720 0.747720 0.747720
0.763809 0.763809 0.763809
0.796144 0.796144 0.796144
0.837427 0.837427 0.837427
0.885601 0.885601 0.885601
0.863004 0.863004 0.863004
0.846804 0.846804 0.846804
0.870887 0.870887 0.870887
0.927148 0.927148 0.927148
0.960640 0.960640 0.960640
