luts/acros_g.cube
# sRGB
# source: Fuji XTrans III - Acros+G (Stuart Sowerby Fuji XTrans III .3dl, N17->N32)
LUT_3D_SIZE 32
0.003907 0.003907 0.003907
0.005420 0.005420 0.005420
0.006940 0.006940 0.006932
0.008579 0.008579 0.008445
0.010375 0.010375 0.010130
0.013273 0.013273 0.013029
0.016929 0.016929 0.016708
0.023861 0.023861 0.023766
0.032936 0.032936 0.032904
0.048438 0.048438 0.048281
0.064926 0.064926 0.064721
0.083580 0.083580 0.083501
0.103037 0.103037 0.103037
0.123833 0.123833 0.123833
0.135531 0.135531 0.135531
0.135531 0.135531 0.135531
0.160424 0.160424 0.160424
0.210209 0.210209 0.210209
0.236882 0.236882 0.236882
0.245579 0.245579 0.245579
0.256324 0.256324 0.256324
0.268297 0.268297 0.268297
0.272039 0.272039 0.272039
0.272039 0.272039 0.272039
0.272039 0.272039 0.272039
0.272039 0.272039 0.272039
0.290575 0.290575 0.290575
0.313388 0.313388 0.313388
0.316239 0.316239 0.316239
0.316239 0.316239 0.316239
0.316239 0.316239 0.316239
0.316239 0.316239 0.316239
0.006050 0.006050 0.005924
0.007757 0.007757 0.007697
0.009497 0.009497 0.009494
0.011721 0.011721 0.011657
0.014070 0.014070 0.013952
0.017295 0.017295 0.017176
0.021324 0.021324 0.021217
0.028841 0.028841 0.028796
0.038583 0.038583 0.038551
0.054996 0.054996 0.054839
0.071764 0.071764 0.071560
0.089312 0.089312 0.089233
0.107103 0.107103 0.107103
0.125297 0.125297 0.125297
0.140939 0.140939 0.140939
0.153299 0.153299 0.153299
0.178191 0.178191 0.178191
0.215617 0.215617 0.215617
0.236882 0.236882 0.236882
0.245579 0.245579 0.245579
0.256324 0.256324 0.256324
0.268297 0.268297 0.268297
0.272039 0.272039 0.272039
0.272039 0.272039 0.272039
0.280089 0.280089 0.280089
0.290823 0.290823 0.290823
0.301804 0.301804 0.301804
0.312843 0.312843 0.312843
0.314223 0.314223 0.314223
0.314223 0.314223 0.314223
0.314223 0.314223 0.314223
0.314223 0.314223 0.314223
0.008366 0.008366 0.008130
0.010236 0.010236 0.010118
0.012175 0.012175 0.012167
0.015139 0.015139 0.015135
0.018168 0.018168 0.018168
0.021657 0.021657 0.021657
0.026008 0.026008 0.026008
0.034099 0.034099 0.034099
0.044481 0.044481 0.044450
0.061736 0.061736 0.061583
0.078748 0.078748 0.078550
0.095227 0.095227 0.095151
0.111442 0.111442 0.111442
0.127217 0.127217 0.127217
0.146441 0.146441 0.146441
0.170100 0.170100 0.170100
0.194848 0.194848 0.194848
0.220686 0.220686 0.220686
0.236882 0.236882 0.236882
0.245579 0.245579 0.245579
0.256324 0.256324 0.256324
0.268297 0.268297 0.268297
0.272500 0.272500 0.272500
0.273171 0.273171 0.273171
0.288433 0.288433 0.288433
0.308559 0.308559 0.308559
0.312332 0.312332 0.312332
0.312332 0.312332 0.312332
0.312332 0.312332 0.312332
0.312332 0.312332 0.312332
0.313601 0.313601 0.313601
0.314955 0.314955 0.314955
0.013281 0.013281 0.013171
0.014826 0.014826 0.014704
0.016651 0.016651 0.016522
0.022673 0.022673 0.022612
0.028296 0.028296 0.028296
0.031134 0.031134 0.031134
0.035030 0.035030 0.035030
0.043511 0.043511 0.043511
0.054137 0.054137 0.054123
0.071197 0.071197 0.071126
0.087913 0.087913 0.087820
0.103871 0.103871 0.103835
0.119882 0.119882 0.119882
0.135983 0.135983 0.135983
0.153369 0.153369 0.153369
0.172409 0.172409 0.172409
0.194848 0.194848 0.194848
0.220686 0.220686 0.220686
0.236882 0.236882 0.236882
0.245579 0.245579 0.245579
0.256324 0.256324 0.256324
0.268297 0.268297 0.268297
0.279880 0.279880 0.279880
0.291284 0.291284 0.291284
0.301179 0.301179 0.301179
0.310571 0.310571 0.310571
0.312332 0.312332 0.312332
0.312332 0.312332 0.312332
0.312332 0.312332 0.312332
0.312332 0.312332 0.312332
0.333910 0.333910 0.333910
0.356926 0.356926 0.356926
0.019174 0.019174 0.019174
0.020450 0.020450 0.020332
0.022199 0.022199 0.021979
0.031034 0.031034 0.030940
0.039078 0.039078 0.039093
0.041582 0.041582 0.041589
0.045264 0.045264 0.045264
0.054046 0.054046 0.054046
0.064802 0.064802 0.064804
0.081480 0.081480 0.081490
0.097783 0.097783 0.097796
0.113261 0.113261 0.113266
0.129070 0.129070 0.129070
0.145431 0.145431 0.145431
0.161178 0.161178 0.161178
0.176136 0.176136 0.176136
0.196241 0.196241 0.196241
0.221494 0.221494 0.221494
0.237790 0.237790 0.237790
0.247121 0.247121 0.247121
0.258094 0.258094 0.258094
0.270051 0.270051 0.270051
0.287465 0.287465 0.287465
0.307359 0.307359 0.307359
0.312332 0.312332 0.312332
0.312332 0.312332 0.312332
0.312332 0.312332 0.312332
0.312332 0.312332 0.312332
0.315278 0.315278 0.315278
0.318644 0.318644 0.318644
0.355664 0.355664 0.355664
0.394927 0.394927 0.394927
0.031904 0.031904 0.031904
0.033310 0.033310 0.033257
0.035250 0.035250 0.035156
0.045191 0.045191 0.045223
0.054438 0.054438 0.054571
0.058829 0.058829 0.058889
0.063983 0.063983 0.063983
0.072440 0.072440 0.072440
0.082529 0.082529 0.082547
0.097515 0.097515 0.097607
0.112594 0.112594 0.112713
0.127878 0.127878 0.127923
0.143492 0.143492 0.143492
0.159657 0.159657 0.159657
0.175152 0.175152 0.175152
0.189785 0.189785 0.189785
0.207385 0.207385 0.207385
0.227954 0.227954 0.227954
0.245056 0.245056 0.245056
0.259461 0.259461 0.259461
0.272255 0.272255 0.272255
0.284082 0.284082 0.284082
0.296491 0.296491 0.296491
0.309164 0.309164 0.309164
0.312332 0.312332 0.312332
0.312332 0.312332 0.312332
0.312332 0.312332 0.312332
0.312332 0.312332 0.312332
0.338843 0.338843 0.338843
0.369141 0.369141 0.369141
0.387535 0.387535 0.387535
0.405136 0.405136 0.405136
0.048509 0.048509 0.048509
0.049583 0.049583 0.049583
0.051229 0.051229 0.051236
0.061471 0.061471 0.061592
0.070987 0.070987 0.071193
0.075422 0.075422 0.075515
0.080718 0.080718 0.080718
0.089740 0.089740 0.089740
0.100019 0.100019 0.100048
0.114070 0.114070 0.114213
0.128434 0.128434 0.128619
0.143486 0.143486 0.143557
0.158914 0.158914 0.158909
0.174970 0.174970 0.174953
0.190191 0.190191 0.190173
0.204340 0.204340 0.204334
0.219747 0.219747 0.219747
0.236413 0.236413 0.236413
0.254119 0.254119 0.254119
0.272634 0.272634 0.272634
0.286934 0.286934 0.286934
0.298705 0.298705 0.298705
0.308018 0.308018 0.308018
0.316215 0.316215 0.316215
0.319755 0.319755 0.319755
0.321743 0.321743 0.321743
0.322116 0.322116 0.322116
0.322116 0.322116 0.322116
0.363355 0.363355 0.363355
0.410485 0.410485 0.410485
0.413431 0.413431 0.413431
0.413431 0.413431 0.413431
0.081909 0.081909 0.081909
0.080641 0.080641 0.080641
0.079893 0.079893 0.079896
0.086947 0.086947 0.086999
0.092681 0.092681 0.092770
0.089181 0.089181 0.089221
0.088858 0.088858 0.088858
0.102303 0.102303 0.102303
0.116486 0.116486 0.116498
0.132879 0.132879 0.132940
0.148731 0.148731 0.148810
0.163392 0.163392 0.163422
0.178674 0.178674 0.178645
0.194989 0.194989 0.194883
0.209845 0.209845 0.209729
0.222823 0.222823 0.222784
0.237384 0.237384 0.237384
0.253530 0.253530 0.253530
0.270972 0.270972 0.270972
0.289422 0.289422 0.289422
0.303860 0.303860 0.303860
0.315891 0.315891 0.315891
0.330384 0.330384 0.330384
0.345996 0.345996 0.345996
0.359343 0.359343 0.359343
0.371935 0.371935 0.371935
0.374296 0.374296 0.374296
0.374296 0.374296 0.374296
0.391970 0.391970 0.391970
0.412169 0.412169 0.412169
0.413431 0.413431 0.413431
0.413431 0.413431 0.413431
0.113734 0.113734 0.113734
0.110742 0.110742 0.110742
0.108249 0.108249 0.108249
0.113254 0.113254 0.113254
0.116724 0.116724 0.116724
0.109451 0.109451 0.109451
0.106434 0.106434 0.106434
0.121864 0.121864 0.121864
0.138128 0.138128 0.138128
0.156895 0.156895 0.156895
0.173490 0.173490 0.173490
0.185305 0.185305 0.185305
0.198979 0.198979 0.198938
0.215750 0.215750 0.215599
0.230407 0.230407 0.230242
0.242344 0.242344 0.242289
0.256076 0.256076 0.256076
0.271603 0.271603 0.271603
0.288765 0.288765 0.288765
0.307200 0.307200 0.307200
0.321886 0.321886 0.321886
0.334323 0.334323 0.334323
0.350777 0.350777 0.350777
0.369056 0.369056 0.369056
0.389035 0.389035 0.389035
0.409579 0.409579 0.409579
0.413431 0.413431 0.413431
0.413431 0.413431 0.413431
0.413431 0.413431 0.413431
0.413431 0.413431 0.413431
0.413431 0.413431 0.413431
0.413431 0.413431 0.413431
0.140833 0.140833 0.140833
0.137970 0.137970 0.137970
0.135685 0.135685 0.135685
0.142056 0.142056 0.142056
0.147811 0.147811 0.147811
0.149255 0.149255 0.149255
0.152320 0.152320 0.152320
0.162416 0.162416 0.162416
0.175297 0.175297 0.175297
0.196536 0.196536 0.196536
0.211639 0.211639 0.211639
0.213241 0.213241 0.213241
0.220922 0.220922 0.220905
0.238734 0.238734 0.238673
0.253691 0.253691 0.253624
0.264978 0.264978 0.264955
0.277929 0.277929 0.277929
0.292546 0.292546 0.292546
0.309383 0.309383 0.309383
0.327947 0.327947 0.327947
0.343211 0.343211 0.343211
0.356493 0.356493 0.356493
0.365251 0.365251 0.365251
0.371951 0.371951 0.371951
0.389035 0.389035 0.389035
0.409579 0.409579 0.409579
0.413431 0.413431 0.413431
0.413431 0.413431 0.413431
0.413431 0.413431 0.413431
0.413431 0.413431 0.413431
0.413431 0.413431 0.413431
0.413431 0.413431 0.413431
0.159463 0.159463 0.159463
0.163256 0.163256 0.163256
0.167196 0.167196 0.167196
0.173327 0.173327 0.173327
0.179568 0.179568 0.179568
0.186577 0.186577 0.186577
0.193676 0.193676 0.193676
0.201161 0.201161 0.201161
0.212570 0.212570 0.212570
0.235753 0.235753 0.235753
0.250214 0.250214 0.250214
0.245486 0.245486 0.245486
0.248937 0.248937 0.248937
0.266021 0.266021 0.266021
0.279715 0.279715 0.279715
0.289050 0.289050 0.289050
0.300428 0.300428 0.300428
0.313849 0.313849 0.313849
0.330042 0.330042 0.330042
0.348391 0.348391 0.348391
0.364407 0.364407 0.364407
0.379024 0.379024 0.379024
0.384234 0.384234 0.384234
0.385169 0.385169 0.385169
0.398326 0.398326 0.398326
0.415557 0.415557 0.415557
0.416541 0.416541 0.416541
0.413777 0.413777 0.413777
0.413431 0.413431 0.413431
0.413431 0.413431 0.413431
0.413431 0.413431 0.413431
0.413431 0.413431 0.413431
0.159463 0.159463 0.159463
0.184268 0.184268 0.184268
0.207670 0.207670 0.207670
0.210028 0.210028 0.210028
0.212797 0.212797 0.212797
0.218441 0.218441 0.218441
0.225063 0.225063 0.225063
0.235931 0.235931 0.235931
0.250073 0.250073 0.250073
0.274037 0.274037 0.274037
0.289725 0.289725 0.289725
0.287208 0.287208 0.287208
0.290310 0.290310 0.290310
0.302776 0.302776 0.302776
0.311766 0.311766 0.311766
0.316287 0.316287 0.316287
0.324347 0.324347 0.324347
0.335947 0.335947 0.335947
0.350794 0.350794 0.350794
0.368167 0.368167 0.368167
0.385322 0.385322 0.385322
0.402345 0.402345 0.402345
0.413138 0.413138 0.413138
0.421099 0.421099 0.421099
0.428059 0.428059 0.428059
0.434686 0.434686 0.434686
0.426494 0.426494 0.426494
0.414882 0.414882 0.414882
0.413431 0.413431 0.413431
0.413431 0.413431 0.413431
0.413431 0.413431 0.413431
0.413431 0.413431 0.413431
0.172413 0.172413 0.172413
0.210766 0.210766 0.210766
0.246721 0.246721 0.246721
0.246721 0.246721 0.246721
0.247250 0.247250 0.247250
0.251478 0.251478 0.251478
0.256954 0.256954 0.256954
0.267838 0.267838 0.267838
0.282236 0.282236 0.282236
0.307176 0.307176 0.307176
0.324371 0.324371 0.324371
0.324530 0.324530 0.324530
0.328843 0.328843 0.328843
0.340081 0.340081 0.340081
0.346509 0.346509 0.346509
0.346753 0.346753 0.346753
0.351129 0.351129 0.351129
0.359639 0.359639 0.359639
0.372174 0.372174 0.372174
0.387839 0.387839 0.387839
0.405202 0.405202 0.405202
0.423583 0.423583 0.423583
0.437702 0.437702 0.437702
0.449883 0.449883 0.449883
0.452928 0.452928 0.452928
0.452928 0.452928 0.452928
0.441697 0.441697 0.441697
0.427873 0.427873 0.427873
0.428963 0.428963 0.428963
0.432183 0.432183 0.432183
0.435609 0.435609 0.435609
0.439048 0.439048 0.439048
0.206948 0.206948 0.206948
0.246406 0.246406 0.246406
0.283398 0.283398 0.283398
0.283398 0.283398 0.283398
0.283740 0.283740 0.283740
0.286472 0.286472 0.286472
0.289684 0.289684 0.289684
0.294973 0.294973 0.294973
0.305501 0.305501 0.305501
0.331741 0.331741 0.331741
0.350908 0.350908 0.350908
0.354515 0.354515 0.354515
0.362642 0.362642 0.362642
0.378303 0.378303 0.378303
0.385739 0.385739 0.385739
0.382601 0.382601 0.382601
0.382684 0.382684 0.382684
0.385989 0.385989 0.385989
0.394601 0.394601 0.394601
0.407339 0.407339 0.407339
0.423360 0.423360 0.423360
0.441351 0.441351 0.441351
0.455035 0.455035 0.455035
0.466760 0.466760 0.466760
0.469692 0.469692 0.469692
0.469692 0.469692 0.469692
0.465648 0.465648 0.465648
0.460672 0.460672 0.460672
0.470381 0.470381 0.470381
0.482188 0.482188 0.482188
0.494749 0.494749 0.494749
0.507361 0.507361 0.507361
0.243909 0.243909 0.243909
0.274939 0.274939 0.274939
0.304029 0.304029 0.304029
0.304029 0.304029 0.304029
0.304266 0.304266 0.304266
0.306156 0.306156 0.306156
0.309786 0.309786 0.309786
0.320950 0.320950 0.320950
0.335505 0.335505 0.335505
0.360229 0.360229 0.360229
0.379200 0.379200 0.379200
0.385514 0.385514 0.385514
0.395039 0.395039 0.395039
0.409915 0.409915 0.409915
0.417535 0.417535 0.417535
0.415823 0.415823 0.415823
0.415668 0.415668 0.415668
0.417071 0.417071 0.417071
0.423155 0.423155 0.423155
0.432881 0.432881 0.432881
0.446016 0.446016 0.446016
0.461198 0.461198 0.461198
0.474629 0.474629 0.474629
0.487266 0.487266 0.487266
0.490425 0.490425 0.490425
0.490425 0.490425 0.490425
0.490425 0.490425 0.490425
0.490425 0.490425 0.490425
0.504111 0.504111 0.504111
0.519752 0.519752 0.519752
0.533628 0.533628 0.533628
0.547387 0.547387 0.547387
0.283989 0.283989 0.283989
0.294332 0.294332 0.294332
0.304029 0.304029 0.304029
0.304029 0.304029 0.304029
0.304266 0.304266 0.304266
0.306156 0.306156 0.306156
0.313652 0.313652 0.313652
0.345438 0.345438 0.345438
0.374174 0.374174 0.374174
0.393759 0.393759 0.393759
0.409746 0.409746 0.409746
0.417816 0.417816 0.417816
0.425634 0.425634 0.425634
0.433029 0.433029 0.433029
0.439770 0.439770 0.439770
0.445670 0.445670 0.445670
0.450492 0.450492 0.450492
0.454236 0.454236 0.454236
0.459589 0.459589 0.459589
0.466191 0.466191 0.466191
0.474456 0.474456 0.474456
0.483718 0.483718 0.483718
0.497134 0.497134 0.497134
0.512437 0.512437 0.512437
0.516263 0.516263 0.516263
0.516263 0.516263 0.516263
0.516263 0.516263 0.516263
0.516263 0.516263 0.516263
0.527957 0.527957 0.527957
0.541321 0.541321 0.541321
0.546456 0.546456 0.546456
0.551042 0.551042 0.551042
0.283989 0.283989 0.283989
0.294332 0.294332 0.294332
0.304029 0.304029 0.304029
0.304029 0.304029 0.304029
0.305498 0.305498 0.305498
0.317244 0.317244 0.317244
0.332832 0.332832 0.332832
0.365074 0.365074 0.365074
0.393509 0.393509 0.393509
0.410524 0.410524 0.410524
0.426899 0.426899 0.426899
0.441865 0.441865 0.441865
0.450333 0.450333 0.450333
0.447971 0.447971 0.447971
0.454431 0.454431 0.454431
0.472235 0.472235 0.472235
0.482961 0.482961 0.482961
0.486608 0.486608 0.486608
0.491479 0.491479 0.491479
0.497301 0.497301 0.497301
0.502467 0.502467 0.502467
0.507240 0.507240 0.507240
0.518627 0.518627 0.518627
0.533020 0.533020 0.533020
0.536618 0.536618 0.536618
0.536618 0.536618 0.536618
0.536618 0.536618 0.536618
0.536618 0.536618 0.536618
0.548113 0.548113 0.548113
0.561249 0.561249 0.561249
0.565272 0.565272 0.565272
0.568687 0.568687 0.568687
0.243909 0.243909 0.243909
0.274939 0.274939 0.274939
0.304029 0.304029 0.304029
0.304029 0.304029 0.304029
0.307961 0.307961 0.307961
0.339418 0.339418 0.339418
0.367326 0.367326 0.367326
0.379857 0.379857 0.379857
0.393509 0.393509 0.393509
0.410524 0.410524 0.410524
0.430660 0.430660 0.430660
0.457661 0.457661 0.457661
0.469137 0.469137 0.469137
0.454740 0.454740 0.454740
0.461518 0.461518 0.461518
0.495520 0.495520 0.495520
0.513076 0.513076 0.513076
0.514186 0.514186 0.514186
0.518825 0.518825 0.518825
0.526208 0.526208 0.526208
0.530049 0.530049 0.530049
0.531765 0.531765 0.531765
0.539111 0.539111 0.539111
0.549015 0.549015 0.549015
0.551491 0.551491 0.551491
0.551491 0.551491 0.551491
0.551491 0.551491 0.551491
0.551491 0.551491 0.551491
0.564579 0.564579 0.564579
0.579537 0.579537 0.579537
0.590077 0.590077 0.590077
0.600323 0.600323 0.600323
0.226374 0.226374 0.226374
0.266454 0.266454 0.266454
0.304029 0.304029 0.304029
0.304029 0.304029 0.304029
0.311573 0.311573 0.311573
0.371926 0.371926 0.371926
0.417893 0.417893 0.417893
0.401529 0.401529 0.401529
0.395851 0.395851 0.395851
0.422234 0.422234 0.422234
0.447528 0.447528 0.447528
0.470426 0.470426 0.470426
0.479505 0.479505 0.479505
0.465551 0.465551 0.465551
0.477696 0.477696 0.477696
0.523395 0.523395 0.523395
0.546244 0.546244 0.546244
0.546244 0.546244 0.546244
0.544977 0.544977 0.544977
0.542725 0.542725 0.542725
0.548543 0.548543 0.548543
0.559204 0.559204 0.559204
0.566057 0.566057 0.566057
0.571180 0.571180 0.571180
0.566862 0.566862 0.566862
0.559397 0.559397 0.559397
0.567749 0.567749 0.567749
0.579751 0.579751 0.579751
0.591035 0.591035 0.591035
0.602216 0.602216 0.602216
0.611720 0.611720 0.611720
0.621112 0.621112 0.621112
0.226374 0.226374 0.226374
0.266454 0.266454 0.266454
0.304029 0.304029 0.304029
0.304029 0.304029 0.304029
0.316078 0.316078 0.316078
0.412469 0.412469 0.412469
0.480962 0.480962 0.480962
0.428558 0.428558 0.428558
0.400014 0.400014 0.400014
0.443050 0.443050 0.443050
0.474589 0.474589 0.474589
0.480834 0.480834 0.480834
0.483310 0.483310 0.483310
0.479505 0.479505 0.479505
0.500944 0.500944 0.500944
0.554839 0.554839 0.554839
0.581787 0.581787 0.581787
0.581787 0.581787 0.581787
0.570201 0.570201 0.570201
0.549604 0.549604 0.549604
0.559968 0.559968 0.559968
0.588908 0.588908 0.588908
0.598030 0.598030 0.598030
0.598144 0.598144 0.598144
0.582621 0.582621 0.582621
0.561885 0.561885 0.561885
0.585086 0.585086 0.585086
0.618425 0.618425 0.618425
0.625261 0.625261 0.625261
0.628310 0.628310 0.628310
0.630902 0.630902 0.630902
0.633463 0.633463 0.633463
0.291520 0.291520 0.291520
0.297976 0.297976 0.297976
0.304029 0.304029 0.304029
0.304029 0.304029 0.304029
0.317768 0.317768 0.317768
0.427673 0.427673 0.427673
0.504612 0.504612 0.504612
0.438694 0.438694 0.438694
0.398973 0.398973 0.398973
0.437846 0.437846 0.437846
0.467824 0.467824 0.467824
0.478232 0.478232 0.478232
0.489190 0.489190 0.489190
0.501062 0.501062 0.501062
0.527470 0.527470 0.527470
0.572567 0.572567 0.572567
0.595116 0.595116 0.595116
0.595116 0.595116 0.595116
0.586156 0.586156 0.586156
0.570226 0.570226 0.570226
0.579407 0.579407 0.579407
0.603656 0.603656 0.603656
0.610020 0.610020 0.610020
0.608256 0.608256 0.608256
0.594751 0.594751 0.594751
0.577333 0.577333 0.577333
0.600918 0.600918 0.600918
0.633964 0.633964 0.633964
0.638095 0.638095 0.638095
0.638095 0.638095 0.638095
0.646367 0.646367 0.646367
0.655189 0.655189 0.655189
0.395754 0.395754 0.395754
0.348412 0.348412 0.348412
0.304029 0.304029 0.304029
0.304029 0.304029 0.304029
0.317768 0.317768 0.317768
0.427673 0.427673 0.427673
0.504612 0.504612 0.504612
0.438694 0.438694 0.438694
0.394810 0.394810 0.394810
0.417029 0.417029 0.417029
0.440762 0.440762 0.440762
0.467824 0.467824 0.467824
0.496313 0.496313 0.496313
0.527180 0.527180 0.527180
0.555963 0.555963 0.555963
0.582065 0.582065 0.582065
0.595116 0.595116 0.595116
0.595116 0.595116 0.595116
0.596548 0.596548 0.596548
0.599093 0.599093 0.599093
0.603656 0.603656 0.603656
0.609429 0.609429 0.609429
0.610020 0.610020 0.610020
0.608256 0.608256 0.608256
0.604704 0.604704 0.604704
0.600557 0.600557 0.600557
0.615847 0.615847 0.615847
0.635623 0.635623 0.635623
0.638095 0.638095 0.638095
0.638095 0.638095 0.638095
0.659601 0.659601 0.659601
0.682540 0.682540 0.682540
0.428327 0.428327 0.428327
0.364173 0.364173 0.364173
0.304029 0.304029 0.304029
0.304029 0.304029 0.304029
0.314670 0.314670 0.314670
0.399800 0.399800 0.399800
0.461253 0.461253 0.461253
0.420111 0.420111 0.420111
0.393509 0.393509 0.393509
0.410524 0.410524 0.410524
0.436386 0.436386 0.436386
0.481712 0.481712 0.481712
0.518944 0.518944 0.518944
0.542688 0.542688 0.542688
0.564749 0.564749 0.564749
0.584647 0.584647 0.584647
0.594730 0.594730 0.594730
0.594999 0.594999 0.594999
0.598135 0.598135 0.598135
0.603502 0.603502 0.603502
0.607359 0.607359 0.607359
0.610311 0.610311 0.610311
0.610020 0.610020 0.610020
0.608256 0.608256 0.608256
0.611974 0.611974 0.611974
0.617519 0.617519 0.617519
0.626752 0.626752 0.626752
0.636835 0.636835 0.636835
0.646587 0.646587 0.646587
0.656292 0.656292 0.656292
0.673441 0.673441 0.673441
0.691087 0.691087 0.691087
0.428327 0.428327 0.428327
0.364173 0.364173 0.364173
0.304029 0.304029 0.304029
0.304029 0.304029 0.304029
0.310166 0.310166 0.310166
0.359256 0.359256 0.359256
0.398185 0.398185 0.398185
0.393082 0.393082 0.393082
0.393509 0.393509 0.393509
0.410524 0.410524 0.410524
0.442322 0.442322 0.442322
0.506643 0.506643 0.506643
0.548624 0.548624 0.548624
0.553373 0.553373 0.553373
0.564579 0.564579 0.564579
0.584086 0.584086 0.584086
0.594169 0.594169 0.594169
0.594828 0.594828 0.594828
0.595720 0.595720 0.595720
0.596793 0.596793 0.596793
0.601724 0.601724 0.601724
0.608969 0.608969 0.608969
0.610020 0.610020 0.610020
0.608256 0.608256 0.608256
0.618024 0.618024 0.618024
0.631636 0.631636 0.631636
0.635827 0.635827 0.635827
0.637843 0.637843 0.637843
0.658939 0.658939 0.658939
0.682760 0.682760 0.682760
0.687558 0.687558 0.687558
0.691087 0.691087 0.691087
0.428327 0.428327 0.428327
0.364173 0.364173 0.364173
0.304029 0.304029 0.304029
0.304029 0.304029 0.304029
0.314321 0.314321 0.314321
0.396653 0.396653 0.396653
0.463996 0.463996 0.463996
0.466391 0.466391 0.466391
0.470880 0.470880 0.470880
0.481650 0.481650 0.481650
0.499859 0.499859 0.499859
0.534434 0.534434 0.534434
0.556044 0.556044 0.556044
0.556044 0.556044 0.556044
0.564536 0.564536 0.564536
0.583946 0.583946 0.583946
0.594029 0.594029 0.594029
0.594785 0.594785 0.594785
0.595116 0.595116 0.595116
0.595116 0.595116 0.595116
0.600315 0.600315 0.600315
0.608634 0.608634 0.608634
0.610020 0.610020 0.610020
0.608256 0.608256 0.608256
0.619536 0.619536 0.619536
0.635165 0.635165 0.635165
0.646697 0.646697 0.646697
0.657285 0.657285 0.657285
0.673276 0.673276 0.673276
0.690039 0.690039 0.690039
0.691087 0.691087 0.691087
0.691087 0.691087 0.691087
0.428327 0.428327 0.428327
0.364173 0.364173 0.364173
0.304029 0.304029 0.304029
0.304029 0.304029 0.304029
0.321363 0.321363 0.321363
0.460030 0.460030 0.460030
0.572768 0.572768 0.572768
0.573146 0.573146 0.573146
0.574040 0.574040 0.574040
0.576484 0.576484 0.576484
0.574596 0.574596 0.574596
0.563179 0.563179 0.563179
0.556044 0.556044 0.556044
0.556044 0.556044 0.556044
0.564536 0.564536 0.564536
0.583946 0.583946 0.583946
0.594029 0.594029 0.594029
0.594785 0.594785 0.594785
0.595116 0.595116 0.595116
0.595116 0.595116 0.595116
0.600315 0.600315 0.600315
0.608634 0.608634 0.608634
0.610020 0.610020 0.610020
0.608256 0.608256 0.608256
0.619536 0.619536 0.619536
0.635165 0.635165 0.635165
0.658167 0.658167 0.658167
0.682871 0.682871 0.682871
0.688274 0.688274 0.688274
0.690921 0.690921 0.690921
0.691087 0.691087 0.691087
0.691087 0.691087 0.691087
0.441333 0.441333 0.441333
0.404082 0.404082 0.404082
0.368417 0.368417 0.368417
0.356524 0.356524 0.356524
0.362057 0.362057 0.362057
0.489563 0.489563 0.489563
0.593162 0.593162 0.593162
0.593162 0.593162 0.593162
0.593383 0.593383 0.593383
0.594265 0.594265 0.594265
0.593333 0.593333 0.593333
0.588410 0.588410 0.588410
0.585332 0.585332 0.585332
0.585332 0.585332 0.585332
0.593362 0.593362 0.593362
0.611714 0.611714 0.611714
0.614239 0.614239 0.614239
0.600936 0.600936 0.600936
0.602876 0.602876 0.602876
0.616671 0.616671 0.616671
0.618421 0.618421 0.618421
0.612945 0.612945 0.612945
0.610020 0.610020 0.610020
0.608256 0.608256 0.608256
0.614621 0.614621 0.614621
0.623695 0.623695 0.623695
0.652944 0.652944 0.652944
0.686849 0.686849 0.686849
0.691087 0.691087 0.691087
0.691087 0.691087 0.691087
0.691087 0.691087 0.691087
0.691087 0.691087 0.691087
0.457340 0.457340 0.457340
0.453201 0.453201 0.453201
0.447663 0.447663 0.447663
0.421133 0.421133 0.421133
0.410517 0.410517 0.410517
0.511287 0.511287 0.511287
0.593162 0.593162 0.593162
0.593162 0.593162 0.593162
0.593383 0.593383 0.593383
0.594265 0.594265 0.594265
0.599147 0.599147 0.599147
0.612829 0.612829 0.612829
0.621379 0.621379 0.621379
0.621379 0.621379 0.621379
0.628840 0.628840 0.628840
0.645891 0.645891 0.645891
0.639114 0.639114 0.639114
0.608507 0.608507 0.608507
0.612426 0.612426 0.612426
0.643200 0.643200 0.643200
