luts/acros.cube
# sRGB
# source: Fuji XTrans III - Acros (Stuart Sowerby Fuji XTrans III .3dl, N17->N32)
LUT_3D_SIZE 8
DOMAIN_MIN 0.000000 0.000000 0.000000
DOMAIN_MAX 0.903226 0.903226 0.903226
0.003907 0.003907 0.003907
0.015637 0.015637 0.015621
0.054795 0.054795 0.054764
0.136358 0.136358 0.136358
0.204640 0.204640 0.204640
0.332553 0.332553 0.332553
0.356044 0.356044 0.356044
0.416361 0.416361 0.416361
0.012210 0.012210 0.011982
0.038870 0.038870 0.038855
0.082707 0.082707 0.082707
0.160477 0.160477 0.160477
0.248017 0.248017 0.248017
0.334430 0.334430 0.334430
0.405372 0.405372 0.405372
0.408176 0.408176 0.408176
0.090401 0.090401 0.090401
0.104081 0.104081 0.104081
0.143063 0.143063 0.143063
0.229209 0.229209 0.229209
0.306340 0.306340 0.306340
0.393217 0.393217 0.393217
0.473898 0.473898 0.473898
0.501587 0.501587 0.501587
0.145441 0.145441 0.145441
0.220638 0.220638 0.220638
0.263304 0.263304 0.263304
0.336599 0.336599 0.336599
0.390920 0.390920 0.390920
0.463708 0.463708 0.463708
0.517775 0.517775 0.517775
0.512798 0.512798 0.512798
0.249951 0.249951 0.249951
0.270842 0.270842 0.270842
0.359786 0.359786 0.359786
0.436123 0.436123 0.436123
0.499553 0.499553 0.499553
0.548081 0.548081 0.548081
0.594903 0.594903 0.594903
0.611062 0.611062 0.611062
0.255764 0.255764 0.255764
0.281854 0.281854 0.281854
0.365613 0.365613 0.365613
0.467471 0.467471 0.467471
0.595604 0.595604 0.595604
0.612458 0.612458 0.612458
0.651406 0.651406 0.651406
0.693284 0.693284 0.693284
0.383639 0.383639 0.383639
0.278705 0.278705 0.278705
0.429814 0.429814 0.429814
0.530891 0.530891 0.530891
0.587632 0.587632 0.587632
0.610729 0.610729 0.610729
0.675623 0.675623 0.675623
0.732842 0.732842 0.732842
0.413431 0.413431 0.413431
0.369262 0.369262 0.369262
0.540691 0.540691 0.540691
0.591209 0.591209 0.591209
0.642774 0.642774 0.642774
0.670021 0.670021 0.670021
0.706412 0.706412 0.706412
0.752869 0.752869 0.752869
0.012620 0.012635 0.012635
0.020661 0.020661 0.020661
0.090389 0.090389 0.090389
0.133316 0.133316 0.133316
0.259367 0.259367 0.259367
0.385856 0.385856 0.385856
0.419048 0.419048 0.419048
0.422356 0.422356 0.422356
0.034409 0.034409 0.034409
0.055504 0.055504 0.055504
0.103114 0.103114 0.103114
0.177072 0.177072 0.177072
0.260817 0.260817 0.260817
0.355177 0.355177 0.355177
0.420701 0.420701 0.420701
0.484833 0.484833 0.484833
0.108092 0.108092 0.108092
0.116202 0.116202 0.116202
0.161285 0.161285 0.161285
0.235836 0.235836 0.235836
0.317584 0.317584 0.317584
0.401985 0.401985 0.401985
0.474779 0.474779 0.474779
0.499341 0.499341 0.499341
0.216744 0.216744 0.216744
0.235063 0.235063 0.235063
0.272397 0.272397 0.272397
0.338816 0.338816 0.338816
0.410793 0.410793 0.410793
0.483301 0.483301 0.483301
0.540855 0.540855 0.540855
0.594801 0.594801 0.594801
0.307969 0.307969 0.307969
0.359024 0.359024 0.359024
0.384191 0.384191 0.384191
0.445334 0.445334 0.445334
0.508134 0.508134 0.508134
0.567553 0.567553 0.567553
0.615122 0.615122 0.615122
0.654039 0.654039 0.654039
0.393732 0.393732 0.393732
0.417952 0.417952 0.417952
0.446024 0.446024 0.446024
0.500250 0.500250 0.500250
0.592178 0.592178 0.592178
0.635720 0.635720 0.635720
0.690979 0.690979 0.690979
0.733608 0.733608 0.733608
0.416318 0.416318 0.416318
0.424789 0.424789 0.424789
0.540691 0.540691 0.540691
0.591320 0.591320 0.591320
0.650818 0.650818 0.650818
0.677655 0.677655 0.677655
0.734309 0.734309 0.734309
0.755154 0.755154 0.755154
0.492308 0.492308 0.492308
0.424912 0.424912 0.424912
0.571952 0.571952 0.571952
0.605585 0.605585 0.605585
0.655515 0.655515 0.655515
0.703867 0.703867 0.703867
0.757344 0.757344 0.757344
0.806459 0.806459 0.806459
0.048281 0.048281 0.048249
0.089080 0.089080 0.089080
0.172947 0.172947 0.172947
0.237922 0.237922 0.237922
0.323431 0.323431 0.323431
0.397663 0.397663 0.397663
0.456113 0.456113 0.456113
0.522494 0.522494 0.522494
0.080334 0.080334 0.080334
0.098142 0.098142 0.098142
0.146217 0.146217 0.146217
0.222384 0.222384 0.222384
0.304367 0.304367 0.304367
0.393651 0.393651 0.393651
0.468010 0.468010 0.468010
0.510360 0.510360 0.510360
0.150149 0.150149 0.150149
0.161678 0.161678 0.161678
0.205912 0.205912 0.205912
0.275760 0.275760 0.275760
0.354379 0.354379 0.354379
0.434899 0.434899 0.434899
0.505940 0.505940 0.505940
0.565766 0.565766 0.565766
0.256706 0.256706 0.256706
0.268503 0.268503 0.268503
0.308579 0.308579 0.308579
0.370947 0.370947 0.370947
0.439143 0.439143 0.439143
0.507869 0.507869 0.507869
0.567004 0.567004 0.567004
0.607017 0.607017 0.607017
0.385824 0.385824 0.385824
0.389648 0.389648 0.389648
0.417619 0.417619 0.417619
0.471237 0.471237 0.471237
0.529811 0.529811 0.529811
0.586678 0.586678 0.586678
0.639119 0.639119 0.639119
0.682597 0.682597 0.682597
0.436630 0.436630 0.436630
0.436217 0.436217 0.436217
0.513593 0.513593 0.513593
0.554654 0.554654 0.554654
0.608247 0.608247 0.608247
0.661414 0.661414 0.661414
0.706543 0.706543 0.706543
0.757213 0.757213 0.757213
0.450309 0.450309 0.450309
0.555860 0.555860 0.555860
0.570835 0.570835 0.570835
0.624455 0.624455 0.624455
0.668048 0.668048 0.668048
0.704685 0.704685 0.704685
0.758089 0.758089 0.758089
0.800826 0.800826 0.800826
0.504596 0.504596 0.504596
0.495821 0.495821 0.495821
0.605404 0.605404 0.605404
0.629627 0.629627 0.629627
0.672256 0.672256 0.672256
0.725610 0.725610 0.725610
0.797509 0.797509 0.797509
0.834921 0.834921 0.834921
0.147056 0.147253 0.147253
0.179766 0.179766 0.179766
0.224896 0.224896 0.224896
0.283983 0.283983 0.283983
0.371295 0.371295 0.371295
0.435527 0.435527 0.435527
0.515478 0.515478 0.515478
0.577045 0.577045 0.577045
0.142583 0.142583 0.142583
0.169296 0.169296 0.169296
0.219587 0.219587 0.219587
0.289377 0.289377 0.289377
0.365592 0.365592 0.365592
0.445443 0.445443 0.445443
0.511512 0.511512 0.511512
0.576557 0.576557 0.576557
0.210877 0.210877 0.210877
0.232315 0.232315 0.232315
0.275361 0.275361 0.275361
0.337434 0.337434 0.337434
0.408363 0.408363 0.408363
0.481196 0.481196 0.481196
0.544796 0.544796 0.544796
0.596687 0.596687 0.596687
0.312258 0.312258 0.312258
0.326914 0.326914 0.326914
0.365832 0.365832 0.365832
0.419878 0.419878 0.419878
0.482054 0.482054 0.482054
0.542612 0.542612 0.542612
0.599442 0.599442 0.599442
0.649203 0.649203 0.649203
0.421469 0.421469 0.421469
0.430537 0.430537 0.430537
0.460937 0.460937 0.460937
0.508319 0.508319 0.508319
0.561098 0.561098 0.561098
0.614003 0.614003 0.614003
0.665421 0.665421 0.665421
0.711409 0.711409 0.711409
0.482401 0.482401 0.482401
0.513138 0.513138 0.513138
0.547774 0.547774 0.547774
0.586713 0.586713 0.586713
0.635764 0.635764 0.635764
0.684766 0.684766 0.684766
0.728098 0.728098 0.728098
0.772805 0.772805 0.772805
0.549492 0.549492 0.549492
0.589011 0.589011 0.589011
0.606520 0.606520 0.606520
0.643179 0.643179 0.643179
0.693988 0.693988 0.693988
0.742837 0.742837 0.742837
0.787683 0.787683 0.787683
0.833795 0.833795 0.833795
0.590527 0.590527 0.590527
0.589490 0.589490 0.589490
0.673993 0.673993 0.673993
0.685551 0.685551 0.685551
0.726362 0.726362 0.726362
0.766110 0.766110 0.766110
0.809774 0.809774 0.809774
0.858356 0.858356 0.858356
0.228012 0.228012 0.228256
0.256772 0.256772 0.256772
0.298759 0.298759 0.298759
0.357408 0.357408 0.357408
0.424338 0.424338 0.424338
0.494174 0.494174 0.494174
0.557939 0.557939 0.557939
0.617756 0.617756 0.617756
0.235004 0.235004 0.235004
0.272971 0.272971 0.272971
0.313410 0.313410 0.313410
0.369892 0.369892 0.369892
0.434774 0.434774 0.434774
0.501189 0.501189 0.501189
0.563618 0.563618 0.563618
0.615370 0.615370 0.615370
0.283183 0.283183 0.283183
0.321970 0.321970 0.321970
0.358502 0.358502 0.358502
0.410861 0.410861 0.410861
0.471432 0.471432 0.471432
0.532224 0.532224 0.532224
0.589712 0.589712 0.589712
0.644340 0.644340 0.644340
0.373389 0.373389 0.373389
0.398919 0.398919 0.398919
0.431982 0.431982 0.431982
0.479235 0.479235 0.479235
0.532323 0.532323 0.532323
0.585628 0.585628 0.585628
0.638495 0.638495 0.638495
0.687328 0.687328 0.687328
0.472602 0.472602 0.472602
0.486264 0.486264 0.486264
0.514042 0.514042 0.514042
0.553757 0.553757 0.553757
0.600150 0.600150 0.600150
0.649390 0.649390 0.649390
0.695456 0.695456 0.695456
0.738530 0.738530 0.738530
0.561341 0.561341 0.561341
0.566533 0.566533 0.566533
0.589425 0.589425 0.589425
0.625382 0.625382 0.625382
0.668620 0.668620 0.668620
0.711097 0.711097 0.711097
0.752761 0.752761 0.752761
0.796729 0.796729 0.796729
0.615219 0.615219 0.615219
0.611639 0.611639 0.611639
0.645657 0.645657 0.645657
0.685283 0.685283 0.685283
0.727051 0.727051 0.727051
0.769579 0.769579 0.769579
0.809883 0.809883 0.809883
0.855885 0.855885 0.855885
0.651511 0.651511 0.651511
0.644696 0.644696 0.644696
0.677869 0.677869 0.677869
0.700442 0.700442 0.700442
0.745097 0.745097 0.745097
0.788794 0.788794 0.788794
0.850665 0.850665 0.850665
0.899526 0.899526 0.899526
0.306613 0.306779 0.306779
0.332533 0.332533 0.332533
0.369564 0.369564 0.369564
0.423963 0.423963 0.423963
0.487310 0.487310 0.487310
0.551162 0.551162 0.551162
0.612082 0.612082 0.612082
0.657342 0.657342 0.657342
0.318089 0.318322 0.318322
0.360140 0.360140 0.360140
0.393792 0.393792 0.393792
0.443227 0.443227 0.443227
0.499943 0.499943 0.499943
0.558788 0.558788 0.558788
0.618102 0.618102 0.618102
0.670136 0.670136 0.670136
0.359237 0.359237 0.359237
0.413716 0.413716 0.413716
0.442378 0.442378 0.442378
0.485041 0.485041 0.485041
0.533700 0.533700 0.533700
0.585741 0.585741 0.585741
0.638323 0.638323 0.638323
0.686245 0.686245 0.686245
0.435061 0.435061 0.435061
0.474933 0.474933 0.474933
0.500921 0.500921 0.500921
0.538858 0.538858 0.538858
0.584342 0.584342 0.584342
0.632665 0.632665 0.632665
0.680268 0.680268 0.680268
0.724200 0.724200 0.724200
0.522983 0.522983 0.522983
0.545137 0.545137 0.545137
0.567666 0.567666 0.567666
0.602187 0.602187 0.602187
0.644517 0.644517 0.644517
0.687665 0.687665 0.687665
0.728216 0.728216 0.728216
0.772009 0.772009 0.772009
0.603649 0.603649 0.603649
0.615909 0.615909 0.615909
0.636287 0.636287 0.636287
0.668128 0.668128 0.668128
0.704155 0.704155 0.704155
0.741746 0.741746 0.741746
0.780682 0.780682 0.780682
0.823671 0.823671 0.823671
0.675367 0.675367 0.675367
0.680726 0.680726 0.680726
0.695496 0.695496 0.695496
0.723270 0.723270 0.723270
0.758804 0.758804 0.758804
0.797247 0.797247 0.797247
0.834137 0.834137 0.834137
0.878900 0.878900 0.878900
0.700469 0.700469 0.700469
0.700188 0.700188 0.700188
0.727285 0.727285 0.727285
0.753229 0.753229 0.753229
0.792583 0.792583 0.792583
0.827625 0.827625 0.827625
0.889450 0.889450 0.889450
0.922769 0.922769 0.922769
0.391445 0.391445 0.391595
0.412543 0.412683 0.412543
0.447464 0.447464 0.447464
0.496013 0.496013 0.496013
0.553049 0.553049 0.553049
0.612499 0.612499 0.612499
0.668440 0.668440 0.668440
0.718126 0.718126 0.718126
0.403175 0.403264 0.403264
0.448284 0.448284 0.448284
0.477522 0.477522 0.477522
0.521412 0.521412 0.521412
0.572156 0.572156 0.572156
0.624613 0.624613 0.624613
0.674890 0.674890 0.674890
0.722212 0.722212 0.722212
0.438979 0.438979 0.438979
0.494721 0.494721 0.494721
0.518986 0.518986 0.518986
0.553963 0.553963 0.553963
0.596578 0.596578 0.596578
0.642934 0.642934 0.642934
0.688061 0.688061 0.688061
0.730013 0.730013 0.730013
0.498180 0.498180 0.498180
0.546472 0.546472 0.546472
0.567399 0.567399 0.567399
0.599237 0.599237 0.599237
0.639536 0.639536 0.639536
0.681833 0.681833 0.681833
0.722102 0.722102 0.722102
0.763048 0.763048 0.763048
0.575557 0.575557 0.575557
0.605579 0.605579 0.605579
0.624140 0.624140 0.624140
0.654583 0.654583 0.654583
0.690254 0.690254 0.690254
0.726202 0.726202 0.726202
0.764147 0.764147 0.764147
0.805707 0.805707 0.805707
0.650786 0.650786 0.650786
0.667520 0.667520 0.667520
0.683513 0.683513 0.683513
0.709112 0.709112 0.709112
0.740905 0.740905 0.740905
0.775368 0.775368 0.775368
0.811190 0.811190 0.811190
0.854145 0.854145 0.854145
0.712914 0.712914 0.712914
0.722052 0.722052 0.722052
0.738096 0.738096 0.738096
0.762669 0.762669 0.762669
0.793917 0.793917 0.793917
0.827663 0.827663 0.827663
0.861693 0.861693 0.861693
0.902551 0.902551 0.902551
0.744154 0.744154 0.744154
0.765214 0.765214 0.765214
0.783145 0.783145 0.783145
0.821588 0.821588 0.821588
0.842934 0.842934 0.842934
0.879537 0.879537 0.879537
0.907180 0.907180 0.907180
0.943460 0.943460 0.943460
0.478955 0.478955 0.478955
0.494873 0.494880 0.494873
0.524825 0.524922 0.524825
0.566206 0.566098 0.566098
0.617398 0.617398 0.617398
0.674539 0.674539 0.674539
0.723385 0.723385 0.723385
0.760333 0.760333 0.760333
0.487494 0.487503 0.487606
0.534333 0.534333 0.534333
0.559034 0.559034 0.559034
0.597994 0.597994 0.597994
0.644213 0.644213 0.644213
0.692548 0.692548 0.692548
0.736220 0.736220 0.736220
0.773887 0.773887 0.773887
0.524776 0.524872 0.524872
0.578629 0.578629 0.578629
0.598731 0.598731 0.598731
0.629593 0.629593 0.629593
0.667275 0.667275 0.667275
0.707564 0.707564 0.707564
0.744752 0.744752 0.744752
0.776200 0.776200 0.776200
0.566021 0.566021 0.566021
0.620316 0.620316 0.620316
0.637566 0.637566 0.637566
0.665206 0.665206 0.665206
0.697827 0.697827 0.697827
0.732576 0.732576 0.732576
0.767348 0.767348 0.767348
0.811315 0.811315 0.811315
0.632386 0.632386 0.632386
0.671796 0.671796 0.671796
0.686549 0.686549 0.686549
0.710068 0.710068 0.710068
0.739353 0.739353 0.739353
0.772814 0.772814 0.772814
0.805219 0.805219 0.805219
0.839553 0.839553 0.839553
0.701229 0.701229 0.701229
0.721898 0.721898 0.721898
0.734809 0.734809 0.734809
0.757512 0.757512 0.757512
0.785758 0.785758 0.785758
0.816758 0.816758 0.816758
0.848540 0.848540 0.848540
0.889687 0.889687 0.889687
0.765184 0.765184 0.765184
0.775276 0.775276 0.775276
0.787443 0.787443 0.787443
0.809796 0.809796 0.809796
0.836973 0.836973 0.836973
0.866545 0.866545 0.866545
0.894732 0.894732 0.894732
0.930577 0.930577 0.930577
0.827595 0.827595 0.827595
0.795202 0.795202 0.795202
0.818410 0.818410 0.818410
0.832741 0.832741 0.832741
0.871587 0.871587 0.871587
0.904946 0.904946 0.904946
0.938482 0.938482 0.938482
0.963352 0.963352 0.963352
