luts/acros_ye.cube
# sRGB
# source: Fuji XTrans III - Acros+Ye (Stuart Sowerby Fuji XTrans III .3dl, N17->N32)
LUT_3D_SIZE 5
DOMAIN_MIN 0.000000 0.000000 0.000000
DOMAIN_MAX 0.903226 0.903226 0.903226
0.003907 0.003907 0.003907
0.069826 0.069826 0.069881
0.252747 0.252747 0.252747
0.482918 0.482918 0.482918
0.550916 0.550916 0.550916
0.048643 0.048643 0.048793
0.122535 0.122535 0.122535
0.325559 0.325559 0.325559
0.510719 0.510719 0.510719
0.604664 0.604664 0.604664
0.190689 0.190689 0.190689
0.289909 0.289909 0.289793
0.458410 0.458410 0.458410
0.590396 0.590396 0.590396
0.650781 0.650781 0.650781
0.316759 0.316759 0.316759
0.379928 0.379928 0.379928
0.540676 0.540676 0.540676
0.678824 0.678824 0.678824
0.740659 0.740659 0.740659
0.391453 0.391453 0.391453
0.511600 0.511600 0.511600
0.601977 0.601977 0.601977
0.693664 0.693664 0.693664
0.807082 0.807082 0.807082
0.009327 0.009571 0.009571
0.140490 0.140490 0.140490
0.327408 0.327408 0.327408
0.528817 0.528817 0.528817
0.637744 0.637744 0.637744
0.088646 0.088646 0.088646
0.158589 0.158589 0.158589
0.342434 0.342434 0.342434
0.536492 0.536492 0.536492
0.677192 0.677192 0.677192
0.258749 0.258749 0.258749
0.323301 0.323301 0.323301
0.463804 0.463804 0.463804
0.615539 0.615539 0.615539
0.727547 0.727547 0.727547
0.388297 0.388297 0.388297
0.480109 0.480109 0.480109
0.589627 0.589627 0.589627
0.708347 0.708347 0.708347
0.816398 0.816398 0.816398
0.443223 0.443223 0.443223
0.563196 0.563196 0.563196
0.636606 0.636606 0.636606
0.745967 0.745967 0.745967
0.870818 0.870818 0.870818
0.149632 0.149821 0.149821
0.239233 0.239233 0.239233
0.380519 0.380519 0.380519
0.574757 0.574757 0.574757
0.708483 0.708483 0.708483
0.168071 0.168071 0.168071
0.248970 0.248970 0.248970
0.412964 0.412964 0.412964
0.586988 0.586988 0.586988
0.724677 0.724677 0.724677
0.334061 0.334061 0.334061
0.391905 0.391905 0.391905
0.515311 0.515311 0.515311
0.654312 0.654312 0.654312
0.774558 0.774558 0.774558
0.474159 0.474159 0.474159
0.537056 0.537056 0.537056
0.628640 0.628640 0.628640
0.738550 0.738550 0.738550
0.844809 0.844809 0.844809
0.549131 0.549131 0.549131
0.617781 0.617781 0.617781
0.691691 0.691691 0.691691
0.789010 0.789010 0.789010
0.918012 0.918012 0.918012
0.285320 0.285360 0.285360
0.343478 0.343502 0.343478
0.461462 0.461462 0.461462
0.621874 0.621874 0.621874
0.757127 0.757127 0.757127
0.277742 0.277867 0.277867
0.366313 0.366313 0.366313
0.492031 0.492031 0.492031
0.640356 0.640356 0.640356
0.770562 0.770562 0.770562
0.400951 0.400951 0.400951
0.473012 0.473012 0.473012
0.574669 0.574669 0.574669
0.697492 0.697492 0.697492
0.812101 0.812101 0.812101
0.557767 0.557767 0.557767
0.595798 0.595798 0.595798
0.677624 0.677624 0.677624
0.774007 0.774007 0.774007
0.873973 0.873973 0.873973
0.643405 0.643405 0.643405
0.688028 0.688028 0.688028
0.773395 0.773395 0.773395
0.836577 0.836577 0.836577
0.942525 0.942525 0.942525
0.439836 0.439836 0.439836
0.479903 0.480013 0.479903
0.568471 0.568471 0.568471
0.692675 0.692675 0.692675
0.799649 0.799649 0.799649
0.423327 0.423327 0.423327
0.498329 0.498329 0.498329
0.584980 0.584980 0.584980
0.707032 0.707032 0.707032
0.812287 0.812287 0.812287
0.475591 0.475591 0.475591
0.560578 0.560578 0.560578
0.644244 0.644244 0.644244
0.747119 0.747119 0.747119
0.850640 0.850640 0.850640
0.618359 0.618359 0.618359
0.662859 0.662859 0.662859
0.728650 0.728650 0.728650
0.815989 0.815989 0.815989
0.910232 0.910232 0.910232
0.755311 0.755311 0.755311
0.733411 0.733411 0.733411
0.792475 0.792475 0.792475
0.888793 0.888793 0.888793
0.965440 0.965440 0.965440
