luts/acros_r.cube
# sRGB
# source: Fuji XTrans III - Acros+R (Stuart Sowerby Fuji XTrans III .3dl, N17->N32)
LUT_3D_SIZE 5
DOMAIN_MIN 0.000000 0.000000 0.000000
DOMAIN_MAX 0.903226 0.903226 0.903226
0.003907 0.003907 0.003907
0.100319 0.100319 0.100319
0.333333 0.333333 0.333333
0.581189 0.581189 0.581189
0.655433 0.655433 0.655433
0.032431 0.032431 0.032581
0.140849 0.140849 0.140849
0.395608 0.395608 0.395608
0.602737 0.602737 0.602737
0.706644 0.706644 0.706644
0.165001 0.165001 0.165001
0.284846 0.284846 0.284846
0.492205 0.492205 0.492205
0.663740 0.663740 0.663740
0.724117 0.724117 0.724117
0.271716 0.271716 0.271716
0.358139 0.358139 0.358139
0.546214 0.546214 0.546214
0.719602 0.719602 0.719602
0.793895 0.793895 0.793895
0.364103 0.364103 0.364103
0.474969 0.474969 0.474969
0.599275 0.599275 0.599275
0.727528 0.727528 0.727528
0.864469 0.864469 0.864469
0.000000 0.000000 0.000000
0.159185 0.159185 0.159185
0.382038 0.382038 0.382038
0.626563 0.626563 0.626563
0.741026 0.741026 0.741026
0.055697 0.055697 0.055697
0.158276 0.158276 0.158276
0.394656 0.394656 0.394656
0.624352 0.624352 0.624352
0.775275 0.775275 0.775275
0.214411 0.214411 0.214411
0.301085 0.301085 0.301085
0.485066 0.485066 0.485066
0.675284 0.675284 0.675284
0.807418 0.807418 0.807418
0.330787 0.330787 0.330787
0.443571 0.443571 0.443571
0.584611 0.584611 0.584611
0.738340 0.738340 0.738340
0.870459 0.870459 0.870459
0.382173 0.382173 0.382173
0.521687 0.521687 0.521687
0.622663 0.622663 0.622663
0.768988 0.768988 0.768988
0.908425 0.908425 0.908425
0.094238 0.094482 0.094427
0.201552 0.201552 0.201552
0.397421 0.397421 0.397421
0.650049 0.650049 0.650049
0.805122 0.805122 0.805122
0.104847 0.104847 0.104847
0.204780 0.204780 0.204780
0.431207 0.431207 0.431207
0.652835 0.652835 0.652835
0.811267 0.811267 0.811267
0.262589 0.262589 0.262589
0.341431 0.341431 0.341431
0.514597 0.514597 0.514597
0.694821 0.694821 0.694821
0.843315 0.843315 0.843315
0.400370 0.400370 0.400370
0.482134 0.482134 0.482134
0.610095 0.610095 0.610095
0.755990 0.755990 0.755990
0.888249 0.888249 0.888249
0.470271 0.470271 0.470271
0.559812 0.559812 0.559812
0.663366 0.663366 0.663366
0.795850 0.795850 0.795850
0.942644 0.942644 0.942644
0.220111 0.220355 0.220355
0.283912 0.284007 0.283912
0.428487 0.428487 0.428487
0.653270 0.653270 0.653270
0.825234 0.825234 0.825234
0.164569 0.164695 0.164695
0.259672 0.259672 0.259672
0.459194 0.459194 0.459194
0.670449 0.670449 0.670449
0.834784 0.834784 0.834784
0.289352 0.289352 0.289352
0.378410 0.378410 0.378410
0.539205 0.539205 0.539205
0.711747 0.711747 0.711747
0.861014 0.861014 0.861014
0.456709 0.456709 0.456709
0.513763 0.513763 0.513763
0.635933 0.635933 0.635933
0.773602 0.773602 0.773602
0.903300 0.903300 0.903300
0.541841 0.541841 0.541841
0.598927 0.598927 0.598927
0.718170 0.718170 0.718170
0.821495 0.821495 0.821495
0.958502 0.958502 0.958502
0.370089 0.370334 0.370334
0.410843 0.411019 0.410843
0.514646 0.514775 0.514646
0.675857 0.675879 0.675857
0.826273 0.826273 0.826273
0.298981 0.299115 0.299115
0.368710 0.368710 0.368710
0.495678 0.495678 0.495678
0.688969 0.688969 0.688969
0.844325 0.844325 0.844325
0.318534 0.318534 0.318534
0.419481 0.419481 0.419481
0.563896 0.563896 0.563896
0.729161 0.729161 0.729161
0.874697 0.874697 0.874697
0.480409 0.480409 0.480409
0.543943 0.543943 0.543943
0.659202 0.659202 0.659202
0.791753 0.791753 0.791753
0.920119 0.920119 0.920119
0.656166 0.656166 0.656166
0.625474 0.625474 0.625474
0.721803 0.721803 0.721803
0.856276 0.856276 0.856276
0.968163 0.968163 0.968163
