luts/acros_r.cube
# sRGB
# source: Fuji XTrans III - Acros+R (Stuart Sowerby Fuji XTrans III .3dl, N17->N32)
LUT_3D_SIZE 8
DOMAIN_MIN 0.000000 0.000000 0.000000
DOMAIN_MAX 0.903226 0.903226 0.903226
0.003907 0.003907 0.003907
0.038103 0.038103 0.038103
0.128016 0.128016 0.128016
0.273071 0.273071 0.272874
0.377510 0.377510 0.377510
0.558502 0.558502 0.558502
0.588278 0.588278 0.588278
0.655433 0.655433 0.655433
0.008051 0.008051 0.008051
0.048305 0.048305 0.048290
0.147432 0.147432 0.147432
0.292590 0.292590 0.292590
0.435001 0.435001 0.435001
0.559574 0.559574 0.559574
0.645665 0.645665 0.645665
0.647921 0.647921 0.647921
0.051526 0.051526 0.051739
0.096777 0.096777 0.096607
0.185378 0.185378 0.185378
0.336707 0.336707 0.336707
0.465683 0.465683 0.465683
0.587094 0.587094 0.587094
0.693292 0.693292 0.693292
0.723077 0.723077 0.723077
0.101390 0.101390 0.101390
0.199872 0.199872 0.199872
0.268170 0.268170 0.268170
0.396411 0.396411 0.396411
0.517920 0.517920 0.517932
0.623261 0.623261 0.623261
0.689188 0.689188 0.689188
0.722307 0.722307 0.722307
0.212265 0.212265 0.212265
0.238692 0.238692 0.238692
0.338288 0.338288 0.338288
0.454981 0.454981 0.454981
0.572654 0.572654 0.572654
0.665610 0.665610 0.665610
0.723865 0.723865 0.723865
0.745324 0.745324 0.745324
0.193320 0.193320 0.193320
0.246642 0.246642 0.246642
0.344841 0.344841 0.344841
0.471928 0.471928 0.471928
0.639072 0.639072 0.639072
0.698355 0.698355 0.698355
0.760138 0.760138 0.760138
0.793895 0.793895 0.793895
0.296215 0.296215 0.296215
0.244562 0.244562 0.244562
0.392197 0.392197 0.392197
0.528938 0.528938 0.528938
0.618599 0.618599 0.618599
0.665461 0.665461 0.665461
0.778778 0.778778 0.778778
0.840748 0.840748 0.840748
0.364103 0.364103 0.364103
0.311631 0.311631 0.311631
0.477553 0.477553 0.477553
0.574847 0.574847 0.574847
0.676807 0.676807 0.676807
0.715278 0.715278 0.715278
0.793155 0.793155 0.793155
0.864469 0.864469 0.864469
0.003884 0.003884 0.003884
0.016099 0.016099 0.016099
0.140289 0.140289 0.140289
0.216756 0.216756 0.216756
0.434925 0.434925 0.434925
0.625038 0.625038 0.625038
0.660806 0.660806 0.660806
0.664171 0.664171 0.664171
0.009264 0.009264 0.009264
0.054572 0.054572 0.054572
0.144464 0.144464 0.144464
0.288507 0.288507 0.288507
0.435682 0.435682 0.435682
0.571370 0.571370 0.571370
0.659029 0.659029 0.659029
0.720377 0.720377 0.720377
0.055508 0.055508 0.055508
0.101040 0.101040 0.101040
0.187738 0.187738 0.187738
0.323482 0.323482 0.323482
0.462534 0.462534 0.462534
0.589958 0.589958 0.589958
0.691413 0.691413 0.691413
0.723319 0.723319 0.723319
0.153683 0.153683 0.153683
0.194907 0.194907 0.194907
0.264944 0.264944 0.264944
0.383141 0.383141 0.383141
0.506498 0.506498 0.506498
0.623382 0.623382 0.623382
0.713517 0.713517 0.713517
0.773746 0.773746 0.773746
0.241808 0.241808 0.241808
0.302302 0.302302 0.302302
0.351459 0.351459 0.351459
0.456521 0.456521 0.456521
0.562178 0.562178 0.562178
0.663759 0.663759 0.663759
0.743134 0.743134 0.743134
0.800460 0.800460 0.800460
0.317469 0.317469 0.317469
0.366624 0.366624 0.366624
0.398625 0.398625 0.398625
0.493227 0.493227 0.493227
0.621601 0.621601 0.621601
0.701802 0.701802 0.701802
0.778665 0.778665 0.778665
0.847472 0.847472 0.847472
0.363328 0.363328 0.363328
0.373569 0.373569 0.373569
0.477553 0.477553 0.477553
0.573792 0.573792 0.573792
0.682800 0.682800 0.682800
0.720024 0.720024 0.720024
0.807604 0.807604 0.807604
0.864989 0.864989 0.864989
0.382173 0.382173 0.382173
0.373687 0.373687 0.373687
0.506739 0.506739 0.506739
0.577538 0.577538 0.577538
0.678085 0.678085 0.678085
0.735685 0.735685 0.735685
0.822206 0.822206 0.822206
0.882590 0.882590 0.882590
0.000284 0.000315 0.000284
0.062776 0.062776 0.062776
0.231980 0.231980 0.231980
0.298318 0.298318 0.298318
0.458695 0.458695 0.458695
0.606572 0.606572 0.606572
0.679940 0.679940 0.679940
0.758746 0.758746 0.758746
0.025200 0.025200 0.025200
0.073573 0.073573 0.073573
0.160878 0.160878 0.160878
0.307290 0.307290 0.307290
0.457920 0.457920 0.457920
0.589105 0.589105 0.589105
0.695225 0.695225 0.695225
0.749157 0.749157 0.749157
0.081291 0.081291 0.081291
0.116814 0.116814 0.116814
0.205599 0.205599 0.205599
0.338664 0.338664 0.338664
0.475577 0.475577 0.475577
0.603231 0.603231 0.603231
0.709881 0.709881 0.709881
0.790956 0.790956 0.790956
0.173991 0.173991 0.173991
0.205783 0.205783 0.205783
0.282472 0.282472 0.282472
0.397789 0.397789 0.397789
0.519207 0.519207 0.519207
0.634075 0.634075 0.634075
0.731381 0.731381 0.731381
0.794979 0.794979 0.794979
0.296858 0.296858 0.296858
0.315615 0.315615 0.315615
0.371373 0.371373 0.371373
0.468186 0.468186 0.468186
0.571915 0.571915 0.571915
0.672484 0.672484 0.672484
0.758160 0.758160 0.758160
0.827963 0.827963 0.827963
0.333089 0.333089 0.333089
0.357911 0.357911 0.357911
0.455534 0.455534 0.455534
0.529662 0.529662 0.529662
0.624170 0.624170 0.624170
0.712200 0.712200 0.712200
0.788009 0.788009 0.788009
0.871002 0.871002 0.871002
0.345477 0.345477 0.345477
0.457133 0.457133 0.457133
0.504550 0.504550 0.504550
0.583183 0.583183 0.583183
0.658454 0.658454 0.658454
0.733868 0.733868 0.733868
0.822360 0.822360 0.822360
0.882906 0.882906 0.882906
0.396416 0.396416 0.396416
0.420923 0.420923 0.420923
0.537874 0.537874 0.537874
0.586892 0.586892 0.586892
0.661388 0.661388 0.661388
0.747391 0.747391 0.747391
0.857570 0.857570 0.857570
0.908425 0.908425 0.908425
0.051731 0.052172 0.052172
0.106400 0.106400 0.106400
0.196942 0.196942 0.196942
0.320235 0.320235 0.320235
0.468504 0.468504 0.468504
0.603539 0.603539 0.603539
0.716892 0.716892 0.716892
0.800244 0.800244 0.800244
0.050891 0.050891 0.050891
0.101336 0.101336 0.101336
0.187451 0.187451 0.187451
0.329024 0.329024 0.329024
0.473355 0.473355 0.473355
0.606541 0.606541 0.606541
0.712874 0.712874 0.712874
0.804669 0.804669 0.804669
0.108207 0.108207 0.108207
0.144506 0.144506 0.144506
0.232486 0.232486 0.232486
0.361747 0.361747 0.361747
0.495492 0.495492 0.495492
0.620249 0.620249 0.620249
0.724669 0.724669 0.724669
0.809216 0.809216 0.809216
0.199882 0.199882 0.199882
0.231404 0.231404 0.231404
0.308397 0.308397 0.308397
0.419279 0.419279 0.419279
0.535920 0.535920 0.535920
0.647054 0.647054 0.647054
0.744299 0.744299 0.744299
0.827198 0.827198 0.827198
0.307931 0.307931 0.307931
0.331215 0.331215 0.331215
0.390710 0.390710 0.390710
0.485075 0.485075 0.485075
0.585281 0.585281 0.585281
0.683527 0.683527 0.683527
0.769178 0.769178 0.769178
0.850083 0.850083 0.850083
0.364864 0.364864 0.364864
0.412374 0.412374 0.412374
0.471320 0.471320 0.471320
0.546126 0.546126 0.546126
0.636290 0.636290 0.636290
0.721579 0.721579 0.721579
0.800175 0.800175 0.800175
0.876627 0.876627 0.876627
0.431921 0.431921 0.431921
0.491937 0.491937 0.491937
0.522320 0.522320 0.522320
0.585482 0.585482 0.585482
0.675374 0.675374 0.675374
0.759984 0.759984 0.759984
0.839597 0.839597 0.839597
0.908278 0.908278 0.908278
0.487133 0.487133 0.487133
0.492256 0.492256 0.492256
0.589255 0.589255 0.589255
0.608849 0.608849 0.608849
0.690638 0.690638 0.690638
0.772561 0.772561 0.772561
0.857535 0.857535 0.857535
0.923478 0.923478 0.923478
0.126945 0.127189 0.127008
0.170024 0.170194 0.170024
0.235206 0.235206 0.235206
0.339254 0.339254 0.339254
0.482094 0.482094 0.482094
0.617346 0.617346 0.617346
0.729234 0.729234 0.729234
0.817278 0.817278 0.817278
0.102544 0.102603 0.102603
0.147356 0.147356 0.147356
0.220321 0.220321 0.220321
0.350316 0.350316 0.350316
0.490782 0.490782 0.490782
0.619288 0.619288 0.619288
0.728725 0.728725 0.728725
0.816558 0.816558 0.816558
0.133034 0.133034 0.133034
0.176570 0.176570 0.176570
0.260025 0.260025 0.260025
0.384937 0.384937 0.384937
0.514051 0.514051 0.514051
0.633511 0.633511 0.633511
0.737029 0.737029 0.737029
0.821752 0.821752 0.821752
0.220117 0.220117 0.220117
0.259055 0.259055 0.259055
0.332985 0.332985 0.332985
0.440368 0.440368 0.440368
0.552547 0.552547 0.552547
0.661017 0.661017 0.661017
0.755385 0.755385 0.755385
0.838588 0.838588 0.838588
0.323905 0.323905 0.323905
0.352918 0.352918 0.352918
0.413092 0.413092 0.413092
0.503334 0.503334 0.503334
0.599083 0.599083 0.599083
0.694037 0.694037 0.694037
0.779304 0.779304 0.779304
0.859344 0.859344 0.859344
0.417239 0.417239 0.417239
0.437591 0.437591 0.437591
0.487147 0.487147 0.487147
0.562754 0.562754 0.562754
0.648913 0.648913 0.648913
0.731294 0.731294 0.731294
0.809475 0.809475 0.809475
0.886244 0.886244 0.886244
0.467277 0.467277 0.467277
0.484600 0.484600 0.484600
0.539494 0.539494 0.539494
0.606601 0.606601 0.606601
0.691164 0.691164 0.691164
0.773682 0.773682 0.773682
0.848079 0.848079 0.848079
0.918236 0.918236 0.918236
0.501742 0.501742 0.501742
0.518986 0.518986 0.518986
0.567486 0.567486 0.567486
0.615826 0.615826 0.615826
0.701049 0.701049 0.701049
0.787611 0.787611 0.787611
0.883287 0.883287 0.883287
0.946625 0.946625 0.946625
0.200071 0.200315 0.200315
0.235179 0.235424 0.235179
0.283545 0.283555 0.283545
0.364604 0.364667 0.364604
0.486082 0.486082 0.486082
0.620817 0.620817 0.620817
0.735710 0.735710 0.735710
0.811960 0.811960 0.811960
0.175593 0.175748 0.175748
0.215124 0.215124 0.215124
0.264032 0.264032 0.264032
0.362705 0.362705 0.362705
0.496124 0.496124 0.496124
0.627011 0.627011 0.627011
0.740001 0.740001 0.740001
0.828038 0.828038 0.828038
0.159197 0.159266 0.159266
0.210419 0.210419 0.210419
0.286525 0.286525 0.286525
0.404427 0.404427 0.404427
0.528179 0.528179 0.528179
0.644782 0.644782 0.644782
0.745850 0.745850 0.745850
0.833078 0.833078 0.833078
0.238147 0.238147 0.238147
0.286597 0.286597 0.286597
0.354680 0.354680 0.354680
0.457235 0.457235 0.457235
0.564880 0.564880 0.564880
0.671372 0.671372 0.671372
0.763457 0.763457 0.763457
0.848767 0.848767 0.848767
0.335311 0.335311 0.335311
0.374411 0.374411 0.374411
0.431176 0.431176 0.431176
0.517216 0.517216 0.517216
0.611358 0.611358 0.611358
0.704096 0.704096 0.704096
0.788337 0.788337 0.788337
0.869908 0.869908 0.869908
0.431326 0.431326 0.431326
0.457985 0.457985 0.457985
0.506196 0.506196 0.506196
0.578723 0.578723 0.578723
0.661843 0.661843 0.661843
0.741100 0.741100 0.741100
0.817610 0.817610 0.817610
0.894604 0.894604 0.894604
0.508403 0.508403 0.508403
0.524687 0.524687 0.524687
0.563885 0.563885 0.563885
0.627040 0.627040 0.627040
0.704398 0.704398 0.704398
0.781691 0.781691 0.781691
0.854951 0.854951 0.854951
0.925993 0.925993 0.925993
0.533901 0.533901 0.533901
0.545986 0.545986 0.545986
0.591722 0.591722 0.591722
0.653446 0.653446 0.653446
0.729436 0.729436 0.729436
0.803330 0.803330 0.803330
0.909967 0.909967 0.909967
0.958352 0.958352 0.958352
0.284391 0.284635 0.284485
0.307820 0.308054 0.307820
0.347345 0.347589 0.347447
0.413530 0.413606 0.413530
0.510322 0.510392 0.510322
0.628103 0.628103 0.628103
0.740185 0.740185 0.740185
0.830788 0.830788 0.830788
0.264312 0.264328 0.264322
0.292011 0.292011 0.292011
0.328570 0.328570 0.328570
0.400218 0.400218 0.400218
0.511146 0.511146 0.511146
0.636343 0.636343 0.636343
0.747003 0.747003 0.747003
0.838222 0.838222 0.838222
0.201737 0.201737 0.201737
0.255937 0.255937 0.255937
0.314477 0.314477 0.314477
0.418668 0.418668 0.418668
0.537519 0.537519 0.537519
0.653469 0.653469 0.653469
0.754074 0.754074 0.754074
0.841709 0.841709 0.841709
0.256455 0.256455 0.256455
0.317167 0.317167 0.317167
0.374748 0.374748 0.374748
0.471707 0.471707 0.471707
0.575392 0.575392 0.575392
0.679979 0.679979 0.679979
0.771251 0.771251 0.771251
0.855373 0.855373 0.855373
0.347691 0.347691 0.347691
0.398502 0.398502 0.398502
0.448691 0.448691 0.448691
0.530137 0.530137 0.530137
0.621973 0.621973 0.621973
0.712450 0.712450 0.712450
0.795541 0.795541 0.795541
0.877826 0.877826 0.877826
0.443013 0.443013 0.443013
0.477680 0.477680 0.477680
0.521088 0.521088 0.521088
0.590706 0.590706 0.590706
0.672072 0.672072 0.672072
0.749932 0.749932 0.749932
0.825125 0.825125 0.825125
0.904131 0.904131 0.904131
0.521570 0.521570 0.521570
0.542463 0.542463 0.542463
0.581278 0.581278 0.581278
0.644536 0.644536 0.644536
0.716883 0.716883 0.716883
0.790402 0.790402 0.790402
0.862548 0.862548 0.862548
0.931605 0.931605 0.931605
0.558648 0.558648 0.558648
0.588049 0.588049 0.588049
0.621741 0.621741 0.621741
0.703559 0.703559 0.703559
0.755625 0.755625 0.755625
0.838376 0.838376 0.838376
0.904203 0.904203 0.904203
0.963200 0.963200 0.963200
0.370089 0.370334 0.370334
0.386659 0.386800 0.386785
0.421396 0.421545 0.421396
0.477580 0.477714 0.477688
0.556255 0.556365 0.556255
0.651373 0.651464 0.651373
0.745248 0.745248 0.745248
0.826273 0.826273 0.826273
0.360029 0.360266 0.360163
0.384800 0.384917 0.384800
0.412203 0.412203 0.412203
0.465941 0.465941 0.465941
0.548635 0.548635 0.548635
0.651922 0.651922 0.651922
0.753445 0.753445 0.753445
0.837213 0.837213 0.837213
0.277777 0.277894 0.277894
0.331881 0.331881 0.331881
0.369720 0.369720 0.369720
0.445490 0.445490 0.445490
0.554136 0.554136 0.554136
0.667249 0.667249 0.667249
0.764904 0.764904 0.764904
0.844401 0.844401 0.844401
0.278817 0.278817 0.278817
0.353335 0.353335 0.353335
0.398900 0.398900 0.398900
0.489862 0.489862 0.489862
0.589851 0.589851 0.589851
0.692090 0.692090 0.692090
0.778604 0.778604 0.778604
0.868327 0.868327 0.868327
0.363915 0.363915 0.363915
0.429146 0.429146 0.429146
0.470838 0.470838 0.470838
0.547347 0.547347 0.547347
0.636828 0.636828 0.636828
0.724695 0.724695 0.724695
0.803826 0.803826 0.803826
0.885218 0.885218 0.885218
0.458820 0.458820 0.458820
0.502867 0.502867 0.502867
0.540457 0.540457 0.540457
0.607084 0.607084 0.607084
0.685789 0.685789 0.685789
0.762918 0.762918 0.762918
0.835198 0.835198 0.835198
0.914600 0.914600 0.914600
0.543391 0.543391 0.543391
0.566080 0.566080 0.566080
0.599793 0.599793 0.599793
0.661625 0.661625 0.661625
0.731871 0.731871 0.731871
0.804619 0.804619 0.804619
0.874824 0.874824 0.874824
0.939976 0.939976 0.939976
0.656166 0.656166 0.656166
0.598826 0.598826 0.598826
0.638174 0.638174 0.638174
0.695957 0.695957 0.695957
0.762884 0.762884 0.762884
0.838025 0.838025 0.838025
0.913523 0.913523 0.913523
0.968163 0.968163 0.968163
