luts/acros.cube
# sRGB
# source: Fuji XTrans III - Acros (Stuart Sowerby Fuji XTrans III .3dl, N17->N32)
LUT_3D_SIZE 32
0.003907 0.003907 0.003907
0.005924 0.005924 0.005924
0.008043 0.008043 0.008043
0.011698 0.011698 0.011698
0.015637 0.015637 0.015621
0.021561 0.021561 0.021419
0.028642 0.028642 0.028422
0.040742 0.040742 0.040648
0.054795 0.054795 0.054764
0.074710 0.074710 0.074552
0.094702 0.094702 0.094498
0.114869 0.114869 0.114790
0.136358 0.136358 0.136358
0.160054 0.160054 0.160054
0.173382 0.173382 0.173382
0.173382 0.173382 0.173382
0.204640 0.204640 0.204640
0.267155 0.267155 0.267155
0.302304 0.302304 0.302304
0.316168 0.316168 0.316168
0.332553 0.332553 0.332553
0.350451 0.350451 0.350451
0.356044 0.356044 0.356044
0.356044 0.356044 0.356044
0.356044 0.356044 0.356044
0.356044 0.356044 0.356044
0.381338 0.381338 0.381338
0.412470 0.412470 0.412470
0.416361 0.416361 0.416361
0.416361 0.416361 0.416361
0.416361 0.416361 0.416361
0.416361 0.416361 0.416361
0.005420 0.005420 0.005420
0.007892 0.007892 0.007892
0.010474 0.010474 0.010474
0.014715 0.014715 0.014715
0.019206 0.019206 0.019199
0.025456 0.025456 0.025387
0.032850 0.032850 0.032744
0.045210 0.045210 0.045165
0.059491 0.059491 0.059476
0.079536 0.079536 0.079459
0.099435 0.099435 0.099336
0.119016 0.119016 0.118978
0.139408 0.139408 0.139408
0.161151 0.161151 0.161151
0.179957 0.179957 0.179957
0.194984 0.194984 0.194984
0.226241 0.226241 0.226241
0.273729 0.273729 0.273729
0.302304 0.302304 0.302304
0.316168 0.316168 0.316168
0.332553 0.332553 0.332553
0.350451 0.350451 0.350451
0.356044 0.356044 0.356044
0.356044 0.356044 0.356044
0.365899 0.365899 0.365899
0.379040 0.379040 0.379040
0.393743 0.393743 0.393743
0.408807 0.408807 0.408807
0.410690 0.410690 0.410690
0.410690 0.410690 0.410690
0.410690 0.410690 0.410690
0.410690 0.410690 0.410690
0.006979 0.006979 0.006972
0.009854 0.009854 0.009846
0.012860 0.012860 0.012853
0.017845 0.017845 0.017841
0.023035 0.023035 0.023035
0.029667 0.029667 0.029667
0.037411 0.037411 0.037411
0.049978 0.049978 0.049978
0.064440 0.064440 0.064440
0.084586 0.084586 0.084586
0.104384 0.104384 0.104384
0.123416 0.123416 0.123416
0.142792 0.142792 0.142792
0.162743 0.162743 0.162743
0.186571 0.186571 0.186571
0.215385 0.215385 0.215385
0.246493 0.246493 0.246493
0.279893 0.279893 0.279893
0.302304 0.302304 0.302304
0.316168 0.316168 0.316168
0.332553 0.332553 0.332553
0.350451 0.350451 0.350451
0.356609 0.356609 0.356609
0.357430 0.357430 0.357430
0.376114 0.376114 0.376114
0.400753 0.400753 0.400753
0.405372 0.405372 0.405372
0.405372 0.405372 0.405372
0.405372 0.405372 0.405372
0.405372 0.405372 0.405372
0.406726 0.406726 0.406726
0.408169 0.408169 0.408169
0.009248 0.009248 0.009114
0.011732 0.011732 0.011598
0.014568 0.014568 0.014438
0.022675 0.022675 0.022615
0.030752 0.030752 0.030752
0.038619 0.038619 0.038619
0.047258 0.047258 0.047258
0.059240 0.059240 0.059240
0.073182 0.073182 0.073182
0.093002 0.093002 0.093002
0.112576 0.112576 0.112576
0.131608 0.131608 0.131608
0.151204 0.151204 0.151204
0.171740 0.171740 0.171740
0.193792 0.193792 0.193792
0.217792 0.217792 0.217792
0.246493 0.246493 0.246493
0.279893 0.279893 0.279893
0.302304 0.302304 0.302304
0.316168 0.316168 0.316168
0.332553 0.332553 0.332553
0.350451 0.350451 0.350451
0.365643 0.365643 0.365643
0.379605 0.379605 0.379605
0.391719 0.391719 0.391719
0.403217 0.403217 0.403217
0.405372 0.405372 0.405372
0.405372 0.405372 0.405372
0.405372 0.405372 0.405372
0.405372 0.405372 0.405372
0.428376 0.428376 0.428376
0.452913 0.452913 0.452913
0.012210 0.012210 0.011982
0.014442 0.014442 0.014206
0.017218 0.017218 0.016981
0.028147 0.028147 0.028028
0.038870 0.038870 0.038855
0.048152 0.048152 0.048145
0.057835 0.057835 0.057835
0.069256 0.069256 0.069256
0.082707 0.082707 0.082707
0.102251 0.102251 0.102251
0.121638 0.121638 0.121638
0.140678 0.140678 0.140678
0.160477 0.160477 0.160477
0.181542 0.181542 0.181542
0.202041 0.202041 0.202041
0.221813 0.221813 0.221813
0.248017 0.248017 0.248017
0.280653 0.280653 0.280653
0.303169 0.303169 0.303169
0.317814 0.317814 0.317814
0.334430 0.334430 0.334430
0.352230 0.352230 0.352230
0.374676 0.374676 0.374676
0.399233 0.399233 0.399233
0.405372 0.405372 0.405372
0.405372 0.405372 0.405372
0.405372 0.405372 0.405372
0.405372 0.405372 0.405372
0.408176 0.408176 0.408176
0.411380 0.411380 0.411380
0.450821 0.450821 0.450821
0.492678 0.492678 0.492678
0.020024 0.020024 0.019922
0.022972 0.022972 0.022797
0.026463 0.026463 0.026222
0.038108 0.038108 0.037920
0.049790 0.049790 0.049658
0.061739 0.061739 0.061680
0.073516 0.073516 0.073516
0.084547 0.084547 0.084547
0.097722 0.097722 0.097722
0.117331 0.117331 0.117331
0.136783 0.136783 0.136783
0.155888 0.155888 0.155888
0.175777 0.175777 0.175777
0.196972 0.196972 0.196972
0.217487 0.217487 0.217487
0.237129 0.237129 0.237129
0.260210 0.260210 0.260210
0.286731 0.286731 0.286731
0.310085 0.310085 0.310085
0.330974 0.330974 0.330974
0.349445 0.349445 0.349445
0.366465 0.366465 0.366465
0.383702 0.383702 0.383702
0.401038 0.401038 0.401038
0.405372 0.405372 0.405372
0.405372 0.405372 0.405372
0.405372 0.405372 0.405372
0.405372 0.405372 0.405372
0.430603 0.430603 0.430603
0.459437 0.459437 0.459437
0.478830 0.478830 0.478830
0.497593 0.497593 0.497593
0.031951 0.031951 0.031951
0.035163 0.035163 0.035049
0.038905 0.038905 0.038685
0.050607 0.050607 0.050386
0.062383 0.062383 0.062176
0.074682 0.074682 0.074589
0.086862 0.086862 0.086862
0.098526 0.098526 0.098526
0.112337 0.112337 0.112337
0.132584 0.132584 0.132584
0.152514 0.152514 0.152514
0.171745 0.171745 0.171745
0.191752 0.191752 0.191752
0.213053 0.213053 0.213053
0.233464 0.233464 0.233464
0.252732 0.252732 0.252732
0.273148 0.273148 0.273148
0.294713 0.294713 0.294713
0.318642 0.318642 0.318642
0.344411 0.344411 0.344411
0.364285 0.364285 0.364285
0.380621 0.380621 0.380621
0.394450 0.394450 0.394450
0.407139 0.407139 0.407139
0.412004 0.412004 0.412004
0.414260 0.414260 0.414260
0.414684 0.414684 0.414684
0.414684 0.414684 0.414684
0.453930 0.453930 0.453930
0.498784 0.498784 0.498784
0.501587 0.501587 0.501587
0.501587 0.501587 0.501587
0.061696 0.061696 0.061696
0.063217 0.063217 0.063168
0.065199 0.065199 0.065104
0.074103 0.074103 0.074008
0.082220 0.082220 0.082131
0.084826 0.084826 0.084786
0.090082 0.090082 0.090082
0.106820 0.106820 0.106820
0.125217 0.125217 0.125217
0.148587 0.148587 0.148587
0.170786 0.170786 0.170786
0.190407 0.190407 0.190407
0.210658 0.210658 0.210658
0.231959 0.231959 0.231959
0.251744 0.251744 0.251744
0.269580 0.269580 0.269580
0.289314 0.289314 0.289314
0.310943 0.310943 0.310943
0.334316 0.334316 0.334316
0.359044 0.359044 0.359044
0.378365 0.378365 0.378365
0.394441 0.394441 0.394441
0.412661 0.412661 0.412661
0.431855 0.431855 0.431855
0.447372 0.447372 0.447372
0.461663 0.461663 0.461663
0.464343 0.464343 0.464343
0.464343 0.464343 0.464343
0.481163 0.481163 0.481163
0.500386 0.500386 0.500386
0.501587 0.501587 0.501587
0.501587 0.501587 0.501587
0.090401 0.090401 0.090401
0.090621 0.090621 0.090621
0.091266 0.091266 0.091266
0.098300 0.098300 0.098300
0.104081 0.104081 0.104081
0.101093 0.101093 0.101093
0.102337 0.102337 0.102337
0.121922 0.121922 0.121922
0.143063 0.143063 0.143063
0.168872 0.168872 0.168872
0.192158 0.192158 0.192158
0.209893 0.209893 0.209893
0.229209 0.229209 0.229209
0.251160 0.251160 0.251160
0.270771 0.270771 0.270771
0.287371 0.287371 0.287371
0.306340 0.306340 0.306340
0.327677 0.327677 0.327677
0.350418 0.350418 0.350418
0.374252 0.374252 0.374252
0.393217 0.393217 0.393217
0.409260 0.409260 0.409260
0.429226 0.429226 0.429226
0.450973 0.450973 0.450973
0.473898 0.473898 0.473898
0.497215 0.497215 0.497215
0.501587 0.501587 0.501587
0.501587 0.501587 0.501587
0.501587 0.501587 0.501587
0.501587 0.501587 0.501587
0.501587 0.501587 0.501587
0.501587 0.501587 0.501587
0.115987 0.115987 0.115987
0.116077 0.116077 0.116077
0.116657 0.116657 0.116657
0.124602 0.124602 0.124602
0.132017 0.132017 0.132017
0.135729 0.135729 0.135729
0.141698 0.141698 0.141698
0.157444 0.157444 0.157444
0.175804 0.175804 0.175804
0.202004 0.202004 0.202004
0.222835 0.222835 0.222835
0.231853 0.231853 0.231853
0.246696 0.246696 0.246696
0.271249 0.271249 0.271249
0.292039 0.292039 0.292039
0.307989 0.307989 0.307989
0.325949 0.325949 0.325949
0.345920 0.345920 0.345920
0.367808 0.367808 0.367808
0.391186 0.391186 0.391186
0.410387 0.410387 0.410387
0.427081 0.427081 0.427081
0.440854 0.440854 0.440854
0.453299 0.453299 0.453299
0.473898 0.473898 0.473898
0.497215 0.497215 0.497215
0.501587 0.501587 0.501587
0.501587 0.501587 0.501587
0.501587 0.501587 0.501587
0.501587 0.501587 0.501587
0.501587 0.501587 0.501587
0.501587 0.501587 0.501587
0.133578 0.133578 0.133578
0.139778 0.139778 0.139778
0.146040 0.146040 0.146040
0.153228 0.153228 0.153228
0.160515 0.160515 0.160515
0.168487 0.168487 0.168487
0.177461 0.177461 0.177461
0.190773 0.190773 0.190773
0.207556 0.207556 0.207556
0.234756 0.234756 0.234756
0.254535 0.254535 0.254535
0.257987 0.257987 0.257987
0.269542 0.269542 0.269542
0.294604 0.294604 0.294604
0.315047 0.315047 0.315047
0.329554 0.329554 0.329554
0.346130 0.346130 0.346130
0.364776 0.364776 0.364776
0.385679 0.385679 0.385679
0.408337 0.408337 0.408337
0.427903 0.427903 0.427903
0.445614 0.445614 0.445614
0.456230 0.456230 0.456230
0.463621 0.463621 0.463621
0.480137 0.480137 0.480137
0.499693 0.499693 0.499693
0.502616 0.502616 0.502616
0.501702 0.501702 0.501702
0.501587 0.501587 0.501587
0.501587 0.501587 0.501587
0.501587 0.501587 0.501587
0.501587 0.501587 0.501587
0.133578 0.133578 0.133578
0.159619 0.159619 0.159619
0.184205 0.184205 0.184205
0.186970 0.186970 0.186970
0.190247 0.190247 0.190247
0.197115 0.197115 0.197115
0.205312 0.205312 0.205312
0.219274 0.219274 0.219274
0.237131 0.237131 0.237131
0.266673 0.266673 0.266673
0.288488 0.288488 0.288488
0.293306 0.293306 0.293306
0.304178 0.304178 0.304178
0.325142 0.325142 0.325142
0.341885 0.341885 0.341885
0.353205 0.353205 0.353205
0.367569 0.367569 0.367569
0.384979 0.384979 0.384979
0.404609 0.404609 0.404609
0.425966 0.425966 0.425966
0.446183 0.446183 0.446183
0.465715 0.465715 0.465715
0.479852 0.479852 0.479852
0.491537 0.491537 0.491537
0.500099 0.500099 0.500099
0.507621 0.507621 0.507621
0.505910 0.505910 0.505910
0.502068 0.502068 0.502068
0.501587 0.501587 0.501587
0.501587 0.501587 0.501587
0.501587 0.501587 0.501587
0.501587 0.501587 0.501587
0.145441 0.145441 0.145441
0.183858 0.183858 0.183858
0.219875 0.219875 0.219875
0.219875 0.219875 0.219875
0.220638 0.220638 0.220638
0.226740 0.226740 0.226740
0.233999 0.233999 0.233999
0.246270 0.246270 0.246270
0.263304 0.263304 0.263304
0.294626 0.294626 0.294626
0.318284 0.318284 0.318284
0.325078 0.325078 0.325078
0.336599 0.336599 0.336599
0.356001 0.356001 0.356001
0.370611 0.370611 0.370611
0.379060 0.379060 0.379060
0.390920 0.390920 0.390920
0.406191 0.406191 0.406191
0.423906 0.423906 0.423906
0.443524 0.443524 0.443524
0.463708 0.463708 0.463708
0.484232 0.484232 0.484232
0.500272 0.500272 0.500272
0.514275 0.514275 0.514275
0.517775 0.517775 0.517775
0.517775 0.517775 0.517775
0.514059 0.514059 0.514059
0.509485 0.509485 0.509485
0.512798 0.512798 0.512798
0.517238 0.517238 0.517238
0.521678 0.521678 0.521678
0.526118 0.526118 0.526118
0.177077 0.177077 0.177077
0.215429 0.215429 0.215429
0.251384 0.251384 0.251384
0.251384 0.251384 0.251384
0.252123 0.252123 0.252123
0.258030 0.258030 0.258030
0.264082 0.264082 0.264082
0.270758 0.270758 0.270758
0.283807 0.283807 0.283807
0.315976 0.315976 0.315976
0.341150 0.341150 0.341150
0.350936 0.350936 0.350936
0.365328 0.365328 0.365328
0.387397 0.387397 0.387397
0.402483 0.402483 0.402483
0.408589 0.408589 0.408589
0.417457 0.417457 0.417457
0.429085 0.429085 0.429085
0.443817 0.443817 0.443817
0.460962 0.460962 0.460962
0.479975 0.479975 0.479975
0.500109 0.500109 0.500109
0.515356 0.515356 0.515356
0.528383 0.528383 0.528383
0.531640 0.531640 0.531640
0.531640 0.531640 0.531640
0.530302 0.530302 0.530302
0.528655 0.528655 0.528655
0.542694 0.542694 0.542694
0.558973 0.558973 0.558973
0.575252 0.575252 0.575252
0.591532 0.591532 0.591532
0.211635 0.211635 0.211635
0.241299 0.241299 0.241299
0.269109 0.269109 0.269109
0.269109 0.269109 0.269109
0.269833 0.269833 0.269833
0.275631 0.275631 0.275631
0.282471 0.282471 0.282471
0.293827 0.293827 0.293827
0.309893 0.309893 0.309893
0.340089 0.340089 0.340089
0.364602 0.364602 0.364602
0.376613 0.376613 0.376613
0.391954 0.391954 0.391954
0.412848 0.412848 0.412848
0.427979 0.427979 0.427979
0.435700 0.435700 0.435700
0.444649 0.444649 0.444649
0.454825 0.454825 0.454825
0.467756 0.467756 0.467756
0.482827 0.482827 0.482827
0.499823 0.499823 0.499823
0.517972 0.517972 0.517972
0.533142 0.533142 0.533142
0.546958 0.546958 0.546958
0.550412 0.550412 0.550412
0.550412 0.550412 0.550412
0.550412 0.550412 0.550412
0.550412 0.550412 0.550412
0.569388 0.569388 0.569388
0.591074 0.591074 0.591074
0.609079 0.609079 0.609079
0.626838 0.626838 0.626838
0.249951 0.249951 0.249951
0.259839 0.259839 0.259839
0.269109 0.269109 0.269109
0.269109 0.269109 0.269109
0.269833 0.269833 0.269833
0.275631 0.275631 0.275631
0.285825 0.285825 0.285825
0.315070 0.315070 0.315070
0.343155 0.343155 0.343155
0.367757 0.367757 0.367757
0.388810 0.388810 0.388810
0.402056 0.402056 0.402056
0.415877 0.415877 0.415877
0.430656 0.430656 0.430656
0.445279 0.445279 0.445279
0.459700 0.459700 0.459700
0.472682 0.472682 0.472682
0.484225 0.484225 0.484225
0.496875 0.496875 0.496875
0.510385 0.510385 0.510385
0.524274 0.524274 0.524274
0.538391 0.538391 0.538391
0.554402 0.554402 0.554402
0.571275 0.571275 0.571275
0.575493 0.575493 0.575493
0.575493 0.575493 0.575493
0.575493 0.575493 0.575493
0.575493 0.575493 0.575493
0.591965 0.591965 0.591965
0.610789 0.610789 0.610789
0.617516 0.617516 0.617516
0.623435 0.623435 0.623435
0.249951 0.249951 0.249951
0.259839 0.259839 0.259839
0.269109 0.269109 0.269109
0.269109 0.269109 0.269109
0.270842 0.270842 0.270842
0.284706 0.284706 0.284706
0.301619 0.301619 0.301619
0.331742 0.331742 0.331742
0.359786 0.359786 0.359786
0.381590 0.381590 0.381590
0.402571 0.402571 0.402571
0.421737 0.421737 0.421737
0.436123 0.436123 0.436123
0.442543 0.442543 0.442543
0.457188 0.457188 0.457188
0.482408 0.482408 0.482408
0.499553 0.499553 0.499553
0.508624 0.508624 0.508624
0.520942 0.520942 0.520942
0.535786 0.535786 0.535786
0.548081 0.548081 0.548081
0.558848 0.558848 0.558848
0.573812 0.573812 0.573812
0.590685 0.590685 0.590685
0.594903 0.594903 0.594903
0.594903 0.594903 0.594903
0.594903 0.594903 0.594903
0.594903 0.594903 0.594903
0.611062 0.611062 0.611062
0.629528 0.629528 0.629528
0.634982 0.634982 0.634982
0.639568 0.639568 0.639568
0.211635 0.211635 0.211635
0.241299 0.241299 0.241299
0.269109 0.269109 0.269109
0.269109 0.269109 0.269109
0.272858 0.272858 0.272858
0.302856 0.302856 0.302856
0.329852 0.329852 0.329852
0.343842 0.343842 0.343842
0.359786 0.359786 0.359786
0.381590 0.381590 0.381590
0.405884 0.405884 0.405884
0.435654 0.435654 0.435654
0.452691 0.452691 0.452691
0.448507 0.448507 0.448507
0.463705 0.463705 0.463705
0.503822 0.503822 0.503822
0.525261 0.525261 0.525261
0.528021 0.528021 0.528021
0.539957 0.539957 0.539957
0.559030 0.559030 0.559030
0.571244 0.571244 0.571244
0.579343 0.579343 0.579343
0.591372 0.591372 0.591372
0.605188 0.605188 0.605188
0.608642 0.608642 0.608642
0.608642 0.608642 0.608642
0.608642 0.608642 0.608642
0.608642 0.608642 0.608642
0.626678 0.626678 0.626678
0.647292 0.647292 0.647292
0.661479 0.661479 0.661479
0.675237 0.675237 0.675237
0.194872 0.194872 0.194872
0.233188 0.233188 0.233188
0.269109 0.269109 0.269109
0.269109 0.269109 0.269109
0.276096 0.276096 0.276096
0.331996 0.331996 0.331996
0.375182 0.375182 0.375182
0.363269 0.363269 0.363269
0.362283 0.362283 0.362283
0.394077 0.394077 0.394077
0.423567 0.423567 0.423567
0.447986 0.447986 0.447986
0.460900 0.460900 0.460900
0.454639 0.454639 0.454639
0.474273 0.474273 0.474273
0.527201 0.527201 0.527201
0.553665 0.553665 0.553665
0.553665 0.553665 0.553665
0.560453 0.560453 0.560453
0.572520 0.572520 0.572520
0.586249 0.586249 0.586249
0.600975 0.600975 0.600975
0.613929 0.613929 0.613929
0.626078 0.626078 0.626078
0.623516 0.623516 0.623516
0.616052 0.616052 0.616052
0.624225 0.624225 0.624225
0.636008 0.636008 0.636008
0.650864 0.650864 0.650864
0.666160 0.666160 0.666160
0.678939 0.678939 0.678939
0.691551 0.691551 0.691551
0.194872 0.194872 0.194872
0.233188 0.233188 0.233188
0.269109 0.269109 0.269109
0.269109 0.269109 0.269109
0.280284 0.280284 0.280284
0.369686 0.369686 0.369686
0.433810 0.433810 0.433810
0.388396 0.388396 0.388396
0.366723 0.366723 0.366723
0.416277 0.416277 0.416277
0.452426 0.452426 0.452426
0.459086 0.459086 0.459086
0.462608 0.462608 0.462608
0.460900 0.460900 0.460900
0.487991 0.487991 0.487991
0.552108 0.552108 0.552108
0.584166 0.584166 0.584166
0.584166 0.584166 0.584166
0.582099 0.582099 0.582099
0.578423 0.578423 0.578423
0.594909 0.594909 0.594909
0.623492 0.623492 0.623492
0.640373 0.640373 0.640373
0.651936 0.651936 0.651936
0.639275 0.639275 0.639275
0.618540 0.618540 0.618540
0.641245 0.641245 0.641245
0.673974 0.673974 0.673974
0.681715 0.681715 0.681715
0.685887 0.685887 0.685887
0.689372 0.689372 0.689372
0.692812 0.692812 0.692812
0.255764 0.255764 0.255764
0.262652 0.262652 0.262652
0.269109 0.269109 0.269109
0.269109 0.269109 0.269109
0.281854 0.281854 0.281854
0.383820 0.383820 0.383820
0.455796 0.455796 0.455796
0.397818 0.397818 0.397818
0.365613 0.365613 0.365613
0.410727 0.410727 0.410727
0.445211 0.445211 0.445211
0.456311 0.456311 0.456311
0.467471 0.467471 0.467471
0.478733 0.478733 0.478733
0.510028 0.510028 0.510028
0.567079 0.567079 0.567079
0.595604 0.595604 0.595604
0.595604 0.595604 0.595604
0.596345 0.596345 0.596345
0.597663 0.597663 0.597663
0.612458 0.612458 0.612458
0.635340 0.635340 0.635340
0.650289 0.650289 0.650289
0.661633 0.661633 0.661633
0.651406 0.651406 0.651406
0.633988 0.633988 0.633988
0.656958 0.656958 0.656958
0.689248 0.689248 0.689248
0.693284 0.693284 0.693284
0.693284 0.693284 0.693284
0.702585 0.702585 0.702585
0.712505 0.712505 0.712505
0.353192 0.353192 0.353192
0.309794 0.309794 0.309794
0.269109 0.269109 0.269109
0.269109 0.269109 0.269109
0.281854 0.281854 0.281854
0.383820 0.383820 0.383820
0.455796 0.455796 0.455796
0.397818 0.397818 0.397818
0.361173 0.361173 0.361173
0.388528 0.388528 0.388528
0.416352 0.416352 0.416352
0.445211 0.445211 0.445211
0.474228 0.474228 0.474228
0.503510 0.503510 0.503510
0.537057 0.537057 0.537057
0.576089 0.576089 0.576089
0.595604 0.595604 0.595604
0.595604 0.595604 0.595604
0.606152 0.606152 0.606152
0.624903 0.624903 0.624903
0.635340 0.635340 0.635340
0.640788 0.640788 0.640788
0.650289 0.650289 0.650289
0.661633 0.661633 0.661633
0.661359 0.661359 0.661359
0.657211 0.657211 0.657211
0.671887 0.671887 0.671887
0.690907 0.690907 0.690907
0.693284 0.693284 0.693284
0.693284 0.693284 0.693284
0.717466 0.717466 0.717466
0.743259 0.743259 0.743259
0.383639 0.383639 0.383639
0.324526 0.324526 0.324526
0.269109 0.269109 0.269109
0.269109 0.269109 0.269109
0.278975 0.278975 0.278975
0.357908 0.357908 0.357908
0.415489 0.415489 0.415489
0.380544 0.380544 0.380544
0.359786 0.359786 0.359786
0.381590 0.381590 0.381590
0.411205 0.411205 0.411205
0.458002 0.458002 0.458002
0.495697 0.495697 0.495697
0.518221 0.518221 0.518221
0.544643 0.544643 0.544643
0.576075 0.576075 0.576075
0.592776 0.592776 0.592776
0.594743 0.594743 0.594743
0.604386 0.604386 0.604386
0.619999 0.619999 0.619999
0.631221 0.631221 0.631221
0.639807 0.639807 0.639807
0.650289 0.650289 0.650289
0.661633 0.661633 0.661633
0.668427 0.668427 0.668427
0.673704 0.673704 0.673704
0.682490 0.682490 0.682490
0.692085 0.692085 0.692085
0.702833 0.702833 0.702833
0.713745 0.713745 0.713745
0.733028 0.733028 0.733028
0.752869 0.752869 0.752869
0.383639 0.383639 0.383639
0.324526 0.324526 0.324526
0.269109 0.269109 0.269109
0.269109 0.269109 0.269109
0.274788 0.274788 0.274788
0.320218 0.320218 0.320218
0.356860 0.356860 0.356860
0.355417 0.355417 0.355417
0.359786 0.359786 0.359786
0.381590 0.381590 0.381590
0.416836 0.416836 0.416836
0.481653 0.481653 0.481653
0.523852 0.523852 0.523852
0.528357 0.528357 0.528357
0.543391 0.543391 0.543391
0.571961 0.571961 0.571961
0.588661 0.588661 0.588661
0.593491 0.593491 0.593491
0.597361 0.597361 0.597361
0.600483 0.600483 0.600483
0.614827 0.614827 0.614827
0.635904 0.635904 0.635904
0.650289 0.650289 0.650289
0.661633 0.661633 0.661633
0.674184 0.674184 0.674184
0.687138 0.687138 0.687138
0.691126 0.691126 0.691126
0.693045 0.693045 0.693045
0.716722 0.716722 0.716722
0.743507 0.743507 0.743507
0.748901 0.748901 0.748901
0.752869 0.752869 0.752869
0.383639 0.383639 0.383639
0.324526 0.324526 0.324526
0.269109 0.269109 0.269109
0.269109 0.269109 0.269109
0.278705 0.278705 0.278705
0.355475 0.355475 0.355475
0.418647 0.418647 0.418647
0.422896 0.422896 0.422896
0.429814 0.429814 0.429814
0.444739 0.444739 0.444739
0.467241 0.467241 0.467241
0.506410 0.506410 0.506410
0.530891 0.530891 0.530891
0.530891 0.530891 0.530891
0.543078 0.543078 0.543078
0.570932 0.570932 0.570932
0.587632 0.587632 0.587632
0.593178 0.593178 0.593178
0.595604 0.595604 0.595604
0.595604 0.595604 0.595604
0.610729 0.610729 0.610729
0.634929 0.634929 0.634929
0.650289 0.650289 0.650289
0.661633 0.661633 0.661633
0.675623 0.675623 0.675623
0.690496 0.690496 0.690496
0.702957 0.702957 0.702957
0.714862 0.714862 0.714862
0.732842 0.732842 0.732842
0.751691 0.751691 0.751691
0.752869 0.752869 0.752869
0.752869 0.752869 0.752869
0.383639 0.383639 0.383639
0.324526 0.324526 0.324526
0.269109 0.269109 0.269109
0.269109 0.269109 0.269109
0.285324 0.285324 0.285324
0.415046 0.415046 0.415046
0.520572 0.520572 0.520572
0.521242 0.521242 0.521242
0.523184 0.523184 0.523184
0.528937 0.528937 0.528937
0.532569 0.532569 0.532569
0.531537 0.531537 0.531537
0.530891 0.530891 0.530891
0.530891 0.530891 0.530891
0.543078 0.543078 0.543078
0.570932 0.570932 0.570932
0.587632 0.587632 0.587632
0.593178 0.593178 0.593178
0.595604 0.595604 0.595604
0.595604 0.595604 0.595604
0.610729 0.610729 0.610729
0.634929 0.634929 0.634929
0.650289 0.650289 0.650289
0.661633 0.661633 0.661633
0.675623 0.675623 0.675623
0.690496 0.690496 0.690496
0.715854 0.715854 0.715854
0.743631 0.743631 0.743631
0.749707 0.749707 0.749707
0.752683 0.752683 0.752683
0.752869 0.752869 0.752869
0.752869 0.752869 0.752869
0.396132 0.396132 0.396132
0.361809 0.361809 0.361809
0.328874 0.328874 0.328874
0.316771 0.316771 0.316771
0.321245 0.321245 0.321245
0.441762 0.441762 0.441762
0.539683 0.539683 0.539683
0.539683 0.539683 0.539683
0.540691 0.540691 0.540691
0.544724 0.544724 0.544724
0.548898 0.548898 0.548898
0.553383 0.553383 0.553383
0.556186 0.556186 0.556186
0.556186 0.556186 0.556186
0.568881 0.568881 0.568881
0.597898 0.597898 0.597898
0.608071 0.608071 0.608071
0.599399 0.599399 0.599399
0.603780 0.603780 0.603780
0.618316 0.618316 0.618316
0.629806 0.629806 0.629806
0.639471 0.639471 0.639471
0.650289 0.650289 0.650289
0.661633 0.661633 0.661633
0.670946 0.670946 0.670946
0.679581 0.679581 0.679581
0.711255 0.711255 0.711255
0.748246 0.748246 0.748246
0.752869 0.752869 0.752869
0.752869 0.752869 0.752869
0.752869 0.752869 0.752869
0.752869 0.752869 0.752869
0.411509 0.411509 0.411509
0.407695 0.407695 0.407695
0.402432 0.402432 0.402432
0.375432 0.375432 0.375432
0.363927 0.363927 0.363927
0.460896 0.460896 0.460896
0.539683 0.539683 0.539683
0.539683 0.539683 0.539683
0.540691 0.540691 0.540691
0.544724 0.544724 0.544724
0.553920 0.553920 0.553920
0.574472 0.574472 0.574472
0.587317 0.587317 0.587317
0.587317 0.587317 0.587317
0.600639 0.600639 0.600639
0.631087 0.631087 0.631087
0.633226 0.633226 0.633226
0.607054 0.607054 0.607054
0.613843 0.613843 0.613843
0.646268 0.646268 0.646268
0.653286 0.653286 0.653286
