luts/acros_r.cube
# sRGB
# source: Fuji XTrans III - Acros+R (Stuart Sowerby Fuji XTrans III .3dl, N17->N32)
LUT_3D_SIZE 32
0.003907 0.003907 0.003907
0.007688 0.007688 0.007688
0.012029 0.012029 0.012029
0.024759 0.024759 0.024759
0.038103 0.038103 0.038103
0.055749 0.055749 0.055749
0.074859 0.074859 0.074859
0.100319 0.100319 0.100319
0.128016 0.128016 0.128016
0.162425 0.162425 0.162425
0.197779 0.197779 0.197739
0.235212 0.235212 0.235047
0.273071 0.273071 0.272874
0.311639 0.311639 0.311568
0.333333 0.333333 0.333333
0.333333 0.333333 0.333333
0.377510 0.377510 0.377510
0.465863 0.465863 0.465863
0.516074 0.516074 0.516074
0.536618 0.536618 0.536618
0.558502 0.558502 0.558502
0.581189 0.581189 0.581189
0.588278 0.588278 0.588278
0.588278 0.588278 0.588278
0.588278 0.588278 0.588278
0.588278 0.588278 0.588278
0.616440 0.616440 0.616440
0.651101 0.651101 0.651101
0.655433 0.655433 0.655433
0.655433 0.655433 0.655433
0.655433 0.655433 0.655433
0.655433 0.655433 0.655433
0.005042 0.005042 0.005042
0.009668 0.009668 0.009603
0.014761 0.014761 0.014639
0.026840 0.026840 0.026784
0.039632 0.039632 0.039632
0.057407 0.057407 0.057407
0.076612 0.076612 0.076612
0.102006 0.102006 0.102006
0.129833 0.129833 0.129833
0.164958 0.164958 0.164958
0.200722 0.200722 0.200723
0.237896 0.237896 0.237901
0.275104 0.275104 0.275110
0.312371 0.312371 0.312373
0.342213 0.342213 0.342213
0.362509 0.362509 0.362509
0.406686 0.406686 0.406686
0.474743 0.474743 0.474743
0.516074 0.516074 0.516074
0.536618 0.536618 0.536618
0.558502 0.558502 0.558502
0.581189 0.581189 0.581189
0.588278 0.588278 0.588278
0.588278 0.588278 0.588278
0.599744 0.599744 0.599744
0.615031 0.615031 0.615031
0.631524 0.631524 0.631524
0.648295 0.648295 0.648295
0.650392 0.650392 0.650392
0.650392 0.650392 0.650392
0.650392 0.650392 0.650392
0.650392 0.650392 0.650392
0.006160 0.006160 0.006160
0.011515 0.011515 0.011389
0.017260 0.017260 0.017024
0.028864 0.028864 0.028753
0.041281 0.041281 0.041281
0.059389 0.059389 0.059389
0.078842 0.078842 0.078842
0.104114 0.104114 0.104114
0.132016 0.132016 0.132016
0.167803 0.167803 0.167803
0.203945 0.203945 0.203983
0.240871 0.240871 0.241031
0.277471 0.277471 0.277662
0.313530 0.313530 0.313599
0.350910 0.350910 0.350910
0.389986 0.389986 0.389986
0.434038 0.434038 0.434038
0.483067 0.483067 0.483067
0.516074 0.516074 0.516074
0.536618 0.536618 0.536618
0.558502 0.558502 0.558502
0.581189 0.581189 0.581189
0.588935 0.588935 0.588935
0.589891 0.589891 0.589891
0.611627 0.611627 0.611627
0.640291 0.640291 0.640291
0.645665 0.645665 0.645665
0.645665 0.645665 0.645665
0.645665 0.645665 0.645665
0.645665 0.645665 0.645665
0.646805 0.646805 0.646805
0.648021 0.648021 0.648021
0.007042 0.007042 0.007042
0.011356 0.011356 0.011230
0.016260 0.016260 0.016023
0.030010 0.030010 0.029900
0.044728 0.044728 0.044728
0.066220 0.066220 0.066220
0.088238 0.088238 0.088238
0.112535 0.112535 0.112535
0.139672 0.139672 0.139672
0.175328 0.175328 0.175328
0.211361 0.211361 0.211379
0.248222 0.248222 0.248296
0.284855 0.284855 0.284944
0.321109 0.321109 0.321141
0.356862 0.356862 0.356862
0.391970 0.391970 0.391970
0.434038 0.434038 0.434038
0.483067 0.483067 0.483067
0.516074 0.516074 0.516074
0.536618 0.536618 0.536618
0.558502 0.558502 0.558502
0.581189 0.581189 0.581189
0.599445 0.599445 0.599445
0.615688 0.615688 0.615688
0.629781 0.629781 0.629781
0.643157 0.643157 0.643157
0.645665 0.645665 0.645665
0.645665 0.645665 0.645665
0.645665 0.645665 0.645665
0.645665 0.645665 0.645665
0.665040 0.665040 0.665040
0.685706 0.685706 0.685706
0.008051 0.008051 0.008051
0.011673 0.011673 0.011547
0.016041 0.016041 0.015804
0.031580 0.031580 0.031461
0.048305 0.048305 0.048290
0.073325 0.073325 0.073319
0.097988 0.097988 0.097988
0.121098 0.121098 0.121098
0.147432 0.147432 0.147432
0.183438 0.183438 0.183438
0.219597 0.219597 0.219597
0.256091 0.256091 0.256091
0.292590 0.292590 0.292590
0.329097 0.329097 0.329097
0.363504 0.363504 0.363504
0.395213 0.395213 0.395213
0.435001 0.435001 0.435001
0.482867 0.482867 0.482867
0.515891 0.515891 0.515891
0.537370 0.537370 0.537370
0.559574 0.559574 0.559574
0.582212 0.582212 0.582212
0.609292 0.609292 0.609292
0.638391 0.638391 0.638391
0.645665 0.645665 0.645665
0.645665 0.645665 0.645665
0.645665 0.645665 0.645665
0.645665 0.645665 0.645665
0.647921 0.647921 0.647921
0.650499 0.650499 0.650499
0.683711 0.683711 0.683711
0.718965 0.718965 0.718965
0.009941 0.009941 0.009941
0.015320 0.015320 0.015194
0.021290 0.021290 0.021049
0.036113 0.036113 0.035925
0.052781 0.052781 0.052648
0.082355 0.082355 0.082296
0.110218 0.110218 0.110218
0.130660 0.130660 0.130660
0.155921 0.155921 0.155921
0.195635 0.195635 0.195635
0.233571 0.233571 0.233571
0.267593 0.267593 0.267593
0.302791 0.302791 0.302791
0.339948 0.339948 0.339948
0.374978 0.374978 0.374978
0.407272 0.407272 0.407272
0.442702 0.442702 0.442702
0.481265 0.481265 0.481265
0.514427 0.514427 0.514427
0.543388 0.543388 0.543388
0.568153 0.568153 0.568153
0.590401 0.590401 0.590401
0.614496 0.614496 0.614496
0.639432 0.639432 0.639432
0.645665 0.645665 0.645665
0.645665 0.645665 0.645665
0.645665 0.645665 0.645665
0.645665 0.645665 0.645665
0.665965 0.665965 0.665965
0.689164 0.689164 0.689164
0.705430 0.705430 0.705430
0.721234 0.721234 0.721234
0.014786 0.014786 0.014810
0.021958 0.021958 0.021856
0.029559 0.029559 0.029338
0.043594 0.043594 0.043360
0.059712 0.059712 0.059484
0.090413 0.090413 0.090310
0.119060 0.119060 0.119060
0.138812 0.138812 0.138812
0.164356 0.164356 0.164356
0.207278 0.207278 0.207278
0.246887 0.246887 0.246887
0.279206 0.279206 0.279206
0.313441 0.313441 0.313441
0.350871 0.350871 0.350871
0.386086 0.386086 0.386086
0.418453 0.418453 0.418453
0.450268 0.450268 0.450268
0.481530 0.481530 0.481530
0.514724 0.514724 0.514724
0.549421 0.549421 0.549421
0.576094 0.576094 0.576094
0.597951 0.597951 0.597951
0.620278 0.620278 0.620278
0.642819 0.642819 0.642819
0.650275 0.650275 0.650275
0.652702 0.652702 0.652702
0.653157 0.653157 0.653157
0.653157 0.653157 0.653157
0.684734 0.684734 0.684734
0.720821 0.720821 0.720821
0.723077 0.723077 0.723077
0.723077 0.723077 0.723077
0.032431 0.032431 0.032581
0.041555 0.041555 0.041579
0.050916 0.050916 0.050817
0.063846 0.063846 0.063669
0.077280 0.077280 0.077052
0.094255 0.094255 0.094153
0.113226 0.113226 0.113226
0.140849 0.140849 0.140849
0.172557 0.172557 0.172557
0.216520 0.216520 0.216520
0.257352 0.257352 0.257352
0.291298 0.291298 0.291298
0.326037 0.326037 0.326037
0.362100 0.362100 0.362100
0.395608 0.395608 0.395608
0.425829 0.425829 0.425829
0.457253 0.457253 0.457253
0.489881 0.489881 0.489881
0.522648 0.522648 0.522648
0.555524 0.555524 0.555524
0.581269 0.581269 0.581269
0.602737 0.602737 0.602737
0.628564 0.628564 0.628564
0.656374 0.656374 0.656374
0.674856 0.674856 0.674856
0.690229 0.690229 0.690229
0.693111 0.693111 0.693111
0.693111 0.693111 0.693111
0.706644 0.706644 0.706644
0.722110 0.722110 0.722110
0.723077 0.723077 0.723077
0.723077 0.723077 0.723077
0.051526 0.051526 0.051739
0.062195 0.062195 0.062298
0.072960 0.072960 0.072954
0.085174 0.085174 0.085074
0.096777 0.096777 0.096607
0.104107 0.104107 0.104031
0.116298 0.116298 0.116298
0.149548 0.149548 0.149548
0.185378 0.185378 0.185378
0.228951 0.228951 0.228951
0.269246 0.269246 0.269246
0.302329 0.302329 0.302329
0.336707 0.336707 0.336707
0.373242 0.373242 0.373242
0.406274 0.406274 0.406274
0.434804 0.434804 0.434804
0.465683 0.465683 0.465683
0.498913 0.498913 0.498913
0.530992 0.530992 0.530992
0.562176 0.562176 0.562176
0.587094 0.587094 0.587094
0.608253 0.608253 0.608253
0.636019 0.636019 0.636019
0.666789 0.666789 0.666789
0.693292 0.693292 0.693292
0.718374 0.718374 0.718374
0.723077 0.723077 0.723077
0.723077 0.723077 0.723077
0.723077 0.723077 0.723077
0.723077 0.723077 0.723077
0.723077 0.723077 0.723077
0.723077 0.723077 0.723077
0.074969 0.074969 0.075056
0.085963 0.085963 0.086005
0.097062 0.097062 0.097064
0.109731 0.109731 0.109770
0.122058 0.122058 0.122124
0.131990 0.131990 0.132020
0.146088 0.146088 0.146088
0.178232 0.178232 0.178232
0.212062 0.212062 0.212062
0.250951 0.250951 0.250951
0.285424 0.285424 0.285424
0.310180 0.310180 0.310180
0.341598 0.341598 0.341598
0.384118 0.384118 0.384118
0.420374 0.420374 0.420374
0.448579 0.448579 0.448579
0.478450 0.478450 0.478450
0.509988 0.509988 0.509988
0.540595 0.540595 0.540595
0.570479 0.570479 0.570479
0.594868 0.594868 0.594868
0.615961 0.615961 0.615961
0.640979 0.640979 0.640979
0.667781 0.667781 0.667781
0.693292 0.693292 0.693292
0.718374 0.718374 0.718374
0.723077 0.723077 0.723077
0.723077 0.723077 0.723077
0.723077 0.723077 0.723077
0.723077 0.723077 0.723077
0.723077 0.723077 0.723077
0.723077 0.723077 0.723077
0.091087 0.091087 0.091087
0.108667 0.108667 0.108667
0.125829 0.125829 0.125836
0.136717 0.136717 0.136830
0.147705 0.147705 0.147896
0.159386 0.159386 0.159471
0.174421 0.174421 0.174421
0.203996 0.203996 0.203996
0.235480 0.235480 0.235480
0.272694 0.272694 0.272694
0.304226 0.304226 0.304226
0.323258 0.323258 0.323258
0.352062 0.352062 0.352062
0.397151 0.397151 0.397151
0.434640 0.434640 0.434640
0.462356 0.462356 0.462356
0.491361 0.491361 0.491361
0.521655 0.521655 0.521655
0.550906 0.550906 0.550906
0.579346 0.579346 0.579346
0.603383 0.603383 0.603383
0.624777 0.624777 0.624777
0.647496 0.647496 0.647496
0.670817 0.670817 0.670817
0.692425 0.692425 0.692425
0.713461 0.713461 0.713461
0.719784 0.719784 0.719784
0.722711 0.722711 0.722711
0.723077 0.723077 0.723077
0.723077 0.723077 0.723077
0.723077 0.723077 0.723077
0.723077 0.723077 0.723077
0.091087 0.091087 0.091087
0.129028 0.129028 0.129028
0.164861 0.164861 0.164863
0.169048 0.169048 0.169092
0.174156 0.174156 0.174230
0.185707 0.185707 0.185740
0.199552 0.199552 0.199552
0.223337 0.223337 0.223337
0.251715 0.251715 0.251715
0.293873 0.293873 0.293873
0.328804 0.328804 0.328804
0.347836 0.347836 0.347836
0.374785 0.374785 0.374785
0.414931 0.414931 0.414931
0.449268 0.449268 0.449268
0.476139 0.476139 0.476139
0.504591 0.504591 0.504591
0.534625 0.534625 0.534625
0.562774 0.562774 0.562774
0.589458 0.589458 0.589458
0.613527 0.613527 0.613527
0.636027 0.636027 0.636027
0.657437 0.657437 0.657437
0.678351 0.678351 0.678351
0.689648 0.689648 0.689648
0.697739 0.697739 0.697739
0.709245 0.709245 0.709245
0.721540 0.721540 0.721540
0.723077 0.723077 0.723077
0.723077 0.723077 0.723077
0.723077 0.723077 0.723077
0.723077 0.723077 0.723077
0.101390 0.101390 0.101390
0.151399 0.151399 0.151399
0.198283 0.198283 0.198283
0.198283 0.198283 0.198283
0.199872 0.199872 0.199872
0.212586 0.212586 0.212586
0.226203 0.226203 0.226203
0.243734 0.243734 0.243734
0.268170 0.268170 0.268170
0.313321 0.313321 0.313321
0.350576 0.350576 0.350576
0.370462 0.370462 0.370462
0.396411 0.396411 0.396411
0.432466 0.432466 0.432466
0.464155 0.464155 0.464155
0.490228 0.490228 0.490228
0.517920 0.517920 0.517932
0.547230 0.547230 0.547267
0.574254 0.574254 0.574287
0.599498 0.599498 0.599507
0.623261 0.623261 0.623261
0.646135 0.646135 0.646135
0.666024 0.666024 0.666024
0.684555 0.684555 0.684555
0.689188 0.689188 0.689188
0.689188 0.689188 0.689188
0.701081 0.701081 0.701081
0.715717 0.715717 0.715717
0.722307 0.722307 0.722307
0.727747 0.727747 0.727747
0.732958 0.732958 0.732958
0.738154 0.738154 0.738154
0.128867 0.128867 0.128867
0.177119 0.177119 0.177119
0.222356 0.222356 0.222356
0.222356 0.222356 0.222356
0.224360 0.224360 0.224360
0.240391 0.240391 0.240391
0.255387 0.255387 0.255387
0.265893 0.265893 0.265893
0.284995 0.284995 0.284995
0.329885 0.329885 0.329885
0.367673 0.367673 0.367673
0.389835 0.389835 0.389835
0.416207 0.416207 0.416207
0.449595 0.449595 0.449595
0.479470 0.479470 0.479470
0.504828 0.504828 0.504828
0.531415 0.531415 0.531459
0.559228 0.559228 0.559363
0.585085 0.585085 0.585208
0.609418 0.609418 0.609452
0.632311 0.632311 0.632311
0.654340 0.654340 0.654340
0.672354 0.672354 0.672354
0.688544 0.688544 0.688544
0.692591 0.692591 0.692591
0.692591 0.692591 0.692591
0.696873 0.696873 0.696873
0.702142 0.702142 0.702142
0.720254 0.720254 0.720254
0.740200 0.740200 0.740200
0.759309 0.759309 0.759309
0.778361 0.778361 0.778361
0.165001 0.165001 0.165001
0.201593 0.201593 0.201593
0.235897 0.235897 0.235897
0.235897 0.235897 0.235897
0.238135 0.238135 0.238135
0.256032 0.256032 0.256032
0.272827 0.272827 0.272827
0.284846 0.284846 0.284846
0.304355 0.304355 0.304355
0.346338 0.346338 0.346338
0.382510 0.382510 0.382510
0.405896 0.405896 0.405896
0.432172 0.432172 0.432172
0.463263 0.463263 0.463263
0.492205 0.492205 0.492205
0.518385 0.518385 0.518385
0.544647 0.544647 0.544696
0.570994 0.570994 0.571140
0.596080 0.596080 0.596214
0.620186 0.620186 0.620222
0.642500 0.642500 0.642500
0.663740 0.663740 0.663740
0.680993 0.680993 0.680993
0.696435 0.696435 0.696435
0.700295 0.700295 0.700295
0.700295 0.700295 0.700295
0.700295 0.700295 0.700295
0.700295 0.700295 0.700295
0.724117 0.724117 0.724117
0.751341 0.751341 0.751341
0.772528 0.772528 0.772528
0.793312 0.793312 0.793312
0.212265 0.212265 0.212265
0.224462 0.224462 0.224462
0.235897 0.235897 0.235897
0.235897 0.235897 0.235897
0.238135 0.238135 0.238135
0.256032 0.256032 0.256032
0.275169 0.275169 0.275169
0.299678 0.299678 0.299678
0.326977 0.326977 0.326977
0.362650 0.362650 0.362650
0.394443 0.394443 0.394443
0.417699 0.417699 0.417699
0.443210 0.443210 0.443210
0.472480 0.472480 0.472480
0.501621 0.501621 0.501621
0.530598 0.530598 0.530598
0.557544 0.557544 0.557560
0.582459 0.582459 0.582508
0.607285 0.607285 0.607330
0.632041 0.632041 0.632054
0.654152 0.654152 0.654152
0.674676 0.674676 0.674676
0.692601 0.692601 0.692601
0.709344 0.709344 0.709344
0.713529 0.713529 0.713529
0.713529 0.713529 0.713529
0.713529 0.713529 0.713529
0.713529 0.713529 0.713529
0.735586 0.735586 0.735586
0.760794 0.760794 0.760794
0.768865 0.768865 0.768865
0.775793 0.775793 0.775793
0.212265 0.212265 0.212265
0.224462 0.224462 0.224462
0.235897 0.235897 0.235897
0.235897 0.235897 0.235897
0.238692 0.238692 0.238692
0.261045 0.261045 0.261045
0.284138 0.284138 0.284138
0.310436 0.310436 0.310436
0.338288 0.338288 0.338288
0.370806 0.370806 0.370806
0.401660 0.401660 0.401660
0.428852 0.428852 0.428852
0.454981 0.454981 0.454981
0.479339 0.479339 0.479339
0.508991 0.508991 0.508991
0.545448 0.545448 0.545448
0.572654 0.572654 0.572654
0.590609 0.590609 0.590609
0.614493 0.614493 0.614493
0.642990 0.642990 0.642990
0.665610 0.665610 0.665610
0.684703 0.684703 0.684703
0.702448 0.702448 0.702448
0.719581 0.719581 0.719581
0.723865 0.723865 0.723865
0.723865 0.723865 0.723865
0.723865 0.723865 0.723865
0.723865 0.723865 0.723865
0.745324 0.745324 0.745324
0.769849 0.769849 0.769849
0.776870 0.776870 0.776870
0.782725 0.782725 0.782725
0.165001 0.165001 0.165001
0.201593 0.201593 0.201593
0.235897 0.235897 0.235897
0.235897 0.235897 0.235897
0.239806 0.239806 0.239806
0.271071 0.271071 0.271071
0.299735 0.299735 0.299735
0.317120 0.317120 0.317120
0.338288 0.338288 0.338288
0.370806 0.370806 0.370806
0.404160 0.404160 0.404160
0.439354 0.439354 0.439354
0.467483 0.467483 0.467483
0.483840 0.483840 0.483840
0.514313 0.514313 0.514313
0.562935 0.562935 0.562935
0.589979 0.589979 0.589979
0.595443 0.595443 0.595443
0.617705 0.617705 0.617705
0.653033 0.653033 0.653033
0.676872 0.676872 0.676872
0.693818 0.693818 0.693818
0.710535 0.710535 0.710535
0.727148 0.727148 0.727148
0.731301 0.731301 0.731301
0.731301 0.731301 0.731301
0.731301 0.731301 0.731301
0.731301 0.731301 0.731301
0.753329 0.753329 0.753329
0.778505 0.778505 0.778505
0.796544 0.796544 0.796544
0.814108 0.814108 0.814108
0.144322 0.144322 0.144322
0.191587 0.191587 0.191587
0.235897 0.235897 0.235897
0.235897 0.235897 0.235897
0.242136 0.242136 0.242136
0.292048 0.292048 0.292048
0.332364 0.332364 0.332364
0.331104 0.331104 0.331104
0.341097 0.341097 0.341097
0.384848 0.384848 0.384848
0.423509 0.423509 0.423509
0.450969 0.450969 0.450969
0.471553 0.471553 0.471553
0.480677 0.480677 0.480677
0.513764 0.513764 0.513764
0.577662 0.577662 0.577662
0.609610 0.609610 0.609610
0.609610 0.609610 0.609610
0.627664 0.627664 0.627664
0.659759 0.659759 0.659759
0.683492 0.683492 0.683492
0.702206 0.702206 0.702206
0.721030 0.721030 0.721030
0.739903 0.739903 0.739903
0.740725 0.740725 0.740725
0.735529 0.735529 0.735529
0.741779 0.741779 0.741779
0.750671 0.750671 0.750671
0.767592 0.767592 0.767592
0.785660 0.785660 0.785660
0.801884 0.801884 0.801884
0.817984 0.817984 0.817984
0.144322 0.144322 0.144322
0.191587 0.191587 0.191587
0.235897 0.235897 0.235897
0.235897 0.235897 0.235897
0.245413 0.245413 0.245413
0.321541 0.321541 0.321541
0.378243 0.378243 0.378243
0.350766 0.350766 0.350766
0.346089 0.346089 0.346089
0.409812 0.409812 0.409812
0.455962 0.455962 0.455962
0.463451 0.463451 0.463451
0.469065 0.469065 0.469065
0.471553 0.471553 0.471553
0.508649 0.508649 0.508649
0.590241 0.590241 0.590241
0.631037 0.631037 0.631037
0.631037 0.631037 0.631037
0.642870 0.642870 0.642870
0.663906 0.663906 0.663906
0.686500 0.686500 0.686500
0.710029 0.710029 0.710029
0.733398 0.733398 0.733398
0.756695 0.756695 0.756695
0.751694 0.751694 0.751694
0.737261 0.737261 0.737261
0.754623 0.754623 0.754623
0.779322 0.779322 0.779322
0.786721 0.786721 0.786721
0.791649 0.791649 0.791649
0.796074 0.796074 0.796074
0.800465 0.800465 0.800465
0.193320 0.193320 0.193320
0.215295 0.215295 0.215295
0.235897 0.235897 0.235897
0.235897 0.235897 0.235897
0.246642 0.246642 0.246642
0.332601 0.332601 0.332601
0.395447 0.395447 0.395447
0.358139 0.358139 0.358139
0.344841 0.344841 0.344841
0.403571 0.403571 0.403571
0.447849 0.447849 0.447849
0.460331 0.460331 0.460331
0.471928 0.471928 0.471928
0.482052 0.482052 0.482052
0.521917 0.521917 0.521917
0.600020 0.600020 0.600020
0.639072 0.639072 0.639072
0.639072 0.639072 0.639072
0.653169 0.653169 0.653169
0.678230 0.678230 0.678230
0.698355 0.698355 0.698355
0.715516 0.715516 0.715516
0.738036 0.738036 0.738036
0.762992 0.762992 0.762992
0.760138 0.760138 0.760138
0.748014 0.748014 0.748014
0.765934 0.765934 0.765934
0.790788 0.790788 0.790788
0.793895 0.793895 0.793895
0.793895 0.793895 0.793895
0.804911 0.804911 0.804911
0.816661 0.816661 0.816661
0.271716 0.271716 0.271716
0.253229 0.253229 0.253229
0.235897 0.235897 0.235897
0.235897 0.235897 0.235897
0.246642 0.246642 0.246642
0.332601 0.332601 0.332601
0.395447 0.395447 0.395447
0.358139 0.358139 0.358139
0.339848 0.339848 0.339848
0.378607 0.378607 0.378607
0.415396 0.415396 0.415396
0.447849 0.447849 0.447849
0.478003 0.478003 0.478003
0.504324 0.504324 0.504324
0.546214 0.546214 0.546214
0.608119 0.608119 0.608119
0.639072 0.639072 0.639072
0.639072 0.639072 0.639072
0.660524 0.660524 0.660524
0.698661 0.698661 0.698661
0.715516 0.715516 0.715516
0.719602 0.719602 0.719602
0.738036 0.738036 0.738036
0.762992 0.762992 0.762992
0.767066 0.767066 0.767066
0.764179 0.764179 0.764179
0.776326 0.776326 0.776326
0.791943 0.791943 0.791943
0.793895 0.793895 0.793895
0.793895 0.793895 0.793895
0.822536 0.822536 0.822536
0.853086 0.853086 0.853086
0.296215 0.296215 0.296215
0.265083 0.265083 0.265083
0.235897 0.235897 0.235897
0.235897 0.235897 0.235897
0.244389 0.244389 0.244389
0.312324 0.312324 0.312324
0.363906 0.363906 0.363906
0.344622 0.344622 0.344622
0.338288 0.338288 0.338288
0.370806 0.370806 0.370806
0.408734 0.408734 0.408734
0.458564 0.458564 0.458564
0.497301 0.497301 0.497301
0.517548 0.517548 0.517548
0.551596 0.551596 0.551596
0.603386 0.603386 0.603386
0.631807 0.631807 0.631807
0.636861 0.636861 0.636861
0.654395 0.654395 0.654395
0.681636 0.681636 0.681636
0.701215 0.701215 0.701215
0.716197 0.716197 0.716197
0.738036 0.738036 0.738036
0.762992 0.762992 0.762992
0.772619 0.772619 0.772619
0.777136 0.777136 0.777136
0.784656 0.784656 0.784656
0.792868 0.792868 0.792868
0.805204 0.805204 0.805204
0.818130 0.818130 0.818130
0.840969 0.840969 0.840969
0.864469 0.864469 0.864469
0.296215 0.296215 0.296215
0.265083 0.265083 0.265083
0.235897 0.235897 0.235897
0.235897 0.235897 0.235897
0.241112 0.241112 0.241112
0.282831 0.282831 0.282831
0.318027 0.318027 0.318027
0.324960 0.324960 0.324960
0.338288 0.338288 0.338288
0.370806 0.370806 0.370806
0.413796 0.413796 0.413796
0.479824 0.479824 0.479824
0.522610 0.522610 0.522610
0.526660 0.526660 0.526660
0.548380 0.548380 0.548380
0.592819 0.592819 0.592819
0.621240 0.621240 0.621240
0.633645 0.633645 0.633645
0.642137 0.642137 0.642137
0.647585 0.647585 0.647585
0.672612 0.672612 0.672612
0.709387 0.709387 0.709387
0.738036 0.738036 0.738036
0.762992 0.762992 0.762992
0.777546 0.777546 0.777546
0.788634 0.788634 0.788634
0.792047 0.792047 0.792047
0.793690 0.793690 0.793690
0.821655 0.821655 0.821655
0.853380 0.853380 0.853380
0.859769 0.859769 0.859769
0.864469 0.864469 0.864469
0.296215 0.296215 0.296215
0.265083 0.265083 0.265083
0.235897 0.235897 0.235897
0.235897 0.235897 0.235897
0.244562 0.244562 0.244562
0.313879 0.313879 0.313879
0.371750 0.371750 0.371750
0.380015 0.380015 0.380015
0.392197 0.392197 0.392197
0.416128 0.416128 0.416128
0.448122 0.448122 0.448122
0.497855 0.497855 0.497855
0.528938 0.528938 0.528938
0.528938 0.528938 0.528938
0.547576 0.547576 0.547576
0.590177 0.590177 0.590177
0.618599 0.618599 0.618599
0.632841 0.632841 0.632841
0.639072 0.639072 0.639072
0.639072 0.639072 0.639072
0.665461 0.665461 0.665461
0.707684 0.707684 0.707684
0.738036 0.738036 0.738036
0.762992 0.762992 0.762992
0.778778 0.778778 0.778778
0.791508 0.791508 0.791508
0.805351 0.805351 0.805351
0.819451 0.819451 0.819451
0.840748 0.840748 0.840748
0.863074 0.863074 0.863074
0.864469 0.864469 0.864469
0.864469 0.864469 0.864469
0.296215 0.296215 0.296215
0.265083 0.265083 0.265083
0.235897 0.235897 0.235897
0.235897 0.235897 0.235897
0.250254 0.250254 0.250254
0.365108 0.365108 0.365108
0.458672 0.458672 0.458672
0.459977 0.459977 0.459977
0.464076 0.464076 0.464076
0.476558 0.476558 0.476558
0.492204 0.492204 0.492204
0.514809 0.514809 0.514809
0.528938 0.528938 0.528938
0.528938 0.528938 0.528938
0.547576 0.547576 0.547576
0.590177 0.590177 0.590177
0.618599 0.618599 0.618599
0.632841 0.632841 0.632841
0.639072 0.639072 0.639072
0.639072 0.639072 0.639072
0.665461 0.665461 0.665461
0.707684 0.707684 0.707684
0.738036 0.738036 0.738036
0.762992 0.762992 0.762992
0.778778 0.778778 0.778778
0.791508 0.791508 0.791508
0.820626 0.820626 0.820626
0.853527 0.853527 0.853527
0.860724 0.860724 0.860724
0.864249 0.864249 0.864249
0.864469 0.864469 0.864469
0.864469 0.864469 0.864469
0.324684 0.324684 0.324684
0.306608 0.306608 0.306608
0.288799 0.288799 0.288799
0.275004 0.275004 0.275004
0.276613 0.276613 0.276613
0.386051 0.386051 0.386051
0.474969 0.474969 0.474969
0.474969 0.474969 0.474969
0.477553 0.477553 0.477553
0.487888 0.487888 0.487888
0.503574 0.503574 0.503574
0.531030 0.531030 0.531030
0.548190 0.548190 0.548190
0.548190 0.548190 0.548190
0.569256 0.569256 0.569256
0.617407 0.617407 0.617407
0.640860 0.640860 0.640860
0.639616 0.639616 0.639616
0.647337 0.647337 0.647337
0.662031 0.662031 0.662031
0.684747 0.684747 0.684747
0.712276 0.712276 0.712276
0.738036 0.738036 0.738036
0.762992 0.762992 0.762992
0.774774 0.774774 0.774774
0.782166 0.782166 0.782166
0.817485 0.817485 0.817485
0.859248 0.859248 0.859248
0.864469 0.864469 0.864469
0.864469 0.864469 0.864469
0.864469 0.864469 0.864469
0.864469 0.864469 0.864469
0.359723 0.359723 0.359723
0.357714 0.357714 0.357714
0.353908 0.353908 0.353908
0.323134 0.323134 0.323134
0.307740 0.307740 0.307740
0.400005 0.400005 0.400005
0.474969 0.474969 0.474969
0.474969 0.474969 0.474969
0.477553 0.477553 0.477553
0.487888 0.487888 0.487888
0.507396 0.507396 0.507396
0.547082 0.547082 0.547082
0.571885 0.571885 0.571885
0.571885 0.571885 0.571885
0.595940 0.595940 0.595940
0.650921 0.650921 0.650921
0.668260 0.668260 0.668260
0.647955 0.647955 0.647955
0.657510 0.657510 0.657510
0.690288 0.690288 0.690288
