luts/acros_g.cube
# sRGB
# source: Fuji XTrans III - Acros+G (Stuart Sowerby Fuji XTrans III .3dl, N17->N32)
LUT_3D_SIZE 8
DOMAIN_MIN 0.000000 0.000000 0.000000
DOMAIN_MAX 0.903226 0.903226 0.903226
0.003907 0.003907 0.003907
0.010375 0.010375 0.010130
0.032936 0.032936 0.032904
0.103037 0.103037 0.103037
0.160424 0.160424 0.160424
0.256324 0.256324 0.256324
0.272039 0.272039 0.272039
0.316239 0.316239 0.316239
0.019174 0.019174 0.019174
0.039078 0.039078 0.039093
0.064802 0.064802 0.064804
0.129070 0.129070 0.129070
0.196241 0.196241 0.196241
0.258094 0.258094 0.258094
0.312332 0.312332 0.312332
0.315278 0.315278 0.315278
0.113734 0.113734 0.113734
0.116724 0.116724 0.116724
0.138128 0.138128 0.138128
0.198979 0.198979 0.198938
0.256076 0.256076 0.256076
0.321886 0.321886 0.321886
0.389035 0.389035 0.389035
0.413431 0.413431 0.413431
0.172413 0.172413 0.172413
0.247250 0.247250 0.247250
0.282236 0.282236 0.282236
0.328843 0.328843 0.328843
0.351129 0.351129 0.351129
0.405202 0.405202 0.405202
0.452928 0.452928 0.452928
0.428963 0.428963 0.428963
0.283989 0.283989 0.283989
0.305498 0.305498 0.305498
0.393509 0.393509 0.393509
0.450333 0.450333 0.450333
0.482961 0.482961 0.482961
0.502467 0.502467 0.502467
0.536618 0.536618 0.536618
0.548113 0.548113 0.548113
0.291520 0.291520 0.291520
0.317768 0.317768 0.317768
0.398973 0.398973 0.398973
0.489190 0.489190 0.489190
0.595116 0.595116 0.595116
0.579407 0.579407 0.579407
0.594751 0.594751 0.594751
0.638095 0.638095 0.638095
0.428327 0.428327 0.428327
0.314321 0.314321 0.314321
0.470880 0.470880 0.470880
0.556044 0.556044 0.556044
0.594029 0.594029 0.594029
0.600315 0.600315 0.600315
0.619536 0.619536 0.619536
0.673276 0.673276 0.673276
0.459341 0.459341 0.459341
0.416574 0.416574 0.416574
0.593383 0.593383 0.593383
0.625885 0.625885 0.625885
0.649623 0.649623 0.649623
0.664431 0.664431 0.664431
0.666525 0.666525 0.666525
0.691087 0.691087 0.691087
0.013620 0.013620 0.013620
0.020013 0.020013 0.020013
0.070058 0.070058 0.070058
0.104300 0.104300 0.104300
0.207404 0.207404 0.207404
0.286531 0.286531 0.286531
0.311600 0.311600 0.311600
0.314289 0.314289 0.314289
0.042527 0.042527 0.042527
0.055977 0.055977 0.055977
0.089380 0.089380 0.089380
0.145155 0.145155 0.145155
0.208760 0.208760 0.208760
0.274075 0.274075 0.274075
0.320249 0.320249 0.320249
0.375772 0.375772 0.375772
0.129605 0.129605 0.129605
0.126255 0.126255 0.126255
0.158913 0.158913 0.158913
0.209088 0.209088 0.209088
0.266532 0.266532 0.266532
0.329000 0.329000 0.329000
0.383748 0.383748 0.383748
0.401429 0.401429 0.401429
0.250207 0.250207 0.250207
0.262684 0.262684 0.262684
0.290276 0.290276 0.290276
0.333526 0.333526 0.333526
0.377612 0.377612 0.377612
0.426162 0.426162 0.426162
0.468514 0.468514 0.468514
0.513305 0.513305 0.513305
0.348538 0.348538 0.348538
0.405472 0.405472 0.405472
0.421250 0.421250 0.421250
0.460665 0.460665 0.460665
0.498140 0.498140 0.498140
0.528788 0.528788 0.528788
0.553367 0.553367 0.553367
0.578393 0.578393 0.578393
0.438870 0.438870 0.438870
0.464430 0.464430 0.464430
0.491454 0.491454 0.491454
0.526138 0.526138 0.526138
0.599403 0.599403 0.599403
0.615451 0.615451 0.615451
0.648026 0.648026 0.648026
0.669896 0.669896 0.669896
0.462383 0.462383 0.462383
0.471453 0.471453 0.471453
0.593383 0.593383 0.593383
0.626353 0.626353 0.626353
0.659120 0.659120 0.659120
0.674181 0.674181 0.674181
0.707328 0.707328 0.707328
0.694931 0.694931 0.694931
0.540171 0.540171 0.540171
0.471580 0.471580 0.471580
0.626217 0.626217 0.626217
0.644509 0.644509 0.644509
0.668290 0.668290 0.668290
0.709033 0.709033 0.709033
0.737816 0.737816 0.737816
0.776156 0.776156 0.776156
0.055142 0.055142 0.055142
0.088808 0.088808 0.088808
0.145642 0.145642 0.145642
0.204852 0.204852 0.204852
0.258561 0.258561 0.258561
0.296605 0.296605 0.296605
0.340301 0.340301 0.340301
0.390429 0.390429 0.390429
0.090078 0.090078 0.090078
0.100664 0.100664 0.100664
0.135306 0.135306 0.135306
0.188198 0.188198 0.188198
0.240235 0.240235 0.240235
0.301123 0.301123 0.301123
0.355129 0.355129 0.355129
0.389546 0.389546 0.389546
0.172190 0.172190 0.172190
0.175549 0.175549 0.175549
0.205618 0.205618 0.205618
0.252341 0.252341 0.252341
0.300512 0.300512 0.300512
0.355166 0.355166 0.355166
0.406299 0.406299 0.406299
0.453811 0.453811 0.453811
0.288917 0.288917 0.288917
0.295754 0.295754 0.295754
0.326138 0.326138 0.326138
0.367530 0.367530 0.367530
0.409232 0.409232 0.409232
0.448024 0.448024 0.448024
0.485805 0.485805 0.485805
0.511635 0.511635 0.511635
0.430456 0.430456 0.430456
0.431994 0.431994 0.431994
0.453225 0.453225 0.453225
0.487669 0.487669 0.487669
0.523904 0.523904 0.523904
0.553003 0.553003 0.553003
0.573847 0.573847 0.573847
0.597888 0.597888 0.597888
0.485226 0.485226 0.485226
0.484313 0.484313 0.484313
0.560241 0.560241 0.560241
0.586892 0.586892 0.586892
0.620930 0.620930 0.620930
0.650638 0.650638 0.650638
0.671326 0.671326 0.671326
0.691968 0.691968 0.691968
0.499199 0.499199 0.499199
0.612490 0.612490 0.612490
0.625252 0.625252 0.625252
0.667616 0.667616 0.667616
0.694244 0.694244 0.694244
0.711512 0.711512 0.711512
0.738876 0.738876 0.738876
0.764664 0.764664 0.764664
0.554161 0.554161 0.554161
0.548515 0.548515 0.548515
0.661263 0.661263 0.661263
0.673394 0.673394 0.673394
0.698834 0.698834 0.698834
0.735056 0.735056 0.735056
0.780665 0.780665 0.780665
0.806105 0.806105 0.806105
0.146709 0.146709 0.146906
0.175413 0.175413 0.175413
0.209651 0.209651 0.209651
0.253253 0.253253 0.253253
0.319824 0.319824 0.319824
0.346399 0.346399 0.346399
0.398776 0.398776 0.398776
0.440781 0.440781 0.440781
0.154152 0.154152 0.154152
0.173388 0.173388 0.173388
0.211887 0.211887 0.211887
0.263015 0.263015 0.263015
0.310763 0.310763 0.310763
0.356365 0.356365 0.356365
0.394961 0.394961 0.394961
0.440037 0.440037 0.440037
0.232440 0.232440 0.232440
0.245713 0.245713 0.245713
0.277189 0.277189 0.277189
0.321033 0.321033 0.321033
0.366753 0.366753 0.366753
0.407351 0.407351 0.407351
0.442028 0.442028 0.442028
0.476865 0.476865 0.476865
0.343615 0.343615 0.343615
0.352971 0.352971 0.352971
0.381475 0.381475 0.381475
0.419487 0.419487 0.419487
0.460210 0.460210 0.460210
0.493993 0.493993 0.493993
0.517654 0.517654 0.517654
0.540687 0.540687 0.540687
0.463048 0.463048 0.463048
0.468986 0.468986 0.468986
0.491566 0.491566 0.491566
0.523464 0.523464 0.523464
0.558355 0.558355 0.558355
0.588136 0.588136 0.588136
0.608887 0.608887 0.608887
0.626026 0.626026 0.626026
0.526979 0.526979 0.526979
0.560785 0.560785 0.560785
0.590359 0.590359 0.590359
0.617444 0.617444 0.617444
0.649507 0.649507 0.649507
0.678953 0.678953 0.678953
0.701515 0.701515 0.701515
0.717953 0.717953 0.717953
0.599829 0.599829 0.599829
0.649919 0.649919 0.649919
0.663219 0.663219 0.663219
0.686466 0.686466 0.686466
0.718823 0.718823 0.718823
0.751609 0.751609 0.751609
0.776038 0.776038 0.776038
0.802350 0.802350 0.802350
0.649349 0.649349 0.649349
0.650334 0.650334 0.650334
0.721612 0.721612 0.721612
0.730499 0.730499 0.730499
0.760195 0.760195 0.760195
0.781129 0.781129 0.781129
0.802095 0.802095 0.802095
0.833898 0.833898 0.833898
0.214282 0.214219 0.214282
0.236311 0.236311 0.236311
0.271859 0.271827 0.271859
0.323262 0.323262 0.323262
0.376694 0.376694 0.376694
0.426049 0.426049 0.426049
0.463638 0.463638 0.463638
0.500012 0.500012 0.500012
0.238012 0.238012 0.238012
0.270536 0.270536 0.270536
0.304674 0.304674 0.304674
0.349405 0.349405 0.349405
0.396638 0.396638 0.396638
0.439697 0.439697 0.439697
0.472007 0.472007 0.472007
0.490620 0.490620 0.490620
0.304720 0.304720 0.304720
0.333567 0.333567 0.333567
0.361786 0.361786 0.361786
0.401270 0.401270 0.401270
0.443543 0.443543 0.443543
0.482486 0.482486 0.482486
0.509700 0.509700 0.509700
0.531475 0.531475 0.531475
0.402994 0.402994 0.402994
0.420384 0.420384 0.420384
0.445582 0.445582 0.445582
0.480732 0.480732 0.480732
0.518196 0.518196 0.518196
0.551367 0.551367 0.551367
0.576441 0.576441 0.576441
0.592917 0.592917 0.592917
0.509635 0.509635 0.509635
0.518978 0.518978 0.518978
0.538935 0.538935 0.538935
0.567627 0.567627 0.567627
0.599742 0.599742 0.599742
0.630854 0.630854 0.630854
0.655799 0.655799 0.655799
0.674943 0.674943 0.674943
0.604394 0.604394 0.604394
0.608149 0.608149 0.608149
0.626726 0.626726 0.626726
0.652362 0.652362 0.652362
0.681148 0.681148 0.681148
0.708742 0.708742 0.708742
0.732623 0.732623 0.732623
0.754823 0.754823 0.754823
0.662516 0.662516 0.662516
0.660534 0.660534 0.660534
0.693404 0.693404 0.693404
0.723183 0.723183 0.723183
0.752459 0.752459 0.752459
0.779575 0.779575 0.779575
0.803099 0.803099 0.803099
0.832255 0.832255 0.832255
0.702305 0.702305 0.702305
0.696469 0.696469 0.696469
0.726266 0.726266 0.726266
0.743007 0.743007 0.743007
0.775735 0.775735 0.775735
0.802644 0.802644 0.802644
0.847965 0.847965 0.847965
0.887156 0.887156 0.887156
0.277640 0.277640 0.277719
0.299355 0.299282 0.299355
0.332991 0.332922 0.332922
0.383503 0.383439 0.383503
0.440123 0.440123 0.440123
0.494112 0.494112 0.494112
0.541069 0.541069 0.541069
0.573499 0.573499 0.573499
0.305617 0.305617 0.305617
0.347092 0.347092 0.347092
0.377743 0.377743 0.377743
0.420106 0.420106 0.420106
0.466318 0.466318 0.466318
0.511037 0.511037 0.511037
0.551711 0.551711 0.551711
0.585224 0.585224 0.585224
0.380096 0.380096 0.380096
0.422381 0.422381 0.422381
0.445629 0.445629 0.445629
0.479867 0.479867 0.479867
0.515827 0.515827 0.515827
0.551267 0.551267 0.551267
0.581104 0.581104 0.581104
0.603056 0.603056 0.603056
0.464705 0.464705 0.464705
0.491950 0.491950 0.491950
0.512129 0.512129 0.512129
0.541858 0.541858 0.541858
0.575514 0.575514 0.575514
0.608002 0.608002 0.608002
0.636585 0.636585 0.636585
0.660695 0.660695 0.660695
0.556953 0.556953 0.556953
0.570853 0.570853 0.570853
0.588116 0.588116 0.588116
0.614421 0.614421 0.614421
0.645758 0.645758 0.645758
0.675942 0.675942 0.675942
0.701211 0.701211 0.701211
0.725115 0.725115 0.725115
0.643202 0.643202 0.643202
0.652921 0.652921 0.652921
0.667544 0.667544 0.667544
0.689632 0.689632 0.689632
0.715086 0.715086 0.715086
0.741454 0.741454 0.741454
0.766547 0.766547 0.766547
0.793011 0.793011 0.793011
0.721352 0.721352 0.721352
0.723845 0.723845 0.723845
0.735089 0.735089 0.735089
0.756201 0.756201 0.756201
0.781323 0.781323 0.781323
0.807122 0.807122 0.807122
0.830679 0.830679 0.830679
0.862190 0.862190 0.862190
0.749703 0.749703 0.749703
0.747387 0.747387 0.747387
0.772044 0.772044 0.772044
0.790228 0.790228 0.790228
0.818590 0.818590 0.818590
0.842101 0.842101 0.842101
0.888548 0.888548 0.888548
0.912793 0.912793 0.912793
0.346174 0.346174 0.346174
0.366035 0.365895 0.366035
0.399247 0.399247 0.399247
0.445243 0.445243 0.445243
0.500003 0.500017 0.499979
0.556108 0.556108 0.556108
0.605914 0.605914 0.605914
0.649162 0.649162 0.649162
0.371510 0.371510 0.371510
0.422836 0.422836 0.422836
0.450679 0.450679 0.450679
0.492239 0.492239 0.492239
0.538358 0.538358 0.538358
0.583791 0.583791 0.583791
0.623805 0.623805 0.623805
0.658895 0.658895 0.658895
0.453039 0.453039 0.453039
0.499676 0.499676 0.499676
0.519686 0.519686 0.519686
0.548923 0.548923 0.548923
0.582653 0.582653 0.582653
0.616956 0.616956 0.616956
0.646796 0.646796 0.646796
0.674483 0.674483 0.674483
0.528038 0.528038 0.528038
0.560294 0.560294 0.560294
0.576944 0.576944 0.576944
0.602686 0.602686 0.602686
0.634731 0.634731 0.634731
0.665440 0.665440 0.665440
0.693353 0.693353 0.693353
0.717400 0.717400 0.717400
0.607883 0.607883 0.607883
0.626682 0.626682 0.626682
0.640987 0.640987 0.640987
0.665321 0.665321 0.665321
0.692368 0.692368 0.692368
0.718899 0.718899 0.718899
0.744198 0.744198 0.744198
0.770961 0.770961 0.770961
0.685018 0.685018 0.685018
0.695500 0.695500 0.695500
0.706921 0.706921 0.706921
0.726675 0.726675 0.726675
0.751348 0.751348 0.751348
0.776212 0.776212 0.776212
0.801272 0.801272 0.801272
0.831318 0.831318 0.831318
0.752342 0.752342 0.752342
0.759318 0.759318 0.759318
0.772392 0.772392 0.772392
0.790563 0.790563 0.790563
0.813658 0.813658 0.813658
0.837428 0.837428 0.837428
0.860830 0.860830 0.860830
0.891123 0.891123 0.891123
0.786144 0.786144 0.786144
0.806389 0.806389 0.806389
0.824337 0.824337 0.824337
0.854943 0.854943 0.854943
0.867978 0.867978 0.867978
0.895108 0.895108 0.895108
0.910453 0.910453 0.910453
0.937588 0.937588 0.937588
0.419142 0.419142 0.419142
0.436034 0.436019 0.436034
0.466499 0.466403 0.466499
0.507556 0.507535 0.507556
0.557643 0.557643 0.557643
0.613639 0.613639 0.613639
0.659163 0.659163 0.659163
0.695720 0.695720 0.695720
0.436416 0.436416 0.436416
0.495252 0.495252 0.495252
0.521485 0.521485 0.521485
0.560926 0.560926 0.560926
0.605805 0.605805 0.605805
0.651356 0.651356 0.651356
0.690085 0.690085 0.690085
0.721246 0.721246 0.721246
0.523141 0.523354 0.523354
0.574190 0.574190 0.574190
0.591347 0.591347 0.591347
0.618656 0.618656 0.618656
0.651304 0.651304 0.651304
0.684919 0.684919 0.684919
0.712830 0.712830 0.712830
0.732658 0.732658 0.732658
0.594726 0.594726 0.594726
0.631348 0.631348 0.631348
0.645237 0.645237 0.645237
0.668343 0.668343 0.668343
0.695402 0.695402 0.695402
0.722331 0.722331 0.722331
0.746329 0.746329 0.746329
0.778465 0.778465 0.778465
0.664075 0.664075 0.664075
0.687178 0.687178 0.687178
0.698476 0.698476 0.698476
0.717907 0.717907 0.717907
0.742071 0.742071 0.742071
0.768193 0.768193 0.768193
0.791273 0.791273 0.791273
0.812936 0.812936 0.812936
0.732250 0.732250 0.732250
0.743144 0.743144 0.743144
0.753178 0.753178 0.753178
0.771811 0.771811 0.771811
0.794586 0.794586 0.794586
0.818356 0.818356 0.818356
0.842335 0.842335 0.842335
0.873786 0.873786 0.873786
0.797947 0.797947 0.797947
0.804733 0.804733 0.804733
0.813984 0.813984 0.813984
0.831649 0.831649 0.831649
0.852763 0.852763 0.852763
0.875211 0.875211 0.875211
0.895064 0.895064 0.895064
0.923690 0.923690 0.923690
0.863004 0.863004 0.863004
0.829840 0.829840 0.829840
0.853165 0.853165 0.853165
0.861862 0.861862 0.861862
0.892060 0.892060 0.892060
0.919834 0.919834 0.919834
0.943471 0.943471 0.943471
0.960640 0.960640 0.960640
