luts/acros_ye.cube
# sRGB
# source: Fuji XTrans III - Acros+Ye (Stuart Sowerby Fuji XTrans III .3dl, N17->N32)
LUT_3D_SIZE 8
DOMAIN_MIN 0.000000 0.000000 0.000000
DOMAIN_MAX 0.903226 0.903226 0.903226
0.003907 0.003907 0.003907
0.027500 0.027500 0.027484
0.090244 0.090244 0.090425
0.201150 0.201150 0.201150
0.294151 0.294151 0.294151
0.462247 0.462247 0.462247
0.489377 0.489377 0.489377
0.550916 0.550916 0.550916
0.010107 0.010107 0.010107
0.043492 0.043492 0.043492
0.112707 0.112707 0.112736
0.225378 0.225378 0.225390
0.349295 0.349295 0.349295
0.463567 0.463567 0.463567
0.540415 0.540415 0.540415
0.542792 0.542792 0.542792
0.073756 0.073756 0.073969
0.100527 0.100527 0.100527
0.163314 0.163314 0.163314
0.282849 0.282849 0.282849
0.388492 0.388492 0.388492
0.499588 0.499588 0.499588
0.592493 0.592493 0.592493
0.621978 0.621978 0.621978
0.126078 0.126078 0.126078
0.211418 0.211418 0.211418
0.265811 0.265811 0.265769
0.365251 0.365251 0.365251
0.452963 0.452963 0.452912
0.544350 0.544350 0.544350
0.606491 0.606491 0.606491
0.626218 0.626218 0.626218
0.233038 0.233038 0.233038
0.256416 0.256416 0.256416
0.350026 0.350026 0.350026
0.444484 0.444484 0.444484
0.533819 0.533819 0.533819
0.604888 0.604888 0.604888
0.660341 0.660341 0.660341
0.679545 0.679545 0.679545
0.227776 0.227776 0.227776
0.266060 0.266060 0.266060
0.356130 0.356130 0.356130
0.468982 0.468982 0.468982
0.614896 0.614896 0.614896
0.653559 0.653559 0.653559
0.703476 0.703476 0.703476
0.740659 0.740659 0.740659
0.344567 0.344567 0.344567
0.263402 0.263402 0.263402
0.413217 0.413217 0.413217
0.529426 0.529426 0.529426
0.600583 0.600583 0.600583
0.636008 0.636008 0.636008
0.724345 0.724345 0.724345
0.784757 0.784757 0.784757
0.391453 0.391453 0.391453
0.343007 0.343007 0.343007
0.513270 0.513270 0.513270
0.583394 0.583394 0.583394
0.658502 0.658502 0.658502
0.690769 0.690769 0.690769
0.747230 0.747230 0.747230
0.807082 0.807082 0.807082
0.008153 0.008169 0.008169
0.018576 0.018576 0.018576
0.114093 0.114093 0.114093
0.172792 0.172792 0.172792
0.355287 0.355287 0.355287
0.521309 0.521309 0.521309
0.555311 0.555311 0.555311
0.558762 0.558762 0.558762
0.021845 0.021845 0.021845
0.055045 0.055045 0.055045
0.122107 0.122107 0.122107
0.231470 0.231470 0.231470
0.356335 0.356335 0.356335
0.478436 0.478436 0.478436
0.554711 0.554711 0.554711
0.616943 0.616943 0.616943
0.084679 0.084679 0.084679
0.108480 0.108480 0.108480
0.173656 0.173656 0.173656
0.280054 0.280054 0.280054
0.394939 0.394939 0.394939
0.504689 0.504689 0.504689
0.592964 0.592964 0.592964
0.623729 0.623729 0.623729
0.188220 0.188220 0.188220
0.216504 0.216504 0.216504
0.268751 0.268751 0.268751
0.360192 0.360192 0.360192
0.458475 0.458475 0.458475
0.554948 0.554948 0.554948
0.632924 0.632924 0.632924
0.690641 0.690641 0.690641
0.278476 0.278476 0.278476
0.333130 0.333130 0.333130
0.369148 0.369148 0.369148
0.450016 0.450016 0.450016
0.533361 0.533361 0.533361
0.613979 0.613979 0.613979
0.681382 0.681382 0.681382
0.728299 0.728299 0.728299
0.359686 0.359686 0.359686
0.395100 0.395100 0.395100
0.424909 0.424909 0.424909
0.496512 0.496512 0.496512
0.604583 0.604583 0.604583
0.667465 0.667465 0.667465
0.732275 0.732275 0.732275
0.788987 0.788987 0.788987
0.392736 0.392736 0.392736
0.402005 0.402005 0.402005
0.513270 0.513270 0.513270
0.583012 0.583012 0.583012
0.665718 0.665718 0.665718
0.696588 0.696588 0.696588
0.768524 0.768524 0.768524
0.808484 0.808484 0.808484
0.443223 0.443223 0.443223
0.402125 0.402125 0.402125
0.543614 0.543614 0.543614
0.592602 0.592602 0.592602
0.665897 0.665897 0.665897
0.718297 0.718297 0.718297
0.787530 0.787530 0.787530
0.843088 0.843088 0.843088
0.018055 0.018299 0.018236
0.077175 0.077175 0.077175
0.201413 0.201413 0.201413
0.268943 0.268943 0.268943
0.395195 0.395195 0.395195
0.514460 0.514460 0.514460
0.579662 0.579662 0.579662
0.656024 0.656024 0.656024
0.056226 0.056226 0.056226
0.087034 0.087034 0.087034
0.153645 0.153645 0.153645
0.264886 0.264886 0.264886
0.387925 0.387925 0.387925
0.503265 0.503265 0.503265
0.594746 0.594746 0.594746
0.647544 0.647544 0.647544
0.118214 0.118214 0.118214
0.140280 0.140280 0.140280
0.206182 0.206182 0.206182
0.307297 0.307297 0.307297
0.417770 0.417770 0.417770
0.525698 0.525698 0.525698
0.618278 0.618278 0.618278
0.694502 0.694502 0.694502
0.219400 0.219400 0.219400
0.239991 0.239991 0.239991
0.296356 0.296356 0.296356
0.383586 0.383586 0.383586
0.479334 0.479334 0.479334
0.572317 0.572317 0.572317
0.656782 0.656782 0.656782
0.710077 0.710077 0.710077
0.346073 0.346073 0.346073
0.356436 0.356436 0.356436
0.396524 0.396524 0.396524
0.469563 0.469563 0.469563
0.549653 0.549653 0.549653
0.629006 0.629006 0.629006
0.700757 0.700757 0.700757
0.756626 0.756626 0.756626
0.391209 0.391209 0.391209
0.402014 0.402014 0.402014
0.488506 0.488506 0.488506
0.543367 0.543367 0.543367
0.615299 0.615299 0.615299
0.685502 0.685502 0.685502
0.745570 0.745570 0.745570
0.813564 0.813564 0.813564
0.404364 0.404364 0.404364
0.512103 0.512103 0.512103
0.542048 0.542048 0.542048
0.605661 0.605661 0.605661
0.663377 0.663377 0.663377
0.717834 0.717834 0.717834
0.787991 0.787991 0.787991
0.840546 0.840546 0.840546
0.456426 0.456426 0.456426
0.462971 0.462971 0.462971
0.576039 0.576039 0.576039
0.610052 0.610052 0.610052
0.667013 0.667013 0.667013
0.735253 0.735253 0.735253
0.825979 0.825979 0.825979
0.870818 0.870818 0.870818
0.105991 0.106432 0.106432
0.145717 0.145717 0.145717
0.213638 0.213638 0.213638
0.303888 0.303888 0.303888
0.422209 0.422209 0.422209
0.526362 0.526362 0.526362
0.627252 0.627252 0.627252
0.702076 0.702076 0.702076
0.100677 0.100677 0.100677
0.135799 0.135799 0.135799
0.204800 0.204800 0.204800
0.310221 0.310221 0.310221
0.423315 0.423315 0.423315
0.533538 0.533538 0.533538
0.624416 0.624416 0.624416
0.707050 0.707050 0.707050
0.161846 0.161846 0.161846
0.191109 0.191109 0.191109
0.255586 0.255586 0.255586
0.350387 0.350387 0.350387
0.453990 0.453990 0.453990
0.555111 0.555111 0.555111
0.645382 0.645382 0.645382
0.718029 0.718029 0.718029
0.260916 0.260916 0.260916
0.283807 0.283807 0.283807
0.339819 0.339819 0.339819
0.419783 0.419783 0.419783
0.508977 0.508977 0.508977
0.596173 0.596173 0.596173
0.679400 0.679400 0.679400
0.746145 0.746145 0.746145
0.370188 0.370188 0.370188
0.386044 0.386044 0.386044
0.429098 0.429098 0.429098
0.497765 0.497765 0.497765
0.572498 0.572498 0.572498
0.649089 0.649089 0.649089
0.718511 0.718511 0.718511
0.783214 0.783214 0.783214
0.430590 0.430590 0.430590
0.469599 0.469599 0.469599
0.514616 0.514616 0.514616
0.568580 0.568580 0.568580
0.635912 0.635912 0.635912
0.702081 0.702081 0.702081
0.763147 0.763147 0.763147
0.824972 0.824972 0.824972
0.498335 0.498335 0.498335
0.546300 0.546300 0.546300
0.570208 0.570208 0.570208
0.617332 0.617332 0.617332
0.685333 0.685333 0.685333
0.750346 0.750346 0.750346
0.812210 0.812210 0.812210
0.870386 0.870386 0.870386
0.545020 0.545020 0.545020
0.546706 0.546706 0.546706
0.636630 0.636630 0.636630
0.651839 0.651839 0.651839
0.710158 0.710158 0.710158
0.768403 0.768403 0.768403
0.831973 0.831973 0.831973
0.890091 0.890091 0.890091
0.186372 0.186435 0.186435
0.223233 0.223233 0.223233
0.276676 0.276676 0.276676
0.355402 0.355402 0.355402
0.456805 0.456805 0.456805
0.560016 0.560016 0.560016
0.651360 0.651360 0.651360
0.728232 0.728232 0.728232
0.174839 0.174898 0.174898
0.216814 0.216814 0.216814
0.273749 0.273749 0.273749
0.363678 0.363678 0.363678
0.464857 0.464857 0.464857
0.563892 0.563892 0.563892
0.655215 0.655215 0.655215
0.728407 0.728407 0.728407
0.212531 0.212531 0.212531
0.256230 0.256230 0.256230
0.315039 0.315039 0.315039
0.400049 0.400049 0.400049
0.493969 0.493969 0.493969
0.585460 0.585460 0.585460
0.672843 0.672843 0.672843
0.743867 0.743867 0.743867
0.303184 0.303184 0.303184
0.337258 0.337258 0.337258
0.388451 0.388451 0.388451
0.461673 0.461673 0.461673
0.542811 0.542811 0.542811
0.624501 0.624501 0.624501
0.701930 0.701930 0.701930
0.769158 0.769158 0.769158
0.405198 0.405198 0.405198
0.426477 0.426477 0.426477
0.469502 0.469502 0.469502
0.530875 0.530875 0.530875
0.599883 0.599883 0.599883
0.672189 0.672189 0.672189
0.738008 0.738008 0.738008
0.801846 0.801846 0.801846
0.499141 0.499141 0.499141
0.511162 0.511162 0.511162
0.544817 0.544817 0.544817
0.596987 0.596987 0.596987
0.659633 0.659633 0.659633
0.720647 0.720647 0.720647
0.780716 0.780716 0.780716
0.841903 0.841903 0.841903
0.551224 0.551224 0.551224
0.556574 0.556574 0.556574
0.599077 0.599077 0.599077
0.651039 0.651039 0.651039
0.710717 0.710717 0.710717
0.771211 0.771211 0.771211
0.828008 0.828008 0.828008
0.886780 0.886780 0.886780
0.586849 0.586849 0.586849
0.590561 0.590561 0.590561
0.630068 0.630068 0.630068
0.664168 0.664168 0.664168
0.724941 0.724941 0.724941
0.787733 0.787733 0.787733
0.865775 0.865775 0.865775
0.922702 0.922702 0.922702
0.264524 0.264689 0.264689
0.295832 0.295832 0.295832
0.338880 0.339024 0.338880
0.405882 0.405882 0.405882
0.494409 0.494409 0.494409
0.590295 0.590295 0.590295
0.678755 0.678755 0.678755
0.741282 0.741282 0.741282
0.258641 0.258641 0.258641
0.301502 0.301502 0.301502
0.342764 0.342764 0.342764
0.413312 0.413312 0.413312
0.503047 0.503047 0.503047
0.595948 0.595948 0.595948
0.683867 0.683867 0.683867
0.756545 0.756545 0.756545
0.268652 0.268720 0.268720
0.328081 0.328081 0.328081
0.377380 0.377380 0.377380
0.450293 0.450293 0.450293
0.532842 0.532842 0.532842
0.617015 0.617015 0.617015
0.698043 0.698043 0.698043
0.767163 0.767163 0.767163
0.345776 0.345776 0.345776
0.395019 0.395019 0.395019
0.438434 0.438434 0.438434
0.503149 0.503149 0.503149
0.576021 0.576021 0.576021
0.653212 0.653212 0.653212
0.723902 0.723902 0.723902
0.791746 0.791746 0.791746
0.439412 0.439412 0.439412
0.472060 0.472060 0.472060
0.509159 0.509159 0.509159
0.564157 0.564157 0.564157
0.629340 0.629340 0.629340
0.696166 0.696166 0.696166
0.758895 0.758895 0.758895
0.823540 0.823540 0.823540
0.529920 0.529920 0.529920
0.548541 0.548541 0.548541
0.579550 0.579550 0.579550
0.627940 0.627940 0.627940
0.685237 0.685237 0.685237
0.741650 0.741650 0.741650
0.799030 0.799030 0.799030
0.859803 0.859803 0.859803
0.603388 0.603388 0.603388
0.613764 0.613764 0.613764
0.639289 0.639289 0.639289
0.682187 0.682187 0.682187
0.733837 0.733837 0.733837
0.789954 0.789954 0.789954
0.844219 0.844219 0.844219
0.902474 0.902474 0.902474
0.629918 0.629918 0.629918
0.635455 0.635455 0.635455
0.670619 0.670619 0.670619
0.710076 0.710076 0.710076
0.763846 0.763846 0.763846
0.816184 0.816184 0.816184
0.899208 0.899208 0.899208
0.940528 0.940528 0.940528
0.350947 0.351191 0.351042
0.373748 0.373977 0.373837
0.411681 0.411925 0.411693
0.469543 0.469572 0.469543
0.543881 0.543881 0.543881
0.627892 0.627892 0.627892
0.709689 0.709689 0.709689
0.779655 0.779655 0.779655
0.346904 0.346992 0.346992
0.385206 0.385206 0.385206
0.418955 0.418955 0.418955
0.476183 0.476183 0.476183
0.552128 0.552128 0.552128
0.635510 0.635510 0.635510
0.714468 0.714468 0.714468
0.785059 0.785059 0.785059
0.335145 0.335227 0.335227
0.399038 0.399038 0.399038
0.437625 0.437625 0.437625
0.498492 0.498492 0.498492
0.572157 0.572157 0.572157
0.650530 0.650530 0.650530
0.723451 0.723451 0.723451
0.790848 0.790848 0.790848
0.388983 0.388983 0.388983
0.453395 0.453395 0.453395
0.488958 0.488958 0.488958
0.544536 0.544536 0.544536
0.611243 0.611243 0.611243
0.682367 0.682367 0.682367
0.748261 0.748261 0.748261
0.812810 0.812810 0.812810
0.475656 0.475656 0.475656
0.519886 0.519886 0.519886
0.550532 0.550532 0.550532
0.599701 0.599701 0.599701
0.660467 0.660467 0.660467
0.720497 0.720497 0.720497
0.780740 0.780740 0.780740
0.843446 0.843446 0.843446
0.562316 0.562316 0.562316
0.587165 0.587165 0.587165
0.614104 0.614104 0.614104
0.658955 0.658955 0.658955
0.710331 0.710331 0.710331
0.763771 0.763771 0.763771
0.818291 0.818291 0.818291
0.879702 0.879702 0.879702
0.633736 0.633736 0.633736
0.648292 0.648292 0.648292
0.673577 0.673577 0.673577
0.711384 0.711384 0.711384
0.759067 0.759067 0.759067
0.810561 0.810561 0.810561
0.862233 0.862233 0.862233
0.917164 0.917164 0.917164
0.667915 0.667915 0.667915
0.692284 0.692284 0.692284
0.715018 0.715018 0.715018
0.770061 0.770061 0.770061
0.804073 0.804073 0.804073
0.860890 0.860890 0.860890
0.905853 0.905853 0.905853
0.953178 0.953178 0.953178
0.439836 0.439836 0.439836
0.456660 0.456792 0.456660
0.489695 0.489791 0.489695
0.538369 0.538369 0.538369
0.601518 0.601518 0.601518
0.674566 0.674566 0.674566
0.742866 0.742866 0.742866
0.799649 0.799649 0.799649
0.439265 0.439390 0.439390
0.477458 0.477458 0.477458
0.504229 0.504229 0.504229
0.550226 0.550226 0.550226
0.611101 0.611101 0.611101
0.681967 0.681967 0.681967
0.750659 0.750659 0.750659
0.810133 0.810133 0.810133
0.418467 0.418467 0.418467
0.479667 0.479667 0.479667
0.508572 0.508572 0.508572
0.557071 0.557071 0.557071
0.622434 0.622434 0.622434
0.692835 0.692835 0.692835
0.757735 0.757735 0.757735
0.813554 0.813554 0.813554
0.439314 0.439314 0.439314
0.513943 0.513943 0.513943
0.541953 0.541953 0.541953
0.590966 0.590966 0.590966
0.652750 0.652750 0.652750
0.715339 0.715339 0.715339
0.774394 0.774394 0.774394
0.842297 0.842297 0.842297
0.516974 0.516974 0.516974
0.572747 0.572747 0.572747
0.597699 0.597699 0.597699
0.642617 0.642617 0.642617
0.696320 0.696320 0.696320
0.751367 0.751367 0.751367
0.805665 0.805665 0.805665
0.863929 0.863929 0.863929
0.599920 0.599920 0.599920
0.633151 0.633151 0.633151
0.656312 0.656312 0.656312
0.695118 0.695118 0.695118
0.741379 0.741379 0.741379
0.792471 0.792471 0.792471
0.842812 0.842812 0.842812
0.902794 0.902794 0.902794
0.673834 0.673834 0.673834
0.689999 0.689999 0.689999
0.709467 0.709467 0.709467
0.745319 0.745319 0.745319
0.790193 0.790193 0.790193
0.838511 0.838511 0.838511
0.885755 0.885755 0.885755
0.935487 0.935487 0.935487
0.755311 0.755311 0.755311
0.713865 0.713865 0.713865
0.742156 0.742156 0.742156
0.773103 0.773103 0.773103
0.824027 0.824027 0.824027
0.875177 0.875177 0.875177
0.926967 0.926967 0.926967
0.965440 0.965440 0.965440
