luts/monochrome.cube
# sRGB
# source: Fuji XTrans III - Mono (Stuart Sowerby Fuji XTrans III .3dl, N17->N32)
LUT_3D_SIZE 5
DOMAIN_MIN 0.000000 0.000000 0.000000
DOMAIN_MAX 0.903226 0.903226 0.903226
0.000488 0.000488 0.000488
0.022616 0.022616 0.022616
0.167521 0.167521 0.167521
0.331506 0.331506 0.331506
0.388523 0.388523 0.388523
0.055079 0.055079 0.055134
0.107992 0.107992 0.107992
0.250612 0.250612 0.250612
0.379577 0.379577 0.379577
0.457527 0.457527 0.457527
0.217118 0.217118 0.217118
0.299696 0.299696 0.299696
0.430481 0.430481 0.430523
0.516137 0.516137 0.516137
0.554380 0.554380 0.554380
0.352420 0.352420 0.352420
0.394911 0.394911 0.394911
0.526609 0.526609 0.526609
0.627542 0.627542 0.627542
0.676190 0.676190 0.676190
0.409280 0.409280 0.409280
0.526252 0.526252 0.526252
0.589302 0.589302 0.589302
0.650357 0.650357 0.650357
0.731380 0.731380 0.731380
0.033306 0.033550 0.033550
0.123903 0.123903 0.123903
0.263513 0.263513 0.263513
0.376114 0.376114 0.376114
0.461652 0.461652 0.461652
0.116208 0.116208 0.116208
0.172589 0.172589 0.172589
0.290103 0.290103 0.290103
0.414299 0.414299 0.414299
0.509828 0.509828 0.509828
0.299588 0.299588 0.299588
0.349523 0.349523 0.349523
0.444847 0.444847 0.444847
0.543869 0.543869 0.543869
0.614858 0.614858 0.614858
0.429536 0.429536 0.429536
0.497124 0.497124 0.497124
0.581783 0.581783 0.581783
0.670415 0.670415 0.670415
0.743212 0.743212 0.743212
0.488645 0.488645 0.488645
0.580146 0.580146 0.580146
0.633463 0.633463 0.633463
0.711343 0.711343 0.711343
0.810012 0.810012 0.810012
0.201119 0.201308 0.201119
0.264005 0.264005 0.264005
0.340246 0.340246 0.340246
0.451734 0.451734 0.451734
0.529583 0.529583 0.529583
0.240599 0.240599 0.240599
0.299349 0.299349 0.299349
0.388953 0.388953 0.388953
0.491886 0.491886 0.491886
0.571024 0.571024 0.571024
0.399437 0.399437 0.399437
0.439500 0.439500 0.439500
0.514775 0.514775 0.514775
0.597338 0.597338 0.597338
0.671849 0.671849 0.671849
0.528536 0.528536 0.528536
0.573903 0.573903 0.573903
0.638013 0.638013 0.638013
0.713717 0.713717 0.713717
0.782314 0.782314 0.782314
0.603765 0.603765 0.603765
0.649988 0.649988 0.649988
0.700836 0.700836 0.700836
0.768917 0.768917 0.768917
0.870109 0.870109 0.870109
0.330876 0.330671 0.330876
0.376309 0.376229 0.376309
0.456688 0.456688 0.456688
0.542252 0.542252 0.542252
0.608327 0.608327 0.608327
0.382534 0.382534 0.382534
0.443092 0.443092 0.443092
0.505441 0.505441 0.505441
0.580852 0.580852 0.580852
0.652102 0.652102 0.652102
0.499823 0.499823 0.499823
0.545608 0.545608 0.545608
0.600120 0.600120 0.600120
0.669579 0.669579 0.669579
0.730652 0.730652 0.730652
0.631854 0.631854 0.631854
0.659585 0.659585 0.659585
0.706905 0.706905 0.706905
0.765336 0.765336 0.765336
0.829020 0.829020 0.829020
0.705723 0.705723 0.705723
0.744971 0.744971 0.744971
0.810006 0.810006 0.810006
0.839732 0.839732 0.839732
0.908835 0.908835 0.908835
0.459435 0.459435 0.459435
0.496527 0.496527 0.496527
0.566496 0.566496 0.566496
0.646729 0.646729 0.646729
0.694224 0.694224 0.694224
0.515668 0.515750 0.515750
0.577041 0.577041 0.577041
0.622303 0.622303 0.622303
0.681646 0.681646 0.681646
0.723810 0.723810 0.723810
0.597091 0.597091 0.597091
0.656853 0.656853 0.656853
0.696368 0.696368 0.696368
0.746178 0.746178 0.746178
0.799067 0.799067 0.799067
0.711007 0.711007 0.711007
0.744716 0.744716 0.744716
0.781767 0.781767 0.781767
0.829775 0.829775 0.829775
0.887975 0.887975 0.887975
0.826618 0.826618 0.826618
0.809733 0.809733 0.809733
0.844771 0.844771 0.844771
0.907817 0.907817 0.907817
0.952996 0.952996 0.952996
