luts/monochrome.cube
# sRGB
# source: Fuji XTrans III - Mono (Stuart Sowerby Fuji XTrans III .3dl, N17->N32)
LUT_3D_SIZE 32
0.000488 0.000488 0.000488
0.001497 0.001497 0.001497
0.002592 0.002592 0.002592
0.004986 0.004986 0.004986
0.007476 0.007476 0.007476
0.010627 0.010627 0.010627
0.014676 0.014676 0.014676
0.022616 0.022616 0.022616
0.033991 0.033991 0.033991
0.055670 0.055670 0.055670
0.078254 0.078254 0.078254
0.102832 0.102832 0.102832
0.127740 0.127740 0.127740
0.153200 0.153200 0.153200
0.167521 0.167521 0.167521
0.167521 0.167521 0.167521
0.197204 0.197204 0.197204
0.256568 0.256568 0.256568
0.289204 0.289204 0.289204
0.301052 0.301052 0.301052
0.315499 0.315499 0.315499
0.331506 0.331506 0.331506
0.336508 0.336508 0.336508
0.336508 0.336508 0.336508
0.336508 0.336508 0.336508
0.336508 0.336508 0.336508
0.358321 0.358321 0.358321
0.385167 0.385167 0.385167
0.388523 0.388523 0.388523
0.388523 0.388523 0.388523
0.388523 0.388523 0.388523
0.388523 0.388523 0.388523
0.001371 0.001371 0.001371
0.002639 0.002639 0.002639
0.003986 0.003986 0.003986
0.006511 0.006511 0.006511
0.009204 0.009204 0.009204
0.013070 0.013070 0.013070
0.017981 0.017981 0.017981
0.027418 0.027418 0.027418
0.040175 0.040175 0.040175
0.062895 0.062895 0.062895
0.085727 0.085727 0.085727
0.108809 0.108809 0.108809
0.131806 0.131806 0.131806
0.154664 0.154664 0.154664
0.173982 0.173982 0.173982
0.188749 0.188749 0.188749
0.218431 0.218431 0.218431
0.263028 0.263028 0.263028
0.289204 0.289204 0.289204
0.301052 0.301052 0.301052
0.315499 0.315499 0.315499
0.331506 0.331506 0.331506
0.336508 0.336508 0.336508
0.336508 0.336508 0.336508
0.345583 0.345583 0.345583
0.357682 0.357682 0.357682
0.370506 0.370506 0.370506
0.383496 0.383496 0.383496
0.385120 0.385120 0.385120
0.385120 0.385120 0.385120
0.385120 0.385120 0.385120
0.385120 0.385120 0.385120
0.002418 0.002418 0.002410
0.003919 0.003919 0.003915
0.005499 0.005499 0.005499
0.008280 0.008280 0.008280
0.011291 0.011291 0.011291
0.015914 0.015914 0.015914
0.021717 0.021717 0.021717
0.032633 0.032633 0.032633
0.046736 0.046736 0.046736
0.070394 0.070394 0.070394
0.093415 0.093415 0.093415
0.115033 0.115033 0.115033
0.136204 0.136204 0.136204
0.156630 0.156630 0.156630
0.180502 0.180502 0.180502
0.208804 0.208804 0.208804
0.238332 0.238332 0.238332
0.269085 0.269085 0.269085
0.289204 0.289204 0.289204
0.301052 0.301052 0.301052
0.315499 0.315499 0.315499
0.331506 0.331506 0.331506
0.337028 0.337028 0.337028
0.337784 0.337784 0.337784
0.354988 0.354988 0.354988
0.377675 0.377675 0.377675
0.381929 0.381929 0.381929
0.381929 0.381929 0.381929
0.381929 0.381929 0.381929
0.381929 0.381929 0.381929
0.383240 0.383240 0.383240
0.384639 0.384639 0.384639
0.005947 0.005947 0.005814
0.007253 0.007253 0.007188
0.008784 0.008784 0.008784
0.013712 0.013712 0.013712
0.018772 0.018772 0.018772
0.024761 0.024761 0.024761
0.031906 0.031906 0.031906
0.044058 0.044058 0.044058
0.058941 0.058941 0.058941
0.082014 0.082014 0.082014
0.104328 0.104328 0.104328
0.124970 0.124970 0.124970
0.145579 0.145579 0.145579
0.166136 0.166136 0.166136
0.187918 0.187918 0.187918
0.211276 0.211276 0.211276
0.238332 0.238332 0.238332
0.269085 0.269085 0.269085
0.289204 0.289204 0.289204
0.301052 0.301052 0.301052
0.315499 0.315499 0.315499
0.331506 0.331506 0.331506
0.345346 0.345346 0.345346
0.358202 0.358202 0.358202
0.369357 0.369357 0.369357
0.379944 0.379944 0.379944
0.381929 0.381929 0.381929
0.381929 0.381929 0.381929
0.381929 0.381929 0.381929
0.381929 0.381929 0.381929
0.404220 0.404220 0.404220
0.427996 0.427996 0.427996
0.009949 0.009949 0.009705
0.011173 0.011173 0.011047
0.012763 0.012763 0.012748
0.019846 0.019846 0.019838
0.027004 0.027004 0.027004
0.034692 0.034692 0.034692
0.043413 0.043413 0.043413
0.056606 0.056606 0.056606
0.072091 0.072091 0.072093
0.094448 0.094448 0.094458
0.115998 0.115998 0.116011
0.135770 0.135770 0.135775
0.155872 0.155872 0.155872
0.176527 0.176527 0.176527
0.196457 0.196457 0.196457
0.215456 0.215456 0.215456
0.239991 0.239991 0.239991
0.270061 0.270061 0.270061
0.290275 0.290275 0.290275
0.302822 0.302822 0.302822
0.317470 0.317470 0.317470
0.333380 0.333380 0.333380
0.353814 0.353814 0.353814
0.376306 0.376306 0.376306
0.381929 0.381929 0.381929
0.381929 0.381929 0.381929
0.381929 0.381929 0.381929
0.381929 0.381929 0.381929
0.384725 0.384725 0.384725
0.387921 0.387921 0.387921
0.426146 0.426146 0.426146
0.466706 0.466706 0.466706
0.017259 0.017259 0.017015
0.019199 0.019199 0.019007
0.021598 0.021598 0.021461
0.030892 0.030892 0.030828
0.040490 0.040490 0.040490
0.052212 0.052212 0.052212
0.064148 0.064148 0.064148
0.077016 0.077016 0.077016
0.091850 0.091850 0.091869
0.112582 0.112582 0.112673
0.132972 0.132972 0.133091
0.152614 0.152614 0.152660
0.172587 0.172587 0.172587
0.193111 0.193111 0.193111
0.212854 0.212854 0.212854
0.231593 0.231593 0.231593
0.253266 0.253266 0.253266
0.277872 0.277872 0.277872
0.298841 0.298841 0.298841
0.316983 0.316983 0.316983
0.333241 0.333241 0.333241
0.348370 0.348370 0.348370
0.363328 0.363328 0.363328
0.378209 0.378209 0.378209
0.381929 0.381929 0.381929
0.381929 0.381929 0.381929
0.381929 0.381929 0.381929
0.381929 0.381929 0.381929
0.407095 0.407095 0.407095
0.435857 0.435857 0.435857
0.454700 0.454700 0.454700
0.472882 0.472882 0.472882
0.028233 0.028233 0.028036
0.030583 0.030583 0.030374
0.033465 0.033465 0.033252
0.044337 0.044337 0.044238
0.055511 0.055511 0.055511
0.068802 0.068802 0.068802
0.082170 0.082170 0.082170
0.095872 0.095872 0.095872
0.111129 0.111129 0.111157
0.131051 0.131051 0.131193
0.150815 0.150815 0.151000
0.170229 0.170229 0.170300
0.190042 0.190042 0.190042
0.210521 0.210521 0.210521
0.230035 0.230035 0.230035
0.248306 0.248306 0.248306
0.267513 0.267513 0.267513
0.287655 0.287655 0.287655
0.309146 0.309146 0.309146
0.331687 0.331687 0.331687
0.349145 0.349145 0.349145
0.363554 0.363554 0.363554
0.375101 0.375101 0.375101
0.385347 0.385347 0.385347
0.389189 0.389189 0.389189
0.390896 0.390896 0.390896
0.391217 0.391217 0.391217
0.391217 0.391217 0.391217
0.430364 0.430364 0.430364
0.475104 0.475104 0.475104
0.477900 0.477900 0.477900
0.477900 0.477900 0.477900
0.055079 0.055079 0.055134
0.056518 0.056518 0.056496
0.058474 0.058474 0.058382
0.068175 0.068175 0.068132
0.077186 0.077186 0.077186
0.081370 0.081370 0.081370
0.088436 0.088436 0.088436
0.107992 0.107992 0.107992
0.128323 0.128323 0.128335
0.150977 0.150977 0.151038
0.172416 0.172416 0.172495
0.191180 0.191180 0.191210
0.210708 0.210708 0.210708
0.231513 0.231513 0.231513
0.250612 0.250612 0.250612
0.267517 0.267517 0.267517
0.285976 0.285976 0.285976
0.305987 0.305987 0.305987
0.326983 0.326983 0.326983
0.348743 0.348743 0.348743
0.365624 0.365624 0.365624
0.379577 0.379577 0.379577
0.396662 0.396662 0.396662
0.415169 0.415169 0.415169
0.427907 0.427907 0.427907
0.438722 0.438722 0.438722
0.440750 0.440750 0.440750
0.440750 0.440750 0.440750
0.457527 0.457527 0.457527
0.476701 0.476701 0.476701
0.477900 0.477900 0.477900
0.477900 0.477900 0.477900
0.082461 0.082461 0.082674
0.082941 0.082941 0.083044
0.083964 0.083964 0.083964
0.093145 0.093145 0.093145
0.101058 0.101058 0.101058
0.100103 0.100103 0.100103
0.103646 0.103646 0.103646
0.126682 0.126682 0.126682
0.150189 0.150189 0.150189
0.175104 0.175104 0.175104
0.197304 0.197304 0.197304
0.213530 0.213530 0.213530
0.231699 0.231699 0.231699
0.253105 0.253105 0.253105
0.272123 0.272123 0.272123
0.288069 0.288069 0.288069
0.305836 0.305836 0.305836
0.325425 0.325425 0.325425
0.345714 0.345714 0.345714
0.366547 0.366547 0.366547
0.382897 0.382897 0.382897
0.396558 0.396558 0.396558
0.416044 0.416044 0.416044
0.438178 0.438178 0.438178
0.456946 0.456946 0.456946
0.474591 0.474591 0.474591
0.477900 0.477900 0.477900
0.477900 0.477900 0.477900
0.477900 0.477900 0.477900
0.477900 0.477900 0.477900
0.477900 0.477900 0.477900
0.477900 0.477900 0.477900
0.111450 0.111450 0.111536
0.110824 0.110824 0.110866
0.110900 0.110900 0.110900
0.121512 0.121512 0.121512
0.131523 0.131523 0.131523
0.137333 0.137333 0.137333
0.145690 0.145690 0.145690
0.165084 0.165084 0.165084
0.186069 0.186069 0.186069
0.211830 0.211830 0.211830
0.232050 0.232050 0.232050
0.240080 0.240080 0.240080
0.253662 0.253662 0.253662
0.276500 0.276500 0.276500
0.296436 0.296436 0.296436
0.312642 0.312642 0.312642
0.329889 0.329889 0.329889
0.348177 0.348177 0.348177
0.367128 0.367128 0.367128
0.386595 0.386595 0.386595
0.402555 0.402555 0.402555
0.416411 0.416411 0.416411
0.428892 0.428892 0.428892
0.440748 0.440748 0.440748
0.456946 0.456946 0.456946
0.474591 0.474591 0.474591
0.477900 0.477900 0.477900
0.477900 0.477900 0.477900
0.477900 0.477900 0.477900
0.477900 0.477900 0.477900
0.477900 0.477900 0.477900
0.477900 0.477900 0.477900
0.131380 0.131380 0.131380
0.136966 0.136966 0.136966
0.142811 0.142811 0.142811
0.152536 0.152536 0.152536
0.162300 0.162300 0.162300
0.172335 0.172335 0.172335
0.183601 0.183601 0.183601
0.200206 0.200206 0.200206
0.219458 0.219458 0.219458
0.246654 0.246654 0.246654
0.266271 0.266271 0.266271
0.269215 0.269215 0.269215
0.279599 0.279599 0.279599
0.302383 0.302383 0.302383
0.321923 0.321923 0.321923
0.337292 0.337292 0.337292
0.353602 0.353602 0.353602
0.370853 0.370853 0.370853
0.388605 0.388605 0.388593
0.406746 0.406746 0.406714
0.422560 0.422560 0.422533
0.436977 0.436977 0.436971
0.445656 0.445656 0.445656
0.451726 0.451726 0.451726
0.464343 0.464343 0.464343
0.479142 0.479142 0.479142
0.480233 0.480233 0.480233
0.478159 0.478159 0.478159
0.477900 0.477900 0.477900
0.477900 0.477900 0.477900
0.477900 0.477900 0.477900
0.477900 0.477900 0.477900
0.131380 0.131380 0.131380
0.159279 0.159279 0.159279
0.185668 0.185668 0.185668
0.189409 0.189409 0.189409
0.193765 0.193765 0.193765
0.202434 0.202434 0.202434
0.212419 0.212419 0.212419
0.228113 0.228113 0.228113
0.247365 0.247365 0.247365
0.277294 0.277294 0.277294
0.299338 0.299338 0.299338
0.304038 0.304038 0.304038
0.314276 0.314276 0.314276
0.333742 0.333742 0.333742
0.349993 0.349993 0.349993
0.362109 0.362109 0.362109
0.376565 0.376565 0.376565
0.393361 0.393361 0.393361
0.410218 0.410218 0.410170
0.427124 0.427124 0.426990
0.443328 0.443328 0.443216
0.459111 0.459111 0.459085
0.471034 0.471034 0.471034
0.481203 0.481203 0.481203
0.488014 0.488014 0.488014
0.493706 0.493706 0.493706
0.487697 0.487697 0.487697
0.478988 0.478988 0.478988
0.477900 0.477900 0.477900
0.477900 0.477900 0.477900
0.477900 0.477900 0.477900
0.477900 0.477900 0.477900
0.144708 0.144708 0.144708
0.185919 0.185919 0.185919
0.224554 0.224554 0.224554
0.224554 0.224554 0.224554
0.225491 0.225491 0.225491
0.232988 0.232988 0.232988
0.241490 0.241490 0.241490
0.254346 0.254346 0.254346
0.271977 0.271977 0.271977
0.303929 0.303929 0.303929
0.328037 0.328037 0.328037
0.334883 0.334883 0.334883
0.345941 0.345941 0.345941
0.364018 0.364018 0.364018
0.378330 0.378330 0.378341
0.387803 0.387803 0.387839
0.400283 0.400283 0.400318
0.415770 0.415770 0.415781
0.431455 0.431455 0.431398
0.447296 0.447296 0.447137
0.463375 0.463375 0.463241
0.479597 0.479597 0.479565
0.492848 0.492848 0.492848
0.504749 0.504749 0.504749
0.507724 0.507724 0.507724
0.507724 0.507724 0.507724
0.499300 0.499300 0.499300
0.488932 0.488932 0.488932
0.490817 0.490817 0.490817
0.494452 0.494452 0.494452
0.498315 0.498315 0.498315
0.502194 0.502194 0.502194
0.180251 0.180251 0.180251
0.219771 0.219771 0.219771
0.256820 0.256820 0.256820
0.256820 0.256820 0.256820
0.257651 0.257651 0.257651
0.264303 0.264303 0.264303
0.270983 0.270983 0.270983
0.277790 0.277790 0.277790
0.291094 0.291094 0.291094
0.323892 0.323892 0.323892
0.349455 0.349455 0.349455
0.359099 0.359099 0.359099
0.372588 0.372588 0.372588
0.392486 0.392486 0.392486
0.407112 0.407112 0.407151
0.414959 0.414959 0.415087
0.425259 0.425259 0.425388
0.438014 0.438014 0.438053
0.452065 0.452065 0.452044
0.467124 0.467124 0.467067
0.482220 0.482220 0.482171
0.497336 0.497336 0.497325
0.508721 0.508721 0.508721
0.518410 0.518410 0.518410
0.520832 0.520832 0.520832
0.520832 0.520832 0.520832
0.517799 0.517799 0.517799
0.514067 0.514067 0.514067
0.525262 0.525262 0.525262
0.538590 0.538590 0.538590
0.552756 0.552756 0.552756
0.566978 0.566978 0.566978
0.217118 0.217118 0.217118
0.246977 0.246977 0.246977
0.274969 0.274969 0.274969
0.274969 0.274969 0.274969
0.275741 0.275741 0.275741
0.281917 0.281917 0.281917
0.288950 0.288950 0.288950
0.299696 0.299696 0.299696
0.315405 0.315405 0.315405
0.346004 0.346004 0.346004
0.370689 0.370689 0.370689
0.382361 0.382361 0.382361
0.396766 0.396766 0.396766
0.415725 0.415725 0.415725
0.430481 0.430481 0.430523
0.439832 0.439832 0.439972
0.450216 0.450216 0.450356
0.461632 0.461632 0.461675
0.474579 0.474579 0.474579
0.488716 0.488716 0.488716
0.502525 0.502525 0.502525
0.516137 0.516137 0.516137
0.527018 0.527018 0.527018
0.536658 0.536658 0.536658
0.539068 0.539068 0.539068
0.539068 0.539068 0.539068
0.539068 0.539068 0.539068
0.539068 0.539068 0.539068
0.554380 0.554380 0.554380
0.571879 0.571879 0.571879
0.587518 0.587518 0.587518
0.603033 0.603033 0.603033
0.255686 0.255686 0.255686
0.265639 0.265639 0.265639
0.274969 0.274969 0.274969
0.274969 0.274969 0.274969
0.275741 0.275741 0.275741
0.281917 0.281917 0.281917
0.292097 0.292097 0.292097
0.319626 0.319626 0.319626
0.346394 0.346394 0.346394
0.370878 0.370878 0.370878
0.391684 0.391684 0.391684
0.404398 0.404398 0.404398
0.417770 0.417770 0.417770
0.432240 0.432240 0.432240
0.446890 0.446890 0.446904
0.461771 0.461771 0.461817
0.475147 0.475147 0.475194
0.487019 0.487019 0.487033
0.499543 0.499543 0.499543
0.512574 0.512574 0.512574
0.524708 0.524708 0.524708
0.536303 0.536303 0.536303
0.548433 0.548433 0.548433
0.560805 0.560805 0.560805
0.563898 0.563898 0.563898
0.563898 0.563898 0.563898
0.563898 0.563898 0.563898
0.563898 0.563898 0.563898
0.576648 0.576648 0.576648
0.591220 0.591220 0.591220
0.596979 0.596979 0.596979
0.602151 0.602151 0.602151
0.255686 0.255686 0.255686
0.265639 0.265639 0.265639
0.274969 0.274969 0.274969
0.274969 0.274969 0.274969
0.276689 0.276689 0.276689
0.290443 0.290443 0.290443
0.306933 0.306933 0.306933
0.335276 0.335276 0.335276
0.361889 0.361889 0.361889
0.383316 0.383316 0.383316
0.403646 0.403646 0.403646
0.421564 0.421564 0.421564
0.435590 0.435590 0.435590
0.443132 0.443132 0.443132
0.457941 0.457941 0.457941
0.482091 0.482091 0.482091
0.498655 0.498655 0.498655
0.507633 0.507633 0.507633
0.519786 0.519786 0.519786
0.534411 0.534411 0.534411
0.545841 0.545841 0.545841
0.555355 0.555355 0.555355
0.567170 0.567170 0.567170
0.580030 0.580030 0.580030
0.583245 0.583245 0.583245
0.583245 0.583245 0.583245
0.583245 0.583245 0.583245
0.583245 0.583245 0.583245
0.595597 0.595597 0.595597
0.609713 0.609713 0.609713
0.614895 0.614895 0.614895
0.619481 0.619481 0.619481
0.217118 0.217118 0.217118
0.246977 0.246977 0.246977
0.274969 0.274969 0.274969
0.274969 0.274969 0.274969
0.278583 0.278583 0.278583
0.307495 0.307495 0.307495
0.333458 0.333458 0.333458
0.346643 0.346643 0.346643
0.361889 0.361889 0.361889
0.383316 0.383316 0.383316
0.406573 0.406573 0.406573
0.433858 0.433858 0.433858
0.450227 0.450227 0.450227
0.448402 0.448402 0.448402
0.463633 0.463633 0.463633
0.500794 0.500794 0.500794
0.520741 0.520741 0.520741
0.523473 0.523473 0.523473
0.535310 0.535310 0.535310
0.554228 0.554228 0.554228
0.565926 0.565926 0.565926
0.573293 0.573293 0.573293
0.583229 0.583229 0.583229
0.594333 0.594333 0.594333
0.597109 0.597109 0.597109
0.597109 0.597109 0.597109
0.597109 0.597109 0.597109
0.597109 0.597109 0.597109
0.611225 0.611225 0.611225
0.627358 0.627358 0.627358
0.641265 0.641265 0.641265
0.655024 0.655024 0.655024
0.200244 0.200244 0.200244
0.238812 0.238812 0.238812
0.274969 0.274969 0.274969
0.274969 0.274969 0.274969
0.281507 0.281507 0.281507
0.333809 0.333809 0.333809
0.374391 0.374391 0.374391
0.364186 0.364186 0.364186
0.364167 0.364167 0.364167
0.394705 0.394705 0.394705
0.422660 0.422660 0.422660
0.444932 0.444932 0.444932
0.457276 0.457276 0.457276
0.453072 0.453072 0.453072
0.472129 0.472129 0.472129
0.521093 0.521093 0.521093
0.545575 0.545575 0.545575
0.545575 0.545575 0.545575
0.552868 0.552868 0.552868
0.565834 0.565834 0.565834
0.579013 0.579013 0.579013
0.592320 0.592320 0.592320
0.603534 0.603534 0.603534
0.613796 0.613796 0.613796
0.611257 0.611257 0.611257
0.604451 0.604451 0.604451
0.612064 0.612064 0.612064
0.623005 0.623005 0.623005
0.634939 0.634939 0.634939
0.647014 0.647014 0.647014
0.659592 0.659592 0.659592
0.672204 0.672204 0.672204
0.200244 0.200244 0.200244
0.238812 0.238812 0.238812
0.274969 0.274969 0.274969
0.274969 0.274969 0.274969
0.285231 0.285231 0.285231
0.367327 0.367327 0.367327
0.426531 0.426531 0.426531
0.386532 0.386532 0.386532
0.368216 0.368216 0.368216
0.414952 0.414952 0.414952
0.448982 0.448982 0.448982
0.455056 0.455056 0.455056
0.458422 0.458422 0.458422
0.457276 0.457276 0.457276
0.482805 0.482805 0.482805
0.542633 0.542633 0.542633
0.572547 0.572547 0.572547
0.572547 0.572547 0.572547
0.572010 0.572010 0.572010
0.571054 0.571054 0.571054
0.586657 0.586657 0.586657
0.612194 0.612194 0.612194
0.627140 0.627140 0.627140
0.637272 0.637272 0.637272
0.625625 0.625625 0.625625
0.606719 0.606719 0.606719
0.627868 0.627868 0.627868
0.658259 0.658259 0.658259
0.664940 0.664940 0.664940
0.668233 0.668233 0.668233
0.671664 0.671664 0.671664
0.675103 0.675103 0.675103
0.258773 0.258773 0.258773
0.267133 0.267133 0.267133
0.274969 0.274969 0.274969
0.274969 0.274969 0.274969
0.286628 0.286628 0.286628
0.379897 0.379897 0.379897
0.446083 0.446083 0.446083
0.394911 0.394911 0.394911
0.367204 0.367204 0.367204
0.409890 0.409890 0.409890
0.442401 0.442401 0.442401
0.452525 0.452525 0.452525
0.462679 0.462679 0.462679
0.472884 0.472884 0.472884
0.502117 0.502117 0.502117
0.555813 0.555813 0.555813
0.582662 0.582662 0.582662
0.582662 0.582662 0.582662
0.584654 0.584654 0.584654
0.588195 0.588195 0.588195
0.602277 0.602277 0.602277
0.622683 0.622683 0.622683
0.635992 0.635992 0.635992
0.646075 0.646075 0.646075
0.636685 0.636685 0.636685
0.620804 0.620804 0.620804
0.642302 0.642302 0.642302
0.672425 0.672425 0.672425
0.676190 0.676190 0.676190
0.676190 0.676190 0.676190
0.684805 0.684805 0.684805
0.693993 0.693993 0.693993
0.352420 0.352420 0.352420
0.312446 0.312446 0.312446
0.274969 0.274969 0.274969
0.274969 0.274969 0.274969
0.286628 0.286628 0.286628
0.379897 0.379897 0.379897
0.446083 0.446083 0.446083
0.394911 0.394911 0.394911
0.363154 0.363154 0.363154
0.389643 0.389643 0.389643
0.416079 0.416079 0.416079
0.442401 0.442401 0.442401
0.468802 0.468802 0.468802
0.495335 0.495335 0.495335
0.526609 0.526609 0.526609
0.563978 0.563978 0.563978
0.582662 0.582662 0.582662
0.582662 0.582662 0.582662
0.593399 0.593399 0.593399
0.612488 0.612488 0.612488
0.622683 0.622683 0.622683
0.627542 0.627542 0.627542
0.635992 0.635992 0.635992
0.646075 0.646075 0.646075
0.645760 0.645760 0.645760
0.641979 0.641979 0.641979
0.655914 0.655914 0.655914
0.673938 0.673938 0.673938
0.676190 0.676190 0.676190
0.676190 0.676190 0.676190
0.698588 0.698588 0.698588
0.722478 0.722478 0.722478
0.381685 0.381685 0.381685
0.326606 0.326606 0.326606
0.274969 0.274969 0.274969
0.274969 0.274969 0.274969
0.284068 0.284068 0.284068
0.356853 0.356853 0.356853
0.410237 0.410237 0.410237
0.379549 0.379549 0.379549
0.361889 0.361889 0.361889
0.383316 0.383316 0.383316
0.411362 0.411362 0.411362
0.453971 0.453971 0.453971
0.488256 0.488256 0.488256
0.508666 0.508666 0.508666
0.533343 0.533343 0.533343
0.563507 0.563507 0.563507
0.579640 0.579640 0.579640
0.581742 0.581742 0.581742
0.591352 0.591352 0.591352
0.606802 0.606802 0.606802
0.617907 0.617907 0.617907
0.626404 0.626404 0.626404
0.635992 0.635992 0.635992
0.646075 0.646075 0.646075
0.652386 0.652386 0.652386
0.657440 0.657440 0.657440
0.665853 0.665853 0.665853
0.675042 0.675042 0.675042
0.685035 0.685035 0.685035
0.695142 0.695142 0.695142
0.713002 0.713002 0.713002
0.731380 0.731380 0.731380
0.381685 0.381685 0.381685
0.326606 0.326606 0.326606
0.274969 0.274969 0.274969
0.274969 0.274969 0.274969
0.280343 0.280343 0.280343
0.323335 0.323335 0.323335
0.358098 0.358098 0.358098
0.357203 0.357203 0.357203
0.361889 0.361889 0.361889
0.383316 0.383316 0.383316
0.416464 0.416464 0.416464
0.475402 0.475402 0.475402
0.513768 0.513768 0.513768
0.517850 0.517850 0.517850
0.532006 0.532006 0.532006
0.559112 0.559112 0.559112
0.575245 0.575245 0.575245
0.580405 0.580405 0.580405
0.584400 0.584400 0.584400
0.587490 0.587490 0.587490
0.601684 0.601684 0.601684
0.622542 0.622542 0.622542
0.635992 0.635992 0.635992
0.646075 0.646075 0.646075
0.657899 0.657899 0.657899
0.670304 0.670304 0.670304
0.674123 0.674123 0.674123
0.675961 0.675961 0.675961
0.697899 0.697899 0.697899
0.722708 0.722708 0.722708
0.727704 0.727704 0.727704
0.731380 0.731380 0.731380
0.381685 0.381685 0.381685
0.326606 0.326606 0.326606
0.274969 0.274969 0.274969
0.274969 0.274969 0.274969
0.283968 0.283968 0.283968
0.355957 0.355957 0.355957
0.415200 0.415200 0.415200
0.419217 0.419217 0.419217
0.425940 0.425940 0.425940
0.440780 0.440780 0.440780
0.462138 0.462138 0.462138
0.497836 0.497836 0.497836
0.520147 0.520147 0.520147
0.520147 0.520147 0.520147
0.531671 0.531671 0.531671
0.558013 0.558013 0.558013
0.574146 0.574146 0.574146
0.580070 0.580070 0.580070
0.582662 0.582662 0.582662
0.582662 0.582662 0.582662
0.597629 0.597629 0.597629
0.621576 0.621576 0.621576
0.635992 0.635992 0.635992
0.646075 0.646075 0.646075
0.659278 0.659278 0.659278
0.673520 0.673520 0.673520
0.685149 0.685149 0.685149
0.696176 0.696176 0.696176
0.712830 0.712830 0.712830
0.730289 0.730289 0.730289
0.731380 0.731380 0.731380
0.731380 0.731380 0.731380
0.381685 0.381685 0.381685
0.326606 0.326606 0.326606
0.274969 0.274969 0.274969
0.274969 0.274969 0.274969
0.290042 0.290042 0.290042
0.410625 0.410625 0.410625
0.508717 0.508717 0.508717
0.509351 0.509351 0.509351
0.511342 0.511342 0.511342
0.517400 0.517400 0.517400
0.521336 0.521336 0.521336
0.520604 0.520604 0.520604
0.520147 0.520147 0.520147
0.520147 0.520147 0.520147
0.531671 0.531671 0.531671
0.558013 0.558013 0.558013
0.574146 0.574146 0.574146
0.580070 0.580070 0.580070
0.582662 0.582662 0.582662
0.582662 0.582662 0.582662
0.597629 0.597629 0.597629
0.621576 0.621576 0.621576
0.635992 0.635992 0.635992
0.646075 0.646075 0.646075
0.659278 0.659278 0.659278
0.673520 0.673520 0.673520
0.697095 0.697095 0.697095
0.722823 0.722823 0.722823
0.728451 0.728451 0.728451
0.731207 0.731207 0.731207
0.731380 0.731380 0.731380
0.731380 0.731380 0.731380
0.393257 0.393257 0.393257
0.361276 0.361276 0.361276
0.330586 0.330586 0.330586
0.319275 0.319275 0.319275
0.323370 0.323370 0.323370
0.435305 0.435305 0.435305
0.526252 0.526252 0.526252
0.526252 0.526252 0.526252
0.527354 0.527354 0.527354
0.531766 0.531766 0.531766
0.536218 0.536218 0.536218
0.540759 0.540759 0.540759
0.543598 0.543598 0.543598
0.543598 0.543598 0.543598
0.555839 0.555839 0.555839
0.583820 0.583820 0.583820
0.593901 0.593901 0.593901
0.586082 0.586082 0.586082
0.590600 0.590600 0.590600
0.604712 0.604712 0.604712
0.616151 0.616151 0.616151
0.625986 0.625986 0.625986
0.635992 0.635992 0.635992
0.646075 0.646075 0.646075
0.654798 0.654798 0.654798
0.663068 0.663068 0.663068
0.692615 0.692615 0.692615
0.727073 0.727073 0.727073
0.731380 0.731380 0.731380
0.731380 0.731380 0.731380
0.731380 0.731380 0.731380
0.731380 0.731380 0.731380
0.407499 0.407499 0.407499
0.403946 0.403946 0.403946
0.399037 0.399037 0.399037
0.373805 0.373805 0.373805
0.362987 0.362987 0.362987
0.453064 0.453064 0.453064
0.526252 0.526252 0.526252
0.526252 0.526252 0.526252
0.527354 0.527354 0.527354
0.531766 0.531766 0.531766
0.540873 0.540873 0.540873
0.560311 0.560311 0.560311
0.572461 0.572461 0.572461
0.572461 0.572461 0.572461
0.585584 0.585584 0.585584
0.615582 0.615582 0.615582
0.618214 0.618214 0.618214
0.593482 0.593482 0.593482
0.600370 0.600370 0.600370
0.631851 0.631851 0.631851
0.638948 0.638948 0.638948
