luts/monochrome.cube
# sRGB
# source: Fuji XTrans III - Mono (Stuart Sowerby Fuji XTrans III .3dl, N17->N32)
LUT_3D_SIZE 8
DOMAIN_MIN 0.000000 0.000000 0.000000
DOMAIN_MAX 0.903226 0.903226 0.903226
0.000488 0.000488 0.000488
0.007476 0.007476 0.007476
0.033991 0.033991 0.033991
0.127740 0.127740 0.127740
0.197204 0.197204 0.197204
0.315499 0.315499 0.315499
0.336508 0.336508 0.336508
0.388523 0.388523 0.388523
0.009949 0.009949 0.009705
0.027004 0.027004 0.027004
0.072091 0.072091 0.072093
0.155872 0.155872 0.155872
0.239991 0.239991 0.239991
0.317470 0.317470 0.317470
0.381929 0.381929 0.381929
0.384725 0.384725 0.384725
0.082461 0.082461 0.082674
0.101058 0.101058 0.101058
0.150189 0.150189 0.150189
0.231699 0.231699 0.231699
0.305836 0.305836 0.305836
0.382897 0.382897 0.382897
0.456946 0.456946 0.456946
0.477900 0.477900 0.477900
0.144708 0.144708 0.144708
0.225491 0.225491 0.225491
0.271977 0.271977 0.271977
0.345941 0.345941 0.345941
0.400283 0.400283 0.400318
0.463375 0.463375 0.463241
0.507724 0.507724 0.507724
0.490817 0.490817 0.490817
0.255686 0.255686 0.255686
0.276689 0.276689 0.276689
0.361889 0.361889 0.361889
0.435590 0.435590 0.435590
0.498655 0.498655 0.498655
0.545841 0.545841 0.545841
0.583245 0.583245 0.583245
0.595597 0.595597 0.595597
0.258773 0.258773 0.258773
0.286628 0.286628 0.286628
0.367204 0.367204 0.367204
0.462679 0.462679 0.462679
0.582662 0.582662 0.582662
0.602277 0.602277 0.602277
0.636685 0.636685 0.636685
0.676190 0.676190 0.676190
0.381685 0.381685 0.381685
0.283968 0.283968 0.283968
0.425940 0.425940 0.425940
0.520147 0.520147 0.520147
0.574146 0.574146 0.574146
0.597629 0.597629 0.597629
0.659278 0.659278 0.659278
0.712830 0.712830 0.712830
0.409280 0.409280 0.409280
0.367939 0.367939 0.367939
0.527354 0.527354 0.527354
0.576068 0.576068 0.576068
0.627315 0.627315 0.627315
0.655338 0.655338 0.655338
0.689561 0.689561 0.689561
0.731380 0.731380 0.731380
0.006215 0.006231 0.006231
0.012128 0.012128 0.012128
0.081767 0.081767 0.081767
0.127179 0.127179 0.127179
0.253352 0.253352 0.253352
0.358433 0.358433 0.358433
0.388278 0.388278 0.388278
0.391338 0.391338 0.391338
0.026998 0.026998 0.026998
0.046440 0.046440 0.046440
0.099613 0.099613 0.099613
0.175632 0.175632 0.175632
0.254952 0.254952 0.254952
0.337252 0.337252 0.337252
0.392885 0.392885 0.392885
0.454353 0.454353 0.454353
0.106413 0.106413 0.106413
0.123414 0.123414 0.123414
0.172962 0.172962 0.172962
0.244998 0.244998 0.244998
0.317381 0.317381 0.317381
0.390280 0.390280 0.390280
0.452118 0.452118 0.452118
0.473217 0.473217 0.473217
0.222203 0.222203 0.222203
0.246047 0.246047 0.246047
0.285259 0.285259 0.285259
0.347398 0.347398 0.347398
0.410579 0.410579 0.410579
0.473542 0.473542 0.473542
0.523234 0.523234 0.523234
0.571508 0.571508 0.571508
0.310563 0.310563 0.310563
0.358685 0.358685 0.358685
0.384332 0.384332 0.384332
0.442884 0.442884 0.442884
0.501417 0.501417 0.501417
0.556382 0.556382 0.556382
0.598026 0.598026 0.598026
0.632539 0.632539 0.632539
0.391074 0.391074 0.391074
0.413156 0.413156 0.413156
0.438855 0.438855 0.438855
0.492407 0.492407 0.492407
0.578743 0.578743 0.578743
0.622160 0.622160 0.622160
0.674764 0.674764 0.674764
0.713676 0.713676 0.713676
0.412189 0.412189 0.412189
0.419626 0.419626 0.419626
0.527354 0.527354 0.527354
0.576290 0.576290 0.576290
0.634953 0.634953 0.634953
0.662935 0.662935 0.662935
0.717539 0.717539 0.717539
0.733664 0.733664 0.733664
0.488645 0.488645 0.488645
0.419744 0.419744 0.419744
0.557381 0.557381 0.557381
0.590142 0.590142 0.590142
0.639827 0.639827 0.639827
0.688111 0.688111 0.688111
0.739304 0.739304 0.739304
0.783854 0.783854 0.783854
0.050983 0.051258 0.051227
0.089512 0.089512 0.089512
0.176870 0.176870 0.176870
0.235464 0.235464 0.235464
0.307228 0.307228 0.307228
0.371690 0.371690 0.371690
0.418199 0.418199 0.418199
0.478042 0.478042 0.478042
0.078527 0.078527 0.078527
0.102760 0.102760 0.102760
0.156098 0.156098 0.156098
0.227484 0.227484 0.227484
0.299296 0.299296 0.299296
0.374407 0.374407 0.374407
0.436335 0.436335 0.436335
0.474394 0.474394 0.474394
0.155870 0.155870 0.155870
0.177176 0.177176 0.177176
0.224278 0.224278 0.224278
0.286174 0.286174 0.286174
0.354236 0.354236 0.354236
0.422140 0.422140 0.422140
0.481604 0.481604 0.481604
0.531911 0.531911 0.531911
0.265303 0.265303 0.265303
0.281094 0.281094 0.281094
0.321886 0.321886 0.321886
0.378546 0.378546 0.378546
0.438395 0.438395 0.438395
0.498232 0.498232 0.498232
0.547930 0.547930 0.547930
0.580132 0.580132 0.580132
0.384156 0.384156 0.384156
0.391140 0.391140 0.391140
0.418713 0.418713 0.418713
0.470244 0.470244 0.470244
0.524373 0.524373 0.524373
0.576957 0.576957 0.576957
0.622153 0.622153 0.622153
0.660156 0.660156 0.660156
0.432723 0.432723 0.432723
0.432272 0.432272 0.432272
0.503966 0.503966 0.503966
0.545806 0.545806 0.545806
0.597540 0.597540 0.597540
0.649202 0.649202 0.649202
0.692613 0.692613 0.692613
0.736046 0.736046 0.736046
0.446083 0.446083 0.446083
0.545033 0.545033 0.545033
0.556484 0.556484 0.556484
0.609017 0.609017 0.609017
0.653296 0.653296 0.653296
0.689447 0.689447 0.689447
0.740219 0.740219 0.740219
0.778476 0.778476 0.778476
0.499579 0.499579 0.499579
0.486632 0.486632 0.486632
0.589538 0.589538 0.589538
0.613659 0.613659 0.613659
0.657423 0.657423 0.657423
0.709994 0.709994 0.709994
0.776765 0.776765 0.776765
0.810012 0.810012 0.810012
0.151617 0.151861 0.152011
0.182778 0.182778 0.182778
0.224274 0.224274 0.224274
0.274278 0.274278 0.274278
0.349363 0.349363 0.349363
0.405960 0.405960 0.405960
0.472830 0.472830 0.472830
0.521123 0.521123 0.521123
0.152091 0.152091 0.152091
0.182858 0.182858 0.182858
0.231058 0.231058 0.231058
0.290412 0.290412 0.290412
0.355396 0.355396 0.355396
0.422954 0.422954 0.422954
0.478790 0.478790 0.478790
0.530829 0.530829 0.530829
0.224150 0.224150 0.224150
0.250686 0.250686 0.250686
0.290747 0.290747 0.290747
0.343968 0.343968 0.343968
0.403591 0.403591 0.403591
0.465813 0.465813 0.465813
0.518269 0.518269 0.518269
0.560228 0.560228 0.560228
0.322031 0.322031 0.322031
0.339543 0.339543 0.339543
0.376577 0.376577 0.376577
0.425268 0.425268 0.425268
0.478970 0.478970 0.478970
0.531575 0.531575 0.531575
0.578740 0.578740 0.578740
0.618105 0.618105 0.618105
0.423043 0.423043 0.423043
0.433949 0.433949 0.433949
0.463896 0.463896 0.463896
0.508268 0.508268 0.508268
0.556569 0.556569 0.556569
0.604729 0.604729 0.604729
0.649611 0.649611 0.649611
0.690025 0.690025 0.690025
0.480669 0.480669 0.480669
0.508834 0.508834 0.508834
0.542563 0.542563 0.542563
0.581027 0.581027 0.581027
0.627648 0.627648 0.627648
0.675623 0.675623 0.675623
0.715593 0.715593 0.715593
0.753714 0.753714 0.753714
0.543590 0.543590 0.543590
0.575367 0.575367 0.575367
0.593629 0.593629 0.593629
0.630792 0.630792 0.630792
0.681938 0.681938 0.681938
0.729318 0.729318 0.729318
0.770559 0.770559 0.770559
0.811265 0.811265 0.811265
0.578028 0.578028 0.578028
0.575855 0.575855 0.575855
0.659096 0.659096 0.659096
0.671530 0.671530 0.671530
0.712064 0.712064 0.712064
0.750312 0.750312 0.750312
0.789989 0.789989 0.789989
0.833822 0.833822 0.833822
0.240884 0.240884 0.240947
0.266257 0.266257 0.266257
0.302376 0.302376 0.302376
0.350928 0.350928 0.350928
0.405431 0.405431 0.405431
0.464126 0.464126 0.464126
0.512008 0.512008 0.512008
0.559948 0.559948 0.559948
0.243981 0.244150 0.244150
0.278281 0.278281 0.278281
0.314942 0.314942 0.314942
0.364110 0.364110 0.364110
0.420385 0.420385 0.420385
0.478125 0.478125 0.478125
0.527997 0.527997 0.527997
0.567434 0.567434 0.567434
0.297496 0.297496 0.297496
0.334950 0.334950 0.334950
0.366161 0.366161 0.366161
0.409930 0.409930 0.409930
0.461789 0.461789 0.461789
0.514205 0.514205 0.514205
0.561602 0.561602 0.561602
0.605548 0.605548 0.605548
0.382646 0.382646 0.382646
0.408703 0.408703 0.408703
0.438584 0.438584 0.438584
0.479979 0.479979 0.479979
0.526735 0.526735 0.526735
0.573064 0.573064 0.573064
0.616645 0.616645 0.616645
0.657733 0.657733 0.657733
0.474957 0.474957 0.474957
0.490308 0.490308 0.490308
0.516991 0.516991 0.516991
0.553693 0.553693 0.553693
0.596544 0.596544 0.596544
0.640634 0.640634 0.640634
0.681229 0.681229 0.681229
0.717183 0.717183 0.717183
0.559208 0.559208 0.559208
0.565544 0.565544 0.565544
0.587336 0.587336 0.587336
0.622445 0.622445 0.622445
0.664230 0.664230 0.664230
0.704511 0.704511 0.704511
0.741244 0.741244 0.741244
0.778695 0.778695 0.778695
0.610096 0.610096 0.610096
0.605889 0.605889 0.605889
0.636598 0.636598 0.636598
0.676556 0.676556 0.676556
0.717358 0.717358 0.717358
0.758240 0.758240 0.758240
0.795067 0.795067 0.795067
0.836020 0.836020 0.836020
0.643575 0.643575 0.643575
0.636113 0.636113 0.636113
0.666354 0.666354 0.666354
0.689917 0.689917 0.689917
0.732502 0.732502 0.732502
0.775061 0.775061 0.775061
0.832215 0.832215 0.832215
0.875543 0.875543 0.875543
0.312852 0.312773 0.312852
0.335977 0.335972 0.335977
0.369049 0.369049 0.369049
0.416133 0.416133 0.416133
0.468566 0.468566 0.468566
0.517922 0.517922 0.517922
0.561890 0.561890 0.561890
0.594036 0.594036 0.594036
0.331828 0.331828 0.331828
0.372541 0.372541 0.372541
0.400743 0.400743 0.400743
0.440785 0.440785 0.440785
0.486954 0.486954 0.486954
0.533372 0.533372 0.533372
0.578290 0.578290 0.578290
0.617594 0.617594 0.617594
0.374977 0.374977 0.374977
0.419736 0.419736 0.419736
0.443615 0.443615 0.443615
0.479843 0.479843 0.479843
0.521261 0.521261 0.521261
0.565721 0.565721 0.565721
0.608510 0.608510 0.608510
0.648220 0.648220 0.648220
0.445744 0.445744 0.445744
0.481480 0.481480 0.481480
0.503666 0.503666 0.503666
0.536834 0.536834 0.536834
0.576501 0.576501 0.576501
0.618025 0.618025 0.618025
0.658422 0.658422 0.658422
0.695918 0.695918 0.695918
0.526728 0.526728 0.526728
0.549879 0.549879 0.549879
0.571033 0.571033 0.571033
0.602174 0.602174 0.602174
0.640439 0.640439 0.640439
0.679964 0.679964 0.679964
0.714039 0.714039 0.714039
0.750380 0.750380 0.750380
0.602747 0.602747 0.602747
0.617314 0.617314 0.617314
0.637256 0.637256 0.637256
0.667719 0.667719 0.667719
0.701128 0.701128 0.701128
0.735580 0.735580 0.735580
0.769553 0.769553 0.769553
0.807222 0.807222 0.807222
0.668683 0.668683 0.668683
0.675233 0.675233 0.675233
0.690148 0.690148 0.690148
0.717346 0.717346 0.717346
0.752064 0.752064 0.752064
0.788298 0.788298 0.788298
0.821722 0.821722 0.821722
0.862770 0.862770 0.862770
0.691607 0.691607 0.691607
0.692543 0.692543 0.692543
0.719026 0.719026 0.719026
0.744896 0.744896 0.744896
0.784032 0.784032 0.784032
0.817048 0.817048 0.817048
0.873897 0.873897 0.873897
0.903541 0.903541 0.903541
0.385529 0.385529 0.385529
0.405950 0.405794 0.405950
0.438958 0.438876 0.438876
0.481224 0.481206 0.481224
0.527164 0.527094 0.527164
0.571617 0.571617 0.571617
0.611877 0.611877 0.611877
0.651472 0.651472 0.651472
0.404222 0.404362 0.404362
0.451808 0.451808 0.451808
0.477028 0.476906 0.477028
0.512098 0.512098 0.512098
0.551525 0.551525 0.551525
0.591975 0.591975 0.591975
0.630496 0.630496 0.630496
0.667887 0.667887 0.667887
0.451751 0.451751 0.451751
0.498776 0.498776 0.498776
0.517794 0.517794 0.517794
0.546719 0.546719 0.546719
0.582146 0.582146 0.582146
0.620338 0.620338 0.620338
0.658338 0.658338 0.658338
0.693892 0.693892 0.693892
0.506393 0.506393 0.506393
0.549450 0.549450 0.549450
0.567286 0.567286 0.567286
0.594753 0.594753 0.594753
0.629527 0.629527 0.629527
0.666268 0.666268 0.666268
0.699943 0.699943 0.699943
0.733023 0.733023 0.733023
0.576597 0.576597 0.576597
0.609454 0.609454 0.609454
0.626646 0.626646 0.626646
0.653902 0.653902 0.653902
0.685651 0.685651 0.685651
0.717144 0.717144 0.717144
0.748564 0.748564 0.748564
0.784825 0.784825 0.784825
0.648941 0.648941 0.648941
0.669901 0.669901 0.669901
0.685593 0.685593 0.685593
0.709116 0.709116 0.709116
0.738092 0.738092 0.738092
0.769376 0.769376 0.769376
0.800773 0.800773 0.800773
0.839735 0.839735 0.839735
0.708126 0.708126 0.708126
0.718813 0.718813 0.718813
0.734902 0.734902 0.734902
0.758991 0.758991 0.758991
0.789580 0.789580 0.789580
0.821041 0.821041 0.821041
0.850862 0.850862 0.850862
0.890589 0.890589 0.890589
0.737944 0.737944 0.737944
0.759835 0.759835 0.759835
0.776684 0.776684 0.776684
0.815355 0.815355 0.815355
0.837297 0.837297 0.837297
0.871486 0.871486 0.871486
0.896274 0.896274 0.896274
0.929655 0.929655 0.929655
0.459435 0.459435 0.459435
0.475588 0.475588 0.475588
0.505077 0.505059 0.505077
0.544187 0.544187 0.544187
0.589872 0.589872 0.589872
0.636544 0.636544 0.636544
0.671245 0.671245 0.671245
0.694224 0.694224 0.694224
0.472128 0.472128 0.472128
0.525302 0.525302 0.525302
0.549472 0.549472 0.549472
0.583932 0.583932 0.583932
0.620290 0.620290 0.620290
0.656148 0.656148 0.656148
0.687386 0.687386 0.687386
0.715523 0.715523 0.715523
0.529199 0.529316 0.529316
0.575837 0.575837 0.575837
0.590995 0.590995 0.590995
0.615066 0.615066 0.615066
0.646579 0.646579 0.646579
0.680491 0.680491 0.680491
0.709273 0.709273 0.709273
0.731353 0.731353 0.731353
0.568184 0.568184 0.568184
0.618951 0.618951 0.618951
0.634568 0.634568 0.634568
0.658366 0.658366 0.658366
0.687539 0.687539 0.687539
0.716775 0.716775 0.716775
0.745017 0.745017 0.745017
0.785164 0.785164 0.785164
0.629361 0.629361 0.629361
0.673783 0.673783 0.673783
0.687607 0.687607 0.687607
0.708233 0.708233 0.708233
0.733941 0.733941 0.733941
0.763057 0.763057 0.763057
0.790366 0.790366 0.790366
0.820431 0.820431 0.820431
0.696533 0.696533 0.696533
0.723948 0.723948 0.723948
0.736911 0.736911 0.736911
0.757636 0.757636 0.757636
0.783513 0.783513 0.783513
0.811219 0.811219 0.811219
0.838981 0.838981 0.838981
0.877506 0.877506 0.877506
0.759064 0.759064 0.759064
0.773972 0.773972 0.773972
0.786883 0.786883 0.786883
0.808322 0.808322 0.808322
0.833939 0.833939 0.833939
0.861506 0.861506 0.861506
0.886527 0.886527 0.886527
0.920615 0.920615 0.920615
0.826618 0.826618 0.826618
0.792432 0.792432 0.792432
0.817401 0.817401 0.817401
0.829681 0.829681 0.829681
0.868842 0.868842 0.868842
0.900527 0.900527 0.900527
0.929575 0.929575 0.929575
0.952996 0.952996 0.952996
