luts/sepia.cube
# sRGB
# source: Fuji XTrans III - Sepia (Stuart Sowerby Fuji XTrans III .3dl, N17->N32)
LUT_3D_SIZE 32
0.038584 0.000000 0.000000
0.040978 0.000126 0.000000
0.043846 0.000252 0.000000
0.053803 0.000378 0.000000
0.064028 0.000693 0.000000
0.076127 0.002332 0.000000
0.089243 0.004726 0.000000
0.106763 0.010398 0.000000
0.125480 0.019410 0.000158
0.147788 0.038442 0.000788
0.170846 0.059246 0.003584
0.195549 0.083950 0.011147
0.221482 0.108606 0.025751
0.249462 0.133184 0.052093
0.265201 0.147009 0.066911
0.265201 0.147009 0.066911
0.295766 0.177195 0.095585
0.356895 0.237567 0.152932
0.390019 0.270716 0.184615
0.401363 0.282689 0.196337
0.414754 0.297341 0.210658
0.429375 0.313600 0.226539
0.433944 0.318681 0.231502
0.433944 0.318681 0.231502
0.433944 0.318681 0.231502
0.433944 0.318681 0.231502
0.459136 0.339163 0.254236
0.490141 0.364370 0.282217
0.494017 0.367521 0.285714
0.494017 0.367521 0.285714
0.494017 0.367521 0.285714
0.494017 0.367521 0.285714
0.041356 0.000000 0.000000
0.044662 0.000256 0.000130
0.048334 0.000524 0.000252
0.057511 0.000976 0.000252
0.067207 0.001665 0.000236
0.080543 0.004019 0.000106
0.094785 0.007203 0.000000
0.112955 0.013980 0.000000
0.132176 0.024309 0.000369
0.154550 0.045293 0.001845
0.177611 0.066951 0.005772
0.202185 0.090093 0.015090
0.226767 0.112774 0.029817
0.251365 0.134684 0.053557
0.271719 0.153583 0.073485
0.286616 0.168610 0.088512
0.317180 0.198796 0.117186
0.363412 0.244142 0.159507
0.390019 0.270716 0.184615
0.401363 0.282689 0.196337
0.414754 0.297341 0.210658
0.429375 0.313600 0.226539
0.433944 0.318681 0.231502
0.433944 0.318681 0.231502
0.444775 0.327122 0.240869
0.459217 0.338376 0.253359
0.474114 0.350396 0.266702
0.489117 0.362594 0.280241
0.490992 0.364118 0.281933
0.490992 0.364118 0.281933
0.490992 0.364118 0.281933
0.490992 0.364118 0.281933
0.044964 0.000047 0.000000
0.049034 0.000434 0.000248
0.053385 0.000852 0.000482
0.061947 0.001755 0.000502
0.071248 0.002931 0.000487
0.085718 0.006021 0.000223
0.100972 0.010018 0.000010
0.119622 0.017946 0.000022
0.139215 0.029597 0.000631
0.161637 0.052414 0.003030
0.184676 0.074850 0.008149
0.209071 0.096447 0.019253
0.232343 0.117235 0.034208
0.253746 0.136673 0.055581
0.278280 0.160210 0.080185
0.306842 0.189016 0.108943
0.337256 0.219048 0.137437
0.369522 0.250305 0.165670
0.390019 0.270716 0.184615
0.401363 0.282689 0.196337
0.414754 0.297341 0.210658
0.429375 0.313600 0.226539
0.434564 0.319165 0.232039
0.435467 0.319868 0.232819
0.456001 0.335870 0.250578
0.483079 0.356971 0.273997
0.488156 0.360928 0.278388
0.488156 0.360928 0.278388
0.488156 0.360928 0.278388
0.488156 0.360928 0.278388
0.489490 0.362224 0.279791
0.490913 0.363606 0.281287
0.061097 0.000803 0.000000
0.063736 0.001320 0.000183
0.066863 0.002007 0.000376
0.077312 0.005251 0.000722
0.088215 0.008606 0.000967
0.102294 0.012737 0.000507
0.116841 0.017922 0.000173
0.133409 0.027671 0.000380
0.151392 0.040704 0.001656
0.173619 0.063586 0.006136
0.196239 0.085660 0.013378
0.219723 0.105957 0.026693
0.242280 0.126102 0.043469
0.263292 0.145996 0.066014
0.285501 0.167626 0.088772
0.309249 0.191488 0.111805
0.337256 0.219048 0.137437
0.369522 0.250305 0.165670
0.390019 0.270716 0.184615
0.401363 0.282689 0.196337
0.414754 0.297341 0.210658
0.429375 0.313600 0.226539
0.444493 0.326902 0.240625
0.459837 0.338859 0.253896
0.473151 0.349234 0.265410
0.485787 0.359082 0.276339
0.488156 0.360928 0.278388
0.488156 0.360928 0.278388
0.488156 0.360928 0.278388
0.488156 0.360928 0.278388
0.510836 0.382959 0.302234
0.535027 0.406459 0.327669
0.077640 0.001985 0.000016
0.079083 0.002721 0.000134
0.081191 0.003758 0.000283
0.093266 0.009303 0.000905
0.105568 0.014861 0.001389
0.119453 0.020504 0.000905
0.133473 0.027233 0.000644
0.148081 0.038666 0.001347
0.164535 0.052915 0.003530
0.186527 0.075610 0.010149
0.208690 0.097197 0.019605
0.231231 0.116347 0.035303
0.253064 0.135931 0.053876
0.273718 0.156240 0.077242
0.293890 0.176196 0.098235
0.313443 0.195699 0.116178
0.338974 0.220730 0.138989
0.370483 0.251289 0.166668
0.391034 0.271791 0.185742
0.403060 0.284472 0.198122
0.416759 0.299288 0.212635
0.431461 0.315384 0.228426
0.454543 0.334790 0.249338
0.481434 0.355700 0.272578
0.488156 0.360928 0.278388
0.488156 0.360928 0.278388
0.488156 0.360928 0.278388
0.488156 0.360928 0.278388
0.491009 0.363703 0.281348
0.494270 0.366874 0.284731
0.533162 0.404655 0.325620
0.574430 0.444744 0.369010
0.097050 0.006144 0.000142
0.098949 0.007726 0.000195
0.101471 0.009681 0.000279
0.113351 0.017244 0.000836
0.125628 0.025168 0.001409
0.140684 0.035625 0.002096
0.155448 0.046399 0.003274
0.168951 0.058548 0.006580
0.184445 0.072845 0.011348
0.205917 0.093589 0.020504
0.227356 0.113814 0.032823
0.248726 0.132899 0.052099
0.269779 0.152491 0.072298
0.290303 0.172930 0.094038
0.310458 0.192845 0.113832
0.330141 0.212089 0.131123
0.352712 0.234192 0.151397
0.378172 0.259156 0.174653
0.399149 0.280394 0.194756
0.416640 0.298735 0.212405
0.432794 0.314860 0.228446
0.448147 0.329655 0.243522
0.465439 0.343735 0.258934
0.483613 0.357489 0.274497
0.488156 0.360928 0.278388
0.488156 0.360928 0.278388
0.488156 0.360928 0.278388
0.488156 0.360928 0.278388
0.513835 0.385902 0.305027
0.543181 0.414444 0.335472
0.562359 0.433075 0.355609
0.580858 0.451046 0.375060
0.118469 0.013872 0.000504
0.120408 0.016043 0.000492
0.122934 0.018655 0.000533
0.134266 0.027881 0.001379
0.145968 0.037538 0.002296
0.160267 0.050223 0.003715
0.174489 0.063118 0.006024
0.188373 0.076922 0.012188
0.204180 0.092185 0.019941
0.225753 0.111831 0.032464
0.246874 0.131266 0.047910
0.266999 0.150237 0.069788
0.287285 0.169844 0.091100
0.307837 0.190510 0.111469
0.327906 0.210338 0.130208
0.347353 0.229090 0.146849
0.367293 0.248662 0.164982
0.387728 0.269056 0.184608
0.409073 0.290717 0.205461
0.431125 0.313364 0.227270
0.449275 0.330404 0.244485
0.465083 0.344081 0.258942
0.478595 0.354930 0.271089
0.491065 0.364493 0.282184
0.495518 0.368146 0.286220
0.497299 0.369829 0.287904
0.497633 0.370145 0.288219
0.497633 0.370145 0.288219
0.537577 0.408993 0.329658
0.583227 0.453391 0.377016
0.586081 0.456166 0.379976
0.586081 0.456166 0.379976
0.148592 0.037063 0.001891
0.148775 0.038714 0.001813
0.149524 0.040846 0.001908
0.158774 0.050202 0.004575
0.167517 0.058851 0.006940
0.172709 0.062559 0.007188
0.180811 0.069233 0.009289
0.201526 0.088761 0.019421
0.223155 0.108969 0.031890
0.247525 0.131217 0.051374
0.270081 0.152339 0.071097
0.288645 0.170985 0.091348
0.308224 0.190632 0.111547
0.329492 0.211949 0.131656
0.349166 0.231489 0.149963
0.366791 0.248744 0.165954
0.385528 0.267503 0.183665
0.405377 0.287767 0.203095
0.426832 0.308493 0.223497
0.449535 0.329578 0.244655
0.467685 0.345830 0.261504
0.483102 0.359182 0.275767
0.501547 0.375877 0.294337
0.521367 0.394091 0.314865
0.534781 0.406640 0.327992
0.546060 0.417301 0.338653
0.548174 0.419300 0.340651
0.548174 0.419300 0.340651
0.565293 0.435949 0.358411
0.584858 0.454977 0.378707
0.586081 0.456166 0.379976
0.586081 0.456166 0.379976
0.178463 0.061861 0.006176
0.177150 0.062813 0.005822
0.176440 0.064310 0.005818
0.184779 0.073990 0.011055
0.192076 0.082298 0.015767
0.192080 0.080997 0.016812
0.196751 0.084230 0.020152
0.221646 0.107108 0.033439
0.246934 0.130398 0.049589
0.273402 0.154922 0.074325
0.296424 0.176898 0.096623
0.311866 0.193267 0.113557
0.329761 0.211809 0.131846
0.351745 0.233971 0.152394
0.371181 0.253524 0.170785
0.387342 0.269722 0.186402
0.405169 0.287644 0.203714
0.424660 0.307290 0.222721
0.445995 0.326949 0.242536
0.468763 0.346620 0.262979
0.486663 0.362270 0.279579
0.501641 0.375508 0.293875
0.521972 0.394840 0.315351
0.544736 0.416941 0.340091
0.564229 0.435511 0.359321
0.582630 0.452905 0.376714
0.586081 0.456166 0.379976
0.586081 0.456166 0.379976
0.586081 0.456166 0.379976
0.586081 0.456166 0.379976
0.586081 0.456166 0.379976
0.586081 0.456166 0.379976
0.207578 0.091481 0.019158
0.205549 0.091196 0.017893
0.204331 0.091591 0.017336
0.215272 0.102182 0.027387
0.225667 0.112149 0.037149
0.232242 0.117744 0.044894
0.241544 0.125871 0.053813
0.262665 0.144976 0.067816
0.285123 0.165762 0.084534
0.311592 0.191587 0.109400
0.332175 0.211917 0.129165
0.339810 0.220154 0.137707
0.353094 0.234150 0.151703
0.375794 0.257744 0.174789
0.395462 0.278215 0.194806
0.411233 0.294674 0.210878
0.429027 0.311685 0.227864
0.448843 0.329249 0.245766
0.469369 0.347449 0.264585
0.490446 0.366143 0.284117
0.507345 0.381753 0.300823
0.521738 0.395511 0.315834
0.534820 0.407850 0.329662
0.547306 0.419543 0.342953
0.564229 0.435511 0.359321
0.582630 0.452905 0.376714
0.586081 0.456166 0.379976
0.586081 0.456166 0.379976
0.586081 0.456166 0.379976
0.586081 0.456166 0.379976
0.586081 0.456166 0.379976
0.586081 0.456166 0.379976
0.227595 0.111844 0.028083
0.232514 0.117560 0.033531
0.237794 0.123507 0.039339
0.248470 0.132916 0.050544
0.259123 0.142399 0.061807
0.269604 0.152409 0.073467
0.281507 0.163596 0.085632
0.299567 0.179883 0.099985
0.319963 0.198992 0.117211
0.347366 0.226566 0.143061
0.367067 0.246516 0.161859
0.369824 0.249691 0.165140
0.379893 0.260435 0.176082
0.402149 0.283793 0.199794
0.421183 0.303712 0.219891
0.436076 0.319211 0.235341
0.453340 0.335047 0.251698
0.472973 0.351221 0.268961
0.492456 0.368252 0.287011
0.511821 0.385950 0.305673
0.527929 0.401677 0.322525
0.542082 0.416220 0.338292
0.550901 0.424835 0.347756
0.557297 0.430754 0.354355
0.570471 0.443175 0.366946
0.585904 0.457763 0.381534
0.587659 0.458682 0.382468
0.586256 0.456446 0.380253
0.586081 0.456166 0.379976
0.586081 0.456166 0.379976
0.586081 0.456166 0.379976
0.586081 0.456166 0.379976
0.227595 0.111844 0.028083
0.256323 0.139483 0.057015
0.283513 0.165621 0.084408
0.287620 0.169239 0.088718
0.292279 0.173527 0.093670
0.300809 0.182496 0.103119
0.310845 0.192703 0.113402
0.327409 0.208275 0.127298
0.347431 0.227530 0.144899
0.377827 0.257836 0.173612
0.400073 0.280193 0.194885
0.404391 0.285059 0.199792
0.414314 0.295397 0.210410
0.433577 0.314851 0.230543
0.450075 0.330982 0.247319
0.463016 0.342837 0.259776
0.478653 0.356917 0.274832
0.496986 0.373221 0.292485
0.514911 0.389724 0.310267
0.532520 0.406381 0.328148
0.548294 0.422571 0.345237
0.562967 0.438480 0.361849
0.574096 0.450563 0.374171
0.583614 0.460906 0.384543
0.590446 0.467700 0.391344
0.596382 0.473311 0.396955
0.592708 0.466732 0.390445
0.586817 0.457340 0.381139
0.586081 0.456166 0.379976
0.586081 0.456166 0.379976
0.586081 0.456166 0.379976
0.586081 0.456166 0.379976
0.242105 0.124841 0.041932
0.284909 0.165767 0.083955
0.325038 0.204136 0.123353
0.325038 0.204136 0.123353
0.325906 0.205130 0.124333
0.332851 0.213082 0.132180
0.340934 0.221973 0.140788
0.353953 0.234926 0.152693
0.371795 0.252706 0.169338
0.404110 0.284964 0.200205
0.428415 0.309251 0.223606
0.435099 0.316005 0.230578
0.446074 0.326890 0.241996
0.464199 0.344661 0.260820
0.479160 0.358635 0.275838
0.490052 0.367726 0.285962
0.503697 0.379939 0.299424
0.520094 0.395276 0.316223
0.536294 0.410838 0.333055
0.552342 0.426577 0.349912
0.567566 0.442757 0.366641
0.582297 0.459203 0.383295
0.594131 0.472801 0.396831
0.604649 0.485104 0.408952
0.607279 0.488180 0.411982
0.607279 0.488180 0.411982
0.601580 0.479095 0.402980
0.594567 0.467915 0.391900
0.597511 0.469783 0.393483
0.601878 0.473515 0.396873
0.606176 0.477499 0.400699
0.610469 0.481500 0.404553
0.280799 0.159502 0.078861
0.321456 0.199322 0.116656
0.359573 0.236654 0.152089
0.359573 0.236654 0.152089
0.360319 0.237526 0.152997
0.366288 0.244503 0.160259
0.372273 0.251515 0.167537
0.378331 0.258678 0.174888
0.390986 0.272278 0.188362
0.423431 0.305187 0.220205
0.448984 0.330613 0.245150
0.459376 0.339578 0.254920
0.473400 0.352602 0.269013
0.493477 0.372390 0.290309
0.508567 0.386929 0.306177
0.517248 0.394719 0.315065
0.528291 0.404883 0.326445
0.541695 0.417422 0.340317
0.555891 0.431358 0.355063
0.570703 0.446381 0.370489
0.585017 0.461765 0.385868
0.599031 0.477365 0.401221
0.608898 0.489223 0.413233
0.616879 0.499379 0.423727
0.618874 0.501918 0.426350
0.618874 0.501918 0.426350
0.616823 0.498648 0.423109
0.614298 0.494623 0.419121
0.627992 0.506094 0.429501
0.644003 0.519780 0.441934
0.659762 0.534387 0.455961
0.675505 0.549057 0.470093
0.319824 0.196148 0.115129
0.350366 0.226495 0.142548
0.378999 0.254945 0.168254
0.378999 0.254945 0.168254
0.379676 0.255749 0.169120
0.385096 0.262177 0.176053
0.391326 0.269487 0.183933
0.401068 0.280623 0.195923
0.415927 0.296583 0.212416
0.446140 0.327011 0.242417
0.470828 0.351343 0.266819
0.483363 0.362264 0.278903
0.498262 0.376230 0.294215
0.517103 0.395275 0.314910
0.531826 0.410121 0.331231
0.541254 0.419570 0.341928
0.551872 0.429947 0.353375
0.563679 0.441254 0.365572
0.576625 0.454185 0.378813
0.590457 0.468379 0.392864
0.603974 0.482549 0.406613
0.617301 0.496706 0.420180
0.627518 0.508144 0.431534
0.636320 0.518345 0.441881
0.638521 0.520895 0.444468
0.638521 0.520895 0.444468
0.638521 0.520895 0.444468
0.638521 0.520895 0.444468
0.656369 0.536598 0.459125
0.676767 0.554544 0.475876
0.694142 0.570669 0.491377
0.711316 0.586671 0.506794
0.359274 0.235346 0.150546
0.369454 0.245462 0.159685
0.378999 0.254945 0.168254
0.378999 0.254945 0.168254
0.379676 0.255749 0.169120
0.385096 0.262177 0.176053
0.394583 0.272585 0.187019
0.421693 0.300245 0.215467
0.448262 0.326970 0.242938
0.473205 0.350893 0.267474
0.494312 0.371261 0.288648
0.506977 0.383808 0.302423
0.519957 0.397181 0.317085
0.533464 0.411932 0.333226
0.547178 0.426754 0.349490
0.561160 0.441667 0.365912
0.574153 0.455167 0.380189
0.586155 0.467255 0.392321
0.598820 0.479978 0.404801
0.612001 0.493196 0.417551
0.624868 0.505619 0.429308
0.637545 0.517564 0.440468
0.651091 0.530278 0.452277
0.665032 0.543341 0.464381
0.668518 0.546607 0.467407
0.668518 0.546607 0.467407
0.668518 0.546607 0.467407
0.668518 0.546607 0.467407
0.682040 0.559635 0.480527
0.697494 0.574523 0.495522
0.703827 0.580455 0.501277
0.709551 0.585789 0.506416
0.359274 0.235346 0.150546
0.369454 0.245462 0.159685
0.378999 0.254945 0.168254
0.378999 0.254945 0.168254
0.380587 0.256716 0.170072
0.393292 0.270885 0.184615
0.408961 0.287682 0.201881
0.437470 0.315861 0.230948
0.464429 0.342164 0.258198
0.486738 0.362834 0.280003
0.507517 0.382664 0.301159
0.524931 0.400642 0.320886
0.538123 0.414874 0.336499
0.544279 0.422859 0.345257
0.557715 0.438002 0.361452
0.580511 0.462348 0.387208
0.596398 0.479149 0.404575
0.605376 0.488407 0.413552
0.617632 0.500990 0.425896
0.632440 0.516160 0.440858
0.645265 0.527891 0.451777
0.656902 0.537559 0.460271
0.671151 0.549785 0.471179
0.686589 0.563174 0.483185
0.690449 0.566521 0.486187
0.690449 0.566521 0.486187
0.690449 0.566521 0.486187
0.690449 0.566521 0.486187
0.702633 0.578951 0.499165
0.716558 0.593157 0.513997
0.721698 0.598009 0.518766
0.726252 0.602237 0.522864
0.319824 0.196148 0.115129
0.350366 0.226495 0.142548
0.378999 0.254945 0.168254
0.378999 0.254945 0.168254
0.382408 0.258652 0.171975
0.409686 0.288303 0.201740
0.434462 0.314776 0.228520
0.448399 0.327473 0.242364
0.464429 0.342164 0.258198
0.486738 0.362834 0.280003
0.510445 0.385550 0.304350
0.537226 0.412767 0.334291
0.552760 0.429307 0.352457
0.549548 0.428055 0.351002
0.563435 0.443865 0.367115
0.599308 0.481611 0.405817
0.618610 0.501893 0.426534
0.621342 0.504711 0.429267
0.633062 0.517221 0.442098
0.651773 0.537269 0.462785
0.665167 0.549366 0.474021
0.675372 0.556693 0.479587
0.687699 0.566666 0.488239
0.700990 0.577843 0.498294
0.704313 0.580637 0.500807
0.704313 0.580637 0.500807
0.704313 0.580637 0.500807
0.704313 0.580637 0.500807
0.718148 0.594547 0.515038
0.733960 0.610444 0.531301
0.747755 0.623330 0.543844
0.761416 0.636016 0.556138
0.302564 0.178999 0.099634
0.342014 0.218197 0.135051
0.378999 0.254945 0.168254
0.378999 0.254945 0.168254
0.385401 0.261538 0.175016
0.436617 0.314283 0.229115
0.476355 0.355190 0.271104
0.466354 0.344793 0.260615
0.466671 0.344433 0.260696
0.497945 0.374178 0.292490
0.526294 0.401560 0.321980
0.548208 0.423743 0.346399
0.559959 0.436198 0.360084
0.554771 0.432441 0.355880
0.572724 0.452385 0.375871
0.620427 0.502800 0.426970
0.644279 0.528008 0.452519
0.644279 0.528008 0.452519
0.651133 0.535793 0.460809
0.663318 0.549633 0.475548
0.677991 0.563038 0.488190
0.694157 0.576183 0.499574
0.707725 0.587008 0.508929
0.720114 0.596778 0.517361
0.718243 0.594417 0.514721
0.711620 0.588014 0.508391
0.719090 0.595346 0.515647
0.729811 0.605848 0.526040
0.741482 0.617492 0.537826
0.753289 0.629299 0.549812
0.765767 0.640938 0.561127
0.778290 0.652566 0.572397
0.302564 0.178999 0.099634
0.342014 0.218197 0.135051
0.378999 0.254945 0.168254
0.378999 0.254945 0.168254
0.389304 0.265165 0.178944
0.471746 0.346923 0.264463
0.530999 0.405963 0.326090
0.489772 0.366553 0.284180
0.470655 0.348466 0.265136
0.517867 0.394344 0.314689
0.552193 0.427776 0.350839
0.558169 0.433826 0.357498
0.561374 0.437223 0.361231
0.559959 0.436198 0.360084
0.584787 0.462972 0.387031
0.643354 0.525487 0.450100
0.672638 0.556745 0.481634
0.672638 0.556745 0.481634
0.671259 0.556187 0.481471
0.668807 0.555195 0.481183
0.685309 0.570641 0.496077
0.713184 0.595951 0.520081
0.730457 0.610040 0.532441
0.742911 0.619030 0.539507
0.732226 0.607936 0.528085
0.713828 0.590148 0.510501
0.734576 0.610515 0.530658
0.764358 0.639687 0.559525
0.770898 0.646151 0.565994
0.774118 0.649371 0.569263
0.777521 0.652546 0.572349
0.780937 0.655717 0.575422
0.358966 0.238158 0.156194
0.369306 0.246822 0.162418
0.378999 0.254945 0.168254
0.378999 0.254945 0.168254
0.390768 0.266525 0.180417
0.484919 0.359163 0.277719
0.551491 0.425003 0.346709
0.498554 0.374713 0.293017
0.469659 0.347458 0.264026
0.512886 0.389302 0.309139
0.545718 0.421222 0.343624
0.555679 0.431305 0.354723
0.565594 0.441540 0.365503
0.575434 0.452030 0.375748
0.604069 0.482677 0.406585
0.656871 0.539240 0.463896
0.683272 0.567521 0.492552
0.683272 0.567521 0.492552
0.684660 0.569255 0.494434
0.687128 0.572337 0.497780
0.701715 0.586140 0.511202
0.723572 0.606375 0.530669
0.738981 0.618677 0.541258
0.751459 0.627374 0.547812
0.742988 0.618342 0.538372
0.727534 0.603400 0.523601
0.748663 0.624208 0.544200
0.778233 0.653266 0.572962
0.781929 0.656899 0.576557
0.781929 0.656899 0.576557
0.791687 0.665970 0.585362
0.802095 0.675647 0.594754
0.449210 0.332813 0.246690
0.412972 0.292623 0.206207
0.378999 0.254945 0.168254
0.378999 0.254945 0.168254
0.390768 0.266525 0.180417
0.484919 0.359163 0.277719
0.551491 0.425003 0.346709
0.498554 0.374713 0.293017
0.465675 0.343424 0.259586
0.492964 0.369136 0.286940
0.519819 0.395006 0.314765
0.545718 0.421222 0.343624
0.571498 0.447834 0.371650
0.597080 0.475107 0.398289
0.627683 0.507852 0.431175
0.664743 0.547632 0.472093
0.683272 0.567521 0.492552
0.683272 0.567521 0.492552
0.694028 0.577927 0.502777
0.713149 0.596426 0.520955
0.723572 0.606375 0.530669
0.728777 0.611193 0.535304
0.738981 0.618677 0.541258
0.751459 0.627374 0.547812
0.751819 0.626880 0.546813
0.748140 0.623323 0.543296
0.761909 0.637016 0.556861
0.779705 0.654689 0.574368
0.781929 0.656899 0.576557
0.781929 0.656899 0.576557
0.807300 0.680485 0.599450
0.834361 0.705644 0.623869
0.477411 0.362393 0.274969
0.426618 0.306936 0.219891
0.378999 0.254945 0.168254
0.378999 0.254945 0.168254
0.388084 0.264032 0.177717
0.460768 0.336723 0.253417
0.513923 0.390096 0.308907
0.482454 0.359753 0.276816
0.464429 0.342164 0.258198
0.486738 0.362834 0.280003
0.515108 0.390419 0.309269
0.556810 0.433215 0.354947
0.590254 0.467830 0.391181
0.609932 0.488810 0.411673
0.634299 0.514663 0.437646
0.664695 0.546782 0.470668
0.680765 0.564050 0.488566
0.682509 0.566465 0.491339
0.692100 0.575983 0.500831
0.707794 0.591027 0.515549
0.719074 0.601839 0.526128
0.727706 0.610113 0.534222
0.738981 0.618677 0.541258
0.751459 0.627374 0.547812
0.758336 0.633305 0.553174
0.763345 0.638314 0.558138
0.771683 0.646653 0.566403
0.780791 0.655760 0.575429
0.791947 0.666212 0.585597
0.803396 0.676856 0.595928
0.823628 0.695665 0.614183
0.844444 0.715018 0.632967
0.477411 0.362393 0.274969
0.426618 0.306936 0.219891
0.378999 0.254945 0.168254
0.378999 0.254945 0.168254
0.384181 0.260405 0.173789
0.425640 0.304083 0.218069
0.459279 0.339323 0.253921
0.459035 0.337993 0.253250
0.464429 0.342164 0.258198
0.486738 0.362834 0.280003
0.520027 0.395664 0.314391
0.577473 0.455244 0.376464
0.614852 0.494054 0.416795
0.618787 0.498250 0.420894
0.633189 0.513126 0.435882
0.661048 0.541733 0.464871
0.677118 0.559000 0.482768
0.681399 0.564928 0.489574
0.685038 0.569214 0.494208
0.688177 0.572222 0.497151
0.702595 0.586043 0.510674
0.723782 0.606352 0.530543
0.738981 0.618677 0.541258
0.751459 0.627374 0.547812
0.763800 0.638769 0.558589
0.776095 0.651064 0.570774
0.779880 0.654850 0.574526
0.781701 0.656671 0.576331
0.806519 0.679759 0.598745
0.834622 0.705886 0.624103
0.840281 0.711148 0.629210
0.844444 0.715018 0.632967
0.477411 0.362393 0.274969
0.426618 0.306936 0.219891
0.378999 0.254945 0.168254
0.378999 0.254945 0.168254
0.387926 0.263999 0.177466
0.459341 0.336431 0.251167
0.518235 0.395962 0.311874
0.522870 0.399593 0.316277
0.530216 0.405922 0.323347
0.545694 0.420348 0.338419
0.566765 0.441611 0.360784
0.600141 0.477918 0.399193
0.621001 0.500611 0.423199
0.621001 0.500611 0.423199
0.632912 0.512742 0.435441
0.660136 0.540470 0.463421
0.676206 0.557738 0.481319
0.681122 0.564544 0.489133
0.683272 0.567521 0.492552
0.683272 0.567521 0.492552
0.698476 0.582095 0.506810
0.722801 0.605412 0.529623
0.738981 0.618677 0.541258
0.751459 0.627374 0.547812
0.765166 0.640135 0.559943
0.779282 0.654252 0.573934
0.792077 0.666333 0.585714
0.804567 0.677945 0.596984
0.823433 0.695484 0.614007
0.843208 0.713869 0.631852
0.844444 0.715018 0.632967
0.844444 0.715018 0.632967
0.477411 0.362393 0.274969
0.426618 0.306936 0.219891
0.378999 0.254945 0.168254
0.378999 0.254945 0.168254
0.394219 0.270000 0.183679
0.515985 0.390440 0.307079
0.615057 0.488406 0.407472
0.615789 0.488979 0.408167
0.617931 0.490933 0.410212
0.624302 0.497032 0.416307
0.627443 0.501126 0.420933
0.623479 0.500809 0.422327
0.621001 0.500611 0.423199
0.621001 0.500611 0.423199
0.632912 0.512742 0.435441
0.660136 0.540470 0.463421
0.676206 0.557738 0.481319
0.681122 0.564544 0.489133
0.683272 0.567521 0.492552
0.683272 0.567521 0.492552
0.698476 0.582095 0.506810
0.722801 0.605412 0.529623
0.738981 0.618677 0.541258
0.751459 0.627374 0.547812
0.765166 0.640135 0.559943
0.779282 0.654252 0.573934
0.805608 0.678913 0.597923
0.834752 0.706007 0.624221
0.841127 0.711934 0.629973
0.844249 0.714837 0.632791
0.844444 0.715018 0.632967
0.844444 0.715018 0.632967
0.491953 0.373146 0.287770
0.462460 0.340945 0.255789
0.434077 0.310073 0.225070
0.422343 0.299132 0.213283
0.426343 0.303506 0.217320
0.540477 0.415082 0.332121
0.633211 0.505739 0.425397
0.633211 0.505739 0.425397
0.634377 0.506873 0.426500
0.639041 0.511410 0.430911
0.643180 0.516232 0.435927
0.646169 0.521681 0.442274
0.648037 0.525086 0.446240
0.648037 0.525086 0.446240
0.660456 0.537610 0.458806
0.688843 0.566237 0.487526
0.697936 0.577188 0.499478
0.687735 0.570463 0.494660
0.691865 0.575073 0.499509
0.707140 0.588498 0.511877
0.718524 0.599715 0.523043
0.727575 0.609607 0.533488
0.738981 0.618677 0.541258
0.751459 0.627374 0.547812
0.760726 0.635696 0.555543
0.768923 0.643892 0.563667
0.801486 0.674612 0.593612
0.839671 0.710529 0.628594
0.844444 0.715018 0.632967
0.844444 0.715018 0.632967
0.844444 0.715018 0.632967
0.844444 0.715018 0.632967
0.509851 0.386380 0.303525
0.506574 0.382802 0.299972
0.501866 0.377922 0.294997
0.475690 0.353516 0.268704
0.464427 0.343358 0.257290
0.557549 0.432947 0.350039
0.633211 0.505739 0.425397
0.633211 0.505739 0.425397
0.634377 0.506873 0.426500
0.639041 0.511410 0.430911
0.648547 0.521091 0.440501
0.668709 0.542087 0.461485
0.681311 0.555209 0.474599
0.681311 0.555209 0.474599
0.694356 0.568217 0.487563
0.724175 0.597950 0.517194
0.724681 0.601127 0.521827
0.695875 0.577749 0.501462
0.702440 0.584367 0.508071
0.736515 0.614316 0.535662
0.743199 0.621402 0.543022
