luts/sepia.cube
# sRGB
# source: Fuji XTrans III - Sepia (Stuart Sowerby Fuji XTrans III .3dl, N17->N32)
LUT_3D_SIZE 5
DOMAIN_MIN 0.000000 0.000000 0.000000
DOMAIN_MAX 0.903226 0.903226 0.903226
0.038584 0.000000 0.000000
0.106763 0.010398 0.000000
0.265201 0.147009 0.066911
0.429375 0.313600 0.226539
0.494017 0.367521 0.285714
0.148592 0.037063 0.001891
0.201526 0.088761 0.019421
0.349166 0.231489 0.149963
0.483102 0.359182 0.275767
0.565293 0.435949 0.358411
0.319824 0.196148 0.115129
0.401068 0.280623 0.195923
0.531826 0.410121 0.331231
0.617301 0.496706 0.420180
0.656369 0.536598 0.459125
0.449210 0.332813 0.246690
0.498554 0.374713 0.293017
0.627683 0.507852 0.431175
0.728777 0.611193 0.535304
0.781929 0.656899 0.576557
0.512088 0.388034 0.305495
0.633211 0.505739 0.425397
0.698594 0.572043 0.491158
0.752808 0.632336 0.554916
0.844444 0.715018 0.632967
0.126614 0.015125 0.000000
0.218059 0.104823 0.037403
0.364100 0.244573 0.160179
0.477725 0.355898 0.272271
0.565771 0.440548 0.362976
0.209759 0.097206 0.027311
0.269683 0.152586 0.076017
0.389771 0.271659 0.186892
0.521547 0.393381 0.314255
0.614121 0.489664 0.412337
0.400257 0.280446 0.196135
0.451435 0.330118 0.245863
0.551844 0.423781 0.346770
0.646467 0.525276 0.447623
0.723200 0.598132 0.517979
0.528010 0.409787 0.327858
0.604020 0.476178 0.397175
0.689865 0.564652 0.484288
0.773316 0.651366 0.573198
0.855731 0.726525 0.644983
0.590476 0.468132 0.390965
0.692203 0.562091 0.478835
0.744953 0.615196 0.532490
0.821628 0.693707 0.612579
0.926740 0.791209 0.707448
0.271968 0.187341 0.127378
0.344513 0.248667 0.181520
0.438713 0.322173 0.237420
0.555482 0.430481 0.354211
0.633007 0.510412 0.432318
0.339126 0.221180 0.139004
0.398769 0.280875 0.195642
0.494279 0.368268 0.286592
0.595677 0.471145 0.394750
0.676615 0.553604 0.474776
0.504908 0.378759 0.297586
0.546694 0.418355 0.340933
0.617632 0.494914 0.417894
0.701489 0.581207 0.503630
0.778391 0.653049 0.573029
0.627621 0.510006 0.434082
0.679772 0.556662 0.477354
0.744982 0.620345 0.540525
0.819554 0.696806 0.618265
0.894150 0.765464 0.684678
0.710036 0.586671 0.507196
0.762513 0.629641 0.544919
0.817684 0.681637 0.595422
0.889516 0.751863 0.666397
0.989751 0.847509 0.762015
0.402009 0.319398 0.272701
0.458268 0.362893 0.309010
0.551550 0.439843 0.373247
0.642447 0.524625 0.449068
0.714443 0.592157 0.513741
0.482067 0.363392 0.290127
0.550110 0.421857 0.345476
0.608323 0.485304 0.408345
0.685076 0.564555 0.486995
0.757476 0.633765 0.554484
0.603224 0.479391 0.402403
0.648000 0.526952 0.449297
0.704292 0.583752 0.506263
0.771149 0.651109 0.573856
0.839384 0.714227 0.634598
0.735144 0.614700 0.536951
0.763531 0.640942 0.562190
0.812100 0.690028 0.611686
0.870638 0.749517 0.671774
0.938051 0.809199 0.728853
0.820119 0.687337 0.603608
0.863967 0.727224 0.641632
0.935914 0.789213 0.700780
0.962187 0.818470 0.732590
0.999866 0.886782 0.802798
0.555059 0.444098 0.378692
0.594967 0.480336 0.410008
0.669084 0.549371 0.473290
0.750295 0.628851 0.550988
0.800152 0.676135 0.596916
0.615624 0.498999 0.426094
0.680784 0.560504 0.483408
0.726375 0.605815 0.528263
0.783401 0.663008 0.585348
0.832981 0.707232 0.627201
0.701359 0.580588 0.502784
0.759711 0.638732 0.560799
0.799131 0.678354 0.600324
0.850699 0.730315 0.652507
0.913799 0.781736 0.699267
0.817301 0.693450 0.613757
0.852091 0.728359 0.648720
0.888783 0.765624 0.686201
0.931973 0.810942 0.732233
0.990579 0.866739 0.784325
0.952137 0.804884 0.716728
0.932919 0.790394 0.703289
0.965939 0.823240 0.736460
1.000000 0.884870 0.796398
1.000000 0.932924 0.853725
