luts/sepia.cube
# sRGB
# source: Fuji XTrans III - Sepia (Stuart Sowerby Fuji XTrans III .3dl, N17->N32)
LUT_3D_SIZE 8
DOMAIN_MIN 0.000000 0.000000 0.000000
DOMAIN_MAX 0.903226 0.903226 0.903226
0.038584 0.000000 0.000000
0.064028 0.000693 0.000000
0.125480 0.019410 0.000158
0.221482 0.108606 0.025751
0.295766 0.177195 0.095585
0.414754 0.297341 0.210658
0.433944 0.318681 0.231502
0.494017 0.367521 0.285714
0.077640 0.001985 0.000016
0.105568 0.014861 0.001389
0.164535 0.052915 0.003530
0.253064 0.135931 0.053876
0.338974 0.220730 0.138989
0.416759 0.299288 0.212635
0.488156 0.360928 0.278388
0.491009 0.363703 0.281348
0.178463 0.061861 0.006176
0.192076 0.082298 0.015767
0.246934 0.130398 0.049589
0.329761 0.211809 0.131846
0.405169 0.287644 0.203714
0.486663 0.362270 0.279579
0.564229 0.435511 0.359321
0.586081 0.456166 0.379976
0.242105 0.124841 0.041932
0.325906 0.205130 0.124333
0.371795 0.252706 0.169338
0.446074 0.326890 0.241996
0.503697 0.379939 0.299424
0.567566 0.442757 0.366641
0.607279 0.488180 0.411982
0.597511 0.469783 0.393483
0.359274 0.235346 0.150546
0.380587 0.256716 0.170072
0.464429 0.342164 0.258198
0.538123 0.414874 0.336499
0.596398 0.479149 0.404575
0.645265 0.527891 0.451777
0.690449 0.566521 0.486187
0.702633 0.578951 0.499165
0.358966 0.238158 0.156194
0.390768 0.266525 0.180417
0.469659 0.347458 0.264026
0.565594 0.441540 0.365503
0.683272 0.567521 0.492552
0.701715 0.586140 0.511202
0.742988 0.618342 0.538372
0.781929 0.656899 0.576557
0.477411 0.362393 0.274969
0.387926 0.263999 0.177466
0.530216 0.405922 0.323347
0.621001 0.500611 0.423199
0.676206 0.557738 0.481319
0.698476 0.582095 0.506810
0.765166 0.640135 0.559943
0.823433 0.695484 0.614007
0.512088 0.388034 0.305495
0.469187 0.348340 0.262287
0.634377 0.506873 0.426500
0.685470 0.558974 0.478144
0.735054 0.609869 0.529658
0.760980 0.636593 0.556929
0.797650 0.671641 0.591348
0.844444 0.715018 0.632967
0.058844 0.000354 0.000000
0.068379 0.004568 0.000749
0.171732 0.063570 0.010259
0.220448 0.108076 0.034705
0.353611 0.233883 0.149433
0.458024 0.339374 0.253894
0.493529 0.367521 0.285470
0.496595 0.370567 0.288665
0.106630 0.014948 0.001649
0.131125 0.031008 0.003542
0.189291 0.081546 0.018130
0.274535 0.155344 0.077357
0.355208 0.235539 0.151042
0.436791 0.318783 0.232791
0.498598 0.371850 0.290430
0.562448 0.432640 0.357147
0.197836 0.087421 0.018492
0.215949 0.104675 0.035562
0.270857 0.152902 0.075754
0.344384 0.225543 0.143072
0.416918 0.299062 0.213706
0.496137 0.369597 0.287944
0.559859 0.430857 0.354625
0.580170 0.451544 0.375603
0.323381 0.201582 0.122085
0.346790 0.226214 0.143288
0.385170 0.266415 0.181926
0.448216 0.328549 0.244048
0.517385 0.389698 0.310112
0.579026 0.452361 0.376378
0.625957 0.503818 0.426156
0.677475 0.553884 0.474620
0.412689 0.290605 0.203678
0.459560 0.339141 0.252834
0.489515 0.363858 0.281159
0.548400 0.421694 0.344333
0.603334 0.481406 0.405104
0.657677 0.538666 0.462133
0.703125 0.581884 0.503984
0.739751 0.614766 0.534952
0.488999 0.371183 0.285355
0.516221 0.391921 0.309752
0.545165 0.417576 0.338326
0.595608 0.471582 0.394632
0.682077 0.561887 0.484518
0.724432 0.605743 0.529349
0.779018 0.656371 0.577685
0.824244 0.696502 0.615220
0.514808 0.391019 0.308653
0.522879 0.398428 0.316325
0.634377 0.506873 0.426500
0.685717 0.559160 0.478287
0.743956 0.617086 0.535930
0.768638 0.643760 0.563845
0.825155 0.700130 0.620620
0.846792 0.717271 0.635220
0.590476 0.468132 0.390965
0.523008 0.398552 0.316443
0.667108 0.538311 0.456407
0.700530 0.572943 0.491420
0.750232 0.621276 0.538836
0.797874 0.668949 0.587041
0.849951 0.722754 0.642223
0.898585 0.766052 0.683512
0.144890 0.030060 0.000189
0.180717 0.071026 0.008904
0.276027 0.156771 0.077423
0.335626 0.215526 0.133554
0.407570 0.288558 0.202836
0.472460 0.351693 0.267587
0.522432 0.397079 0.316978
0.581378 0.456859 0.380653
0.168551 0.060129 0.007638
0.193600 0.084661 0.019356
0.253722 0.136100 0.057991
0.326714 0.207727 0.126345
0.399368 0.281110 0.195565
0.477332 0.354228 0.270919
0.543133 0.415275 0.337899
0.580530 0.453046 0.376874
0.253061 0.135921 0.056014
0.274658 0.157132 0.080102
0.323010 0.204371 0.124439
0.385914 0.267608 0.183198
0.455477 0.335198 0.250968
0.529559 0.401190 0.322566
0.587020 0.460370 0.384302
0.635666 0.512569 0.434399
0.366415 0.246191 0.163439
0.381502 0.262387 0.178667
0.421658 0.303358 0.218844
0.482597 0.358344 0.276158
0.545161 0.417371 0.339961
0.601742 0.477901 0.401145
0.651029 0.529484 0.451570
0.687555 0.563014 0.483307
0.480541 0.364731 0.277806
0.494072 0.370717 0.287732
0.526535 0.397732 0.318410
0.576328 0.449013 0.372650
0.627255 0.505073 0.427653
0.680887 0.560061 0.482357
0.727135 0.605621 0.527544
0.768013 0.641901 0.561381
0.531380 0.412943 0.331380
0.535117 0.411706 0.330951
0.609610 0.483147 0.404652
0.651210 0.527075 0.447632
0.703968 0.580920 0.501887
0.753291 0.631298 0.553051
0.796547 0.674648 0.596421
0.848838 0.718980 0.637131
0.545384 0.426422 0.345225
0.653868 0.525790 0.444386
0.666029 0.537388 0.455566
0.720511 0.591685 0.509322
0.765080 0.633398 0.549554
0.799629 0.670358 0.588330
0.850744 0.723693 0.643211
0.893127 0.761140 0.678722
0.602765 0.479318 0.401331
0.595383 0.465685 0.386944
0.702103 0.571934 0.488412
0.725456 0.596227 0.513687
0.769623 0.637678 0.553684
0.821805 0.692094 0.609842
0.892038 0.759145 0.676229
0.926740 0.791209 0.707448
0.229020 0.135484 0.068187
0.276157 0.163291 0.086182
0.320670 0.204582 0.125140
0.374341 0.254952 0.170052
0.448210 0.331232 0.244919
0.510814 0.384817 0.303860
0.575456 0.452327 0.376804
0.624176 0.501587 0.423687
0.246953 0.132310 0.053975
0.281610 0.161987 0.082969
0.330526 0.211271 0.129049
0.390364 0.271699 0.186238
0.456251 0.336184 0.251418
0.529030 0.402049 0.323235
0.582811 0.457784 0.381963
0.634957 0.511536 0.433484
0.323424 0.204191 0.123169
0.350328 0.231413 0.148322
0.390182 0.272165 0.187319
0.444043 0.325139 0.240255
0.510301 0.382635 0.302491
0.571742 0.444402 0.368556
0.620668 0.498378 0.421062
0.665071 0.541860 0.463090
0.422336 0.303481 0.218750
0.439991 0.320694 0.236033
0.480403 0.356353 0.273859
0.532140 0.404194 0.325902
0.583947 0.457983 0.381855
0.633361 0.512669 0.435376
0.683044 0.562049 0.484246
0.726398 0.601204 0.521112
0.526933 0.402499 0.321997
0.540216 0.413041 0.334573
0.570476 0.442555 0.365925
0.611903 0.488184 0.410968
0.659633 0.538585 0.460839
0.709251 0.588443 0.510696
0.753000 0.631831 0.553979
0.797825 0.671589 0.591199
0.580705 0.460955 0.383918
0.610784 0.489181 0.411817
0.647220 0.523523 0.444338
0.687787 0.563708 0.484139
0.733633 0.610672 0.531583
0.779169 0.657185 0.578832
0.820471 0.698883 0.620826
0.865944 0.737026 0.655713
0.647503 0.525073 0.446364
0.688267 0.556808 0.472961
0.704738 0.576030 0.493416
0.742741 0.612157 0.528793
0.793974 0.662588 0.579190
0.843164 0.712546 0.630075
0.883026 0.753861 0.672632
0.925860 0.792274 0.709777
0.689134 0.559752 0.477053
0.688739 0.557283 0.473439
0.770208 0.638584 0.554335
0.784424 0.651339 0.566407
0.829918 0.693458 0.607381
0.867566 0.733651 0.649581
0.907262 0.772458 0.689023
0.950110 0.812981 0.729406
0.306440 0.228619 0.176848
0.337453 0.252967 0.197652
0.382151 0.287385 0.226272
0.443846 0.333148 0.260924
0.509218 0.384507 0.305467
0.567570 0.443047 0.367691
0.612434 0.492383 0.416187
0.664474 0.542241 0.463704
0.332273 0.226827 0.152112
0.376655 0.259841 0.175541
0.413920 0.296555 0.210816
0.465761 0.344457 0.260041
0.527455 0.399548 0.320680
0.582504 0.456962 0.381148
0.629069 0.508866 0.431783
0.672467 0.549907 0.471316
0.396150 0.279179 0.194457
0.434530 0.316390 0.230770
0.468472 0.346280 0.262630
0.516760 0.388980 0.309262
0.568170 0.440504 0.364442
0.616713 0.494454 0.417317
0.664778 0.544033 0.466377
0.712178 0.589188 0.510310
0.487032 0.362208 0.279906
0.515503 0.387722 0.307732
0.545603 0.417600 0.340067
0.584750 0.458880 0.382662
0.628564 0.507459 0.430290
0.676130 0.556180 0.478935
0.721074 0.600368 0.522856
0.763344 0.639229 0.559961
0.579155 0.454106 0.377332
0.595025 0.469456 0.392587
0.619885 0.497188 0.419701
0.656504 0.535526 0.457763
0.700594 0.580034 0.502506
0.743900 0.623333 0.545827
0.783888 0.663002 0.585284
0.826150 0.700051 0.619938
0.659256 0.541406 0.465347
0.668491 0.548102 0.470432
0.693394 0.570389 0.491338
0.728154 0.605361 0.526562
0.768156 0.645814 0.567269
0.808747 0.687187 0.609053
0.846522 0.725265 0.647292
0.890397 0.761854 0.680970
0.715024 0.593158 0.514787
0.713856 0.588560 0.508067
0.747539 0.618066 0.535383
0.789479 0.656670 0.572333
0.832382 0.699621 0.615869
0.873414 0.741481 0.658790
0.906892 0.777576 0.696455
0.949346 0.815425 0.733270
0.752098 0.625953 0.545088
0.746965 0.617737 0.535114
0.780460 0.645181 0.559451
0.805785 0.670189 0.584149
0.852241 0.714973 0.629103
0.893905 0.758028 0.673689
0.952487 0.812168 0.727882
0.992327 0.852949 0.767164
0.381086 0.301375 0.256064
0.409897 0.323492 0.274523
0.451370 0.355061 0.300370
0.508075 0.399637 0.337034
0.566998 0.449591 0.379151
0.617556 0.499202 0.423937
0.663267 0.544515 0.468105
0.699319 0.577898 0.499950
0.413234 0.317001 0.258274
0.468952 0.354166 0.281508
0.504137 0.380586 0.304546
0.547140 0.419699 0.343747
0.591078 0.465844 0.389871
0.634725 0.514310 0.437221
0.681762 0.561666 0.484399
0.723518 0.600979 0.522430
0.475918 0.355294 0.277342
0.526655 0.398588 0.319710
0.550632 0.422464 0.345496
0.584736 0.458524 0.382498
0.623568 0.501733 0.424403
0.669090 0.548421 0.470738
0.713205 0.592466 0.514820
0.753934 0.630309 0.551133
0.552273 0.424449 0.347342
0.586406 0.460366 0.384079
0.606853 0.483364 0.406520
0.638861 0.517917 0.440378
0.680067 0.559663 0.482240
0.721753 0.601684 0.524485
0.760947 0.640374 0.562853
0.802157 0.677670 0.598312
0.628932 0.507363 0.429810
0.652805 0.531492 0.453553
0.674562 0.553767 0.475928
0.706551 0.585982 0.508205
0.743691 0.623209 0.545766
0.781941 0.661624 0.584213
0.817890 0.697370 0.619805
0.859789 0.734140 0.654532
0.706285 0.586365 0.509015
0.722289 0.600630 0.522315
0.741733 0.619904 0.541443
0.770668 0.649183 0.571072
0.805145 0.683750 0.605696
0.840397 0.719665 0.641998
0.874398 0.753740 0.675974
0.917560 0.789049 0.708608
0.777018 0.649506 0.568334
0.783023 0.655824 0.574850
0.800205 0.671149 0.589111
0.831049 0.699680 0.616673
0.867160 0.735120 0.652266
0.903204 0.770940 0.688571
0.931720 0.802426 0.721707
0.973347 0.841747 0.759863
0.803230 0.672212 0.589365
0.803224 0.673096 0.590724
0.835050 0.700616 0.615917
0.864789 0.726690 0.640937
0.905173 0.765203 0.679196
0.939726 0.797633 0.711671
0.992536 0.852059 0.768665
0.999866 0.881248 0.796122
0.468408 0.372602 0.319241
0.492416 0.392354 0.335776
0.530071 0.424252 0.362918
0.576258 0.465480 0.398571
0.624779 0.510746 0.439616
0.671641 0.555359 0.481900
0.714127 0.595645 0.520090
0.756205 0.633168 0.554471
0.491263 0.390279 0.333119
0.547263 0.435214 0.369399
0.575391 0.459381 0.389804
0.612515 0.493905 0.419853
0.653598 0.533755 0.457050
0.696191 0.575900 0.498587
0.734431 0.613749 0.536253
0.772521 0.648900 0.570029
0.552723 0.432165 0.361012
0.602211 0.478182 0.401929
0.619930 0.498160 0.421115
0.648934 0.528270 0.450925
0.686031 0.565644 0.488199
0.724382 0.604035 0.526675
0.760950 0.640092 0.562433
0.799592 0.675546 0.596282
0.608783 0.486301 0.410115
0.651892 0.531149 0.453494
0.670540 0.549959 0.472344
0.699042 0.578607 0.501014
0.733219 0.612803 0.535261
0.767946 0.647930 0.570582
0.803108 0.682390 0.604724
0.842541 0.716662 0.636733
0.680064 0.559562 0.481977
0.713884 0.593125 0.515470
0.730483 0.609938 0.532391
0.756351 0.635930 0.558402
0.787798 0.667506 0.589990
0.820884 0.700652 0.623148
0.853707 0.732846 0.655084
0.895799 0.767919 0.687465
0.752396 0.631140 0.553266
0.773187 0.651447 0.573230
0.788863 0.667300 0.589178
0.813355 0.692007 0.614071
0.843306 0.722148 0.644299
0.874022 0.753591 0.675948
0.904253 0.783643 0.705833
0.949771 0.819388 0.738420
0.817118 0.690332 0.609760
0.829534 0.701564 0.620296
0.847709 0.717911 0.635863
0.872716 0.742284 0.660280
0.903149 0.772372 0.690495
0.932489 0.801647 0.720358
0.958852 0.830551 0.750500
0.990846 0.869788 0.788890
0.852599 0.719889 0.636915
0.877268 0.742651 0.658604
0.898568 0.759157 0.672783
0.941364 0.795042 0.706821
0.961206 0.815390 0.728162
0.996350 0.848764 0.761019
0.994416 0.873735 0.788281
1.000000 0.908901 0.826173
0.555059 0.444098 0.378692
0.572411 0.459754 0.392362
0.604087 0.488707 0.417373
0.645714 0.527314 0.452602
0.693153 0.572495 0.495315
0.740293 0.618780 0.540861
0.775227 0.653543 0.575436
0.800152 0.676135 0.596916
0.568063 0.456513 0.389496
0.625360 0.508836 0.435755
0.651147 0.533009 0.458063
0.686994 0.567257 0.490821
0.723314 0.603210 0.526126
0.758236 0.637916 0.560589
0.789927 0.668985 0.591113
0.823916 0.698426 0.618564
0.630462 0.512137 0.437402
0.679749 0.558988 0.481318
0.695461 0.574684 0.497009
0.719700 0.598969 0.521222
0.749569 0.629017 0.551487
0.782188 0.661903 0.584333
0.813348 0.692128 0.614011
0.840959 0.714908 0.634768
0.671560 0.551271 0.473946
0.723661 0.602617 0.524613
0.738436 0.617568 0.539638
0.761057 0.640311 0.562328
0.789856 0.669162 0.591194
0.820425 0.700134 0.622301
0.850522 0.729097 0.650848
0.900186 0.768308 0.685780
0.733568 0.612535 0.534381
0.776408 0.655259 0.577023
0.790037 0.669151 0.590943
0.811803 0.690902 0.612748
0.838574 0.717960 0.639847
0.867625 0.747253 0.669258
0.895924 0.773933 0.695312
0.933225 0.801382 0.719416
0.801075 0.678277 0.599144
0.829913 0.707186 0.628160
0.843094 0.720579 0.641560
0.863839 0.741655 0.662718
0.889140 0.767281 0.688607
0.914499 0.793739 0.715294
0.941462 0.819610 0.740793
0.984844 0.856232 0.773599
0.873543 0.741896 0.658565
0.889686 0.756641 0.672786
0.903250 0.769514 0.685526
0.923737 0.790141 0.706477
0.947420 0.813832 0.730591
0.972122 0.840445 0.757498
0.987621 0.866029 0.785079
0.999222 0.900432 0.820209
0.952137 0.804884 0.716728
0.911651 0.774499 0.689285
0.942148 0.797282 0.709528
0.951756 0.808029 0.721171
0.990622 0.846377 0.758758
1.000000 0.876974 0.787344
1.000000 0.907652 0.822554
1.000000 0.932924 0.853725
